;FLAVOR:Marlin
;TIME:622
;Filament used: 1.5037m
;Layer height: 0.25
;MINX:96
;MINY:96
;MINZ:0.3
;MAXX:124
;MAXY:124
;MAXZ:20.05
;Generated with Cura_SteamEngine 4.10.0
M82 ;absolute extrusion mode
# Start bed heating
M140 S60.0
M104 S225.0
# Use absolute coordinates
G90
# Set and wait for nozzle to reach temperature
M109 S225.0
# Wait for bed to reach temperature
M190 S60.0
# Home
G28
# Mesh Level
G29
# Move the nozzle near the bed
G1 Z0.2 X210 Y218 F3000
# Set extruder position to 0
G92 E0
# Move the nozzle near the bed
G1 Z0 F3000
G1 E10 F500
G4 P1000
# Wipe a little without extruding
G1 X200 Y218 F1600
# Set extruder position to 0
G92 E0
# Move the nozzle up to clear
G1 Z3 F3000
G92 E0
G92 E0
G1 F1500 E-4.5
;LAYER_COUNT:80
;LAYER:0
M107
G0 F3600 X97.004 Y97.369 Z0.3
;TYPE:SKIRT
G1 F1500 E0
G1 F3600 X97.406 Y96.972 E0.02819
G1 X97.86 Y96.635 E0.0564
G1 X98.357 Y96.366 E0.08459
G1 X98.887 Y96.169 E0.1128
G1 X99.44 Y96.05 E0.14102
G1 X100.218 Y96.002 E0.17991
G1 X100.33 Y96 E0.1855
G1 X119.35 Y96 E1.13441
G1 X120.048 Y96.01 E1.16924
G1 X120.612 Y96.058 E1.19748
G1 X121.162 Y96.185 E1.22564
G1 X121.69 Y96.389 E1.25388
G1 X122.184 Y96.664 E1.28208
G1 X122.633 Y97.007 E1.31027
G1 X123.03 Y97.409 E1.33846
G1 X123.367 Y97.864 E1.36671
G1 X123.635 Y98.361 E1.39488
G1 X123.831 Y98.891 E1.42307
G1 X123.951 Y99.444 E1.4513
G1 X123.998 Y100.218 E1.48999
G1 X124 Y100.33 E1.49558
G1 X124 Y119.314 E2.44269
G1 X123.991 Y120.041 E2.47897
G1 X123.944 Y120.604 E2.50715
G1 X123.818 Y121.155 E2.53535
G1 X123.616 Y121.683 E2.56356
G1 X123.341 Y122.177 E2.59176
G1 X122.999 Y122.627 E2.61996
G1 X122.597 Y123.025 E2.64818
G1 X122.144 Y123.362 E2.67635
G1 X121.647 Y123.632 E2.70457
G1 X121.117 Y123.829 E2.73278
G1 X120.565 Y123.95 E2.76097
G1 X119.782 Y123.998 E2.80011
G1 X119.67 Y124 E2.8057
G1 X100.655 Y124 E3.75436
G1 X99.957 Y123.991 E3.78919
G1 X99.394 Y123.943 E3.81738
G1 X98.843 Y123.817 E3.84558
G1 X98.315 Y123.615 E3.87378
G1 X97.821 Y123.34 E3.90199
G1 X97.371 Y122.998 E3.93019
G1 X96.973 Y122.596 E3.95841
G1 X96.637 Y122.142 E3.98659
G1 X96.367 Y121.645 E4.01481
G1 X96.17 Y121.115 E4.04301
G1 X96.05 Y120.563 E4.0712
G1 X96.001 Y119.766 E4.11103
G1 X96 Y100.62 E5.06623
G1 X96.009 Y99.955 E5.09941
G1 X96.057 Y99.392 E5.1276
G1 X96.183 Y98.841 E5.1558
G1 X96.386 Y98.313 E5.18402
G1 X96.662 Y97.819 E5.21225
G1 X97.004 Y97.369 E5.24045
G0 X97.397 Y97.531
G1 X97.794 Y97.171 E5.26719
G1 X98.241 Y96.873 E5.29399
G1 X98.726 Y96.645 E5.32073
G1 X99.24 Y96.492 E5.34749
G1 X99.908 Y96.41 E5.38106
G1 X100.33 Y96.4 E5.40212
G1 X119.345 Y96.4 E6.35078
G1 X120.043 Y96.41 E6.38561
G1 X120.577 Y96.458 E6.41236
G1 X121.098 Y96.584 E6.4391
G1 X121.595 Y96.787 E6.46589
G1 X122.056 Y97.061 E6.49264
G1 X122.471 Y97.4 E6.51938
G1 X122.831 Y97.798 E6.54615
G1 X123.128 Y98.244 E6.57288
G1 X123.356 Y98.73 E6.59966
G1 X123.508 Y99.244 E6.62641
G1 X123.59 Y99.909 E6.65983
G1 X123.6 Y100.33 E6.68084
G1 X123.6 Y119.309 E7.62771
G1 X123.591 Y120.036 E7.66398
G1 X123.544 Y120.57 E7.69073
G1 X123.419 Y121.091 E7.71746
G1 X123.217 Y121.588 E7.74422
G1 X122.944 Y122.05 E7.771
G1 X122.606 Y122.466 E7.79774
G1 X122.209 Y122.827 E7.82451
G1 X121.763 Y123.125 E7.85127
G1 X121.278 Y123.353 E7.87801
G1 X120.764 Y123.507 E7.90478
G1 X120.092 Y123.59 E7.93856
G1 X119.67 Y123.6 E7.95962
G1 X100.661 Y123.6 E8.90798
G1 X99.963 Y123.591 E8.94281
G1 X99.428 Y123.544 E8.9696
G1 X98.907 Y123.418 E8.99634
G1 X98.41 Y123.216 E9.02311
G1 X97.949 Y122.943 E9.04984
G1 X97.533 Y122.604 E9.07661
G1 X97.172 Y122.208 E9.10334
G1 X96.874 Y121.762 E9.1301
G1 X96.646 Y121.276 E9.15689
G1 X96.493 Y120.762 E9.18364
G1 X96.41 Y120.088 E9.21752
G1 X96.4 Y119.658 E9.23898
G1 X96.4 Y100.625 E10.18854
G1 X96.409 Y99.96 E10.22172
G1 X96.457 Y99.426 E10.24847
G1 X96.583 Y98.905 E10.27521
G1 X96.785 Y98.408 E10.30198
G1 X97.058 Y97.947 E10.32871
G1 X97.397 Y97.531 E10.35548
G0 X97.454 Y98.082
G1 X97.789 Y97.704 E10.38068
G1 X98.18 Y97.383 E10.40592
G1 X98.617 Y97.128 E10.43116
G1 X99.088 Y96.944 E10.45639
G1 X99.582 Y96.838 E10.48159
G1 X100.24 Y96.801 E10.51447
G1 X119.339 Y96.8 E11.46733
G1 X120.037 Y96.81 E11.50215
G1 X120.54 Y96.857 E11.52736
G1 X121.03 Y96.983 E11.5526
G1 X121.494 Y97.185 E11.57785
G1 X121.92 Y97.457 E11.60306
G1 X122.298 Y97.792 E11.62826
G1 X122.618 Y98.183 E11.65347
G1 X122.873 Y98.62 E11.67871
G1 X123.056 Y99.091 E11.70392
G1 X123.163 Y99.585 E11.72914
G1 X123.199 Y100.24 E11.76186
G1 X123.2 Y119.304 E12.71297
G1 X123.191 Y120.031 E12.74924
G1 X123.145 Y120.534 E12.77444
G1 X123.02 Y121.024 E12.79967
G1 X122.819 Y121.488 E12.8249
G1 X122.548 Y121.915 E12.85013
G1 X122.213 Y122.294 E12.87537
G1 X121.823 Y122.615 E12.90057
G1 X121.387 Y122.871 E12.92579
G1 X120.916 Y123.054 E12.951
G1 X120.422 Y123.162 E12.97623
G1 X119.76 Y123.199 E13.00931
G1 X100.666 Y123.2 E13.96191
G1 X99.968 Y123.191 E13.99674
G1 X99.464 Y123.144 E14.02199
G1 X98.974 Y123.019 E14.04722
G1 X98.51 Y122.818 E14.07245
G1 X98.084 Y122.547 E14.09764
G1 X97.705 Y122.212 E14.12287
G1 X97.384 Y121.821 E14.14811
G1 X97.129 Y121.385 E14.17331
G1 X96.945 Y120.914 E14.19854
G1 X96.838 Y120.42 E14.22376
G1 X96.801 Y119.744 E14.25753
G1 X96.8 Y100.631 E15.21109
G1 X96.809 Y99.966 E15.24427
G1 X96.856 Y99.462 E15.26952
G1 X96.982 Y98.973 E15.29471
G1 X97.183 Y98.509 E15.31994
G1 X97.454 Y98.082 E15.34517
G1 F1500 E10.84517
;MESH:xyzCalibration_cube.stl
G0 F3600 X99.335 Y100.614
G0 X100.614 Y100.614
G0 X119.33 Y119.33
G0 X119.4 Y119.4
;TYPE:WALL-INNER
G1 F1500 E15.34517
G1 F3600 X100.6 Y119.4 E16.28311
G1 X100.6 Y100.6 E17.22104
G1 X119.4 Y100.6 E18.15898
G1 X119.4 Y119.4 E19.09692
G0 X119.8 Y119.8
;TYPE:WALL-OUTER
G1 X100.2 Y119.8 E20.07476
G1 X100.2 Y100.2 E21.05261
G1 X119.8 Y100.2 E22.03046
G1 X119.8 Y119.8 E23.00831
G0 X119.6 Y119.8
G0 X119.36 Y119.36
G0 X119.01 Y119.01
;TYPE:SKIN
G1 X100.99 Y119.01 E23.90733
G1 X100.99 Y100.99 E24.80635
G1 X119.01 Y100.99 E25.70537
G1 X119.01 Y119.01 E26.60439
G0 X118.829 Y101.293
G1 X118.706 Y101.17 E26.61307
G0 X118.14 Y101.17
G1 X118.829 Y101.858 E26.66165
G0 X118.829 Y102.424
G1 X117.574 Y101.17 E26.75016
G0 X117.009 Y101.17
G1 X118.829 Y102.99 E26.87857
G0 X118.829 Y103.555
G1 X116.443 Y101.17 E27.04688
G0 X115.877 Y101.17
G1 X118.829 Y104.121 E27.25513
G0 X118.829 Y104.687
G1 X115.312 Y101.17 E27.50327
G0 X114.746 Y101.17
G1 X118.829 Y105.252 E27.79131
G0 X118.829 Y105.818
G1 X114.18 Y101.17 E28.11929
G0 X113.615 Y101.17
G1 X118.829 Y106.384 E28.48716
G0 X118.829 Y106.949
G1 X113.049 Y101.17 E28.89494
G0 X112.483 Y101.17
G1 X118.829 Y107.515 E29.34265
G0 X118.829 Y108.081
G1 X111.918 Y101.17 E29.83026
G0 X111.352 Y101.17
G1 X118.829 Y108.646 E30.35776
G0 X118.829 Y109.212
G1 X110.786 Y101.17 E30.92521
G0 X110.22 Y101.17
G1 X118.829 Y109.778 E31.53258
G0 X118.829 Y110.344
G1 X109.655 Y101.17 E32.17986
G0 X109.089 Y101.17
G1 X118.829 Y110.909 E32.86703
G0 X118.829 Y111.475
G1 X108.523 Y101.17 E33.59414
G0 X107.958 Y101.17
G1 X118.829 Y112.041 E34.36115
G0 X118.829 Y112.606
G1 X107.392 Y101.17 E35.16805
G0 X106.826 Y101.17
G1 X118.829 Y113.172 E36.0149
G0 X118.829 Y113.738
G1 X106.261 Y101.17 E36.90164
G0 X105.695 Y101.17
G1 X118.829 Y114.303 E37.82828
G0 X118.829 Y114.869
G1 X105.129 Y101.17 E38.79485
G0 X104.564 Y101.17
G1 X118.829 Y115.435 E39.80132
G0 X118.829 Y116
G1 X103.998 Y101.17 E40.84769
G0 X103.432 Y101.17
G1 X118.829 Y116.566 E41.934
G0 X118.829 Y117.132
G1 X102.867 Y101.17 E43.06021
G0 X102.301 Y101.17
G1 X118.829 Y117.697 E44.22631
G0 X118.829 Y118.263
G1 X101.735 Y101.17 E45.43235
G0 X101.169 Y101.169
G1 X118.829 Y118.829 E46.67836
G0 X118.263 Y118.829
G1 X101.169 Y101.734 E47.88447
G0 X101.169 Y102.3
G1 X117.697 Y118.829 E49.05064
G0 X117.132 Y118.829
G1 X101.169 Y102.866 E50.17692
G0 X101.169 Y103.432
G1 X116.566 Y118.829 E51.26326
G0 X116 Y118.829
G1 X101.169 Y103.997 E52.3097
G0 X101.169 Y104.563
G1 X115.435 Y118.829 E53.31624
G0 X114.869 Y118.829
G1 X101.169 Y105.129 E54.28285
G0 X101.169 Y105.694
G1 X114.303 Y118.829 E55.20956
G0 X113.738 Y118.829
G1 X101.169 Y106.26 E56.09637
G0 X101.169 Y106.826
G1 X113.172 Y118.829 E56.94325
G0 X112.606 Y118.829
G1 X101.169 Y107.391 E57.75023
G0 X101.169 Y107.957
G1 X112.041 Y118.829 E58.51731
G0 X111.475 Y118.829
G1 X101.169 Y108.523 E59.24445
G0 X101.169 Y109.088
G1 X110.909 Y118.829 E59.9317
G0 X110.344 Y118.829
G1 X101.169 Y109.654 E60.57904
G0 X101.169 Y110.22
G1 X109.778 Y118.829 E61.18645
G0 X109.212 Y118.829
G1 X101.169 Y110.785 E61.75396
G0 X101.169 Y111.351
G1 X108.646 Y118.829 E62.28154
G0 X108.081 Y118.829
G1 X101.169 Y111.917 E62.76922
G0 X101.169 Y112.483
G1 X107.515 Y118.829 E63.21697
G0 X106.949 Y118.829
G1 X101.169 Y113.048 E63.62481
G0 X101.169 Y113.614
G1 X106.384 Y118.829 E63.99276
G0 X105.818 Y118.829
G1 X101.169 Y114.18 E64.32077
G0 X101.169 Y114.745
G1 X105.252 Y118.829 E64.60888
G0 X104.687 Y118.829
G1 X101.169 Y115.311 E64.8571
G0 X101.169 Y115.877
G1 X104.121 Y118.829 E65.06538
G0 X103.555 Y118.829
G1 X101.169 Y116.442 E65.23376
G0 X101.169 Y117.008
G1 X102.99 Y118.829 E65.36224
G0 X102.424 Y118.829
G1 X101.169 Y117.574 E65.45079
G0 X101.169 Y118.139
G1 X101.858 Y118.829 E65.49943
G0 X101.293 Y118.829
M104 S225
G1 X101.169 Y118.705 E65.50818
;MESH:NONMESH
G0 F600 X101.169 Y118.705 Z0.55
G0 F3600 X119.33 Y119.33
G0 X119.4 Y119.4
;TIME_ELAPSED:29.310096
;LAYER:1
M106 S255
;TYPE:WALL-INNER
;MESH:xyzCalibration_cube.stl
G1 F5400 X100.6 Y119.4 E66.2898
G1 X100.6 Y100.6 E67.07141
G1 X119.4 Y100.6 E67.85302
G1 X119.4 Y119.4 E68.63464
G0 X119.8 Y119.8
;TYPE:WALL-OUTER
G1 F3600 X100.2 Y119.8 E69.44951
G1 X100.2 Y100.2 E70.26438
G1 X119.8 Y100.2 E71.07925
G1 X119.8 Y119.8 E71.89413
G0 F5400 X119.6 Y119.8
G0 X119.36 Y119.36
G0 X119.01 Y119.01
;TYPE:SKIN
G1 F3600 X100.99 Y119.01 E72.64331
G1 X100.99 Y100.99 E73.3925
G1 X119.01 Y100.99 E74.14168
G1 X119.01 Y119.01 E74.89087
G0 F5400 X118.758 Y118.829
G1 F3600 X118.829 Y118.758 E74.89504
G0 F5400 X118.829 Y118.192
G1 F3600 X118.192 Y118.829 E74.93249
G0 F5400 X117.627 Y118.829
G1 F3600 X118.829 Y117.627 E75.00317
G0 F5400 X118.829 Y117.061
G1 F3600 X117.061 Y118.829 E75.10712
G0 F5400 X116.495 Y118.829
G1 F3600 X118.829 Y116.495 E75.24435
G0 F5400 X118.829 Y115.93
G1 F3600 X115.93 Y118.829 E75.4148
G0 F5400 X115.364 Y118.829
G1 F3600 X118.829 Y115.364 E75.61853
G0 F5400 X118.829 Y114.798
G1 F3600 X114.798 Y118.829 E75.85554
G0 F5400 X114.233 Y118.829
G1 F3600 X118.829 Y114.233 E76.12576
G0 F5400 X118.829 Y113.667
G1 F3600 X113.667 Y118.829 E76.42927
G0 F5400 X113.101 Y118.829
G1 F3600 X118.829 Y113.101 E76.76605
G0 F5400 X118.829 Y112.536
G1 F3600 X112.536 Y118.829 E77.13606
G0 F5400 X111.97 Y118.829
G1 F3600 X118.829 Y111.97 E77.53934
G0 F5400 X118.829 Y111.404
G1 F3600 X111.404 Y118.829 E77.9759
G0 F5400 X110.838 Y118.829
G1 F3600 X118.829 Y110.838 E78.44574
G0 F5400 X118.829 Y110.273
G1 F3600 X110.273 Y118.829 E78.9488
G0 F5400 X109.707 Y118.829
G1 F3600 X118.829 Y109.707 E79.48514
G0 F5400 X118.829 Y109.141
G1 F3600 X109.141 Y118.829 E80.05476
G0 F5400 X108.576 Y118.829
G1 F3600 X118.829 Y108.576 E80.65759
G0 F5400 X118.829 Y108.01
G1 F3600 X108.01 Y118.829 E81.29371
G0 F5400 X107.444 Y118.829
G1 F3600 X118.829 Y107.444 E81.9631
G0 F5400 X118.829 Y106.879
G1 F3600 X106.879 Y118.829 E82.66572
G0 F5400 X106.313 Y118.829
G1 F3600 X118.829 Y106.313 E83.40161
G0 F5400 X118.829 Y105.747
G1 F3600 X105.747 Y118.829 E84.17078
G0 F5400 X105.182 Y118.829
G1 F3600 X118.829 Y105.182 E84.97317
G0 F5400 X118.829 Y104.616
G1 F3600 X104.616 Y118.829 E85.80884
G0 F5400 X104.05 Y118.829
G1 F3600 X118.829 Y104.05 E86.67779
G0 F5400 X118.829 Y103.485
G1 F3600 X103.485 Y118.829 E87.57996
G0 F5400 X102.919 Y118.829
G1 F3600 X118.829 Y102.919 E88.51541
G0 F5400 X118.829 Y102.353
G1 F3600 X102.353 Y118.829 E89.48413
G0 F5400 X101.788 Y118.829
G1 F3600 X118.829 Y101.788 E90.48608
G0 F5400 X118.829 Y101.222
G1 F3600 X101.222 Y118.829 E91.5213
G0 F5400 X101.17 Y118.315
G1 F3600 X118.316 Y101.169 E92.52942
G0 F5400 X117.75 Y101.169
G1 F3600 X101.17 Y117.75 E93.50429
G0 F5400 X101.17 Y117.184
G1 F3600 X117.185 Y101.169 E94.44591
G0 F5400 X116.619 Y101.169
G1 F3600 X101.17 Y116.618 E95.35426
G0 F5400 X101.17 Y116.053
G1 F3600 X116.053 Y101.169 E96.22935
G0 F5400 X115.488 Y101.169
G1 F3600 X101.17 Y115.487 E97.07119
G0 F5400 X101.17 Y114.921
G1 F3600 X114.922 Y101.169 E97.87976
G0 F5400 X114.356 Y101.169
G1 F3600 X101.17 Y114.356 E98.65507
G0 F5400 X101.17 Y113.79
G1 F3600 X113.791 Y101.169 E99.39714
G0 F5400 X113.225 Y101.169
G1 F3600 X101.17 Y113.224 E100.10593
G0 F5400 X101.17 Y112.659
G1 F3600 X112.659 Y101.169 E100.78146
G0 F5400 X112.094 Y101.169
G1 F3600 X101.17 Y112.093 E101.42375
G0 F5400 X101.17 Y111.527
G1 F3600 X111.528 Y101.169 E102.03276
G0 F5400 X110.962 Y101.169
G1 F3600 X101.17 Y110.962 E102.60853
G0 F5400 X101.17 Y110.396
G1 F3600 X110.397 Y101.169 E103.15104
G0 F5400 X109.831 Y101.169
G1 F3600 X101.17 Y109.83 E103.66027
G0 F5400 X101.17 Y109.264
G1 F3600 X109.265 Y101.169 E104.13623
G0 F5400 X108.699 Y101.169
G1 F3600 X101.17 Y108.699 E104.57893
G0 F5400 X101.17 Y108.133
G1 F3600 X108.134 Y101.169 E104.98839
G0 F5400 X107.568 Y101.169
G1 F3600 X101.17 Y107.567 E105.36457
G0 F5400 X101.17 Y107.002
G1 F3600 X107.002 Y101.169 E105.7075
G0 F5400 X106.437 Y101.169
G1 F3600 X101.17 Y106.436 E106.01718
G0 F5400 X101.17 Y105.87
G1 F3600 X105.871 Y101.169 E106.29358
G0 F5400 X105.305 Y101.169
G1 F3600 X101.17 Y105.305 E106.53673
G0 F5400 X101.17 Y104.739
G1 F3600 X104.74 Y101.169 E106.74663
G0 F5400 X104.174 Y101.169
G1 F3600 X101.17 Y104.173 E106.92325
G0 F5400 X101.17 Y103.608
G1 F3600 X103.608 Y101.169 E107.06663
G0 F5400 X103.043 Y101.169
G1 F3600 X101.17 Y103.042 E107.17675
G0 F5400 X101.17 Y102.476
G1 F3600 X102.477 Y101.169 E107.2536
G0 F5400 X101.911 Y101.169
G1 F3600 X101.17 Y101.911 E107.2972
G0 F5400 X101.17 Y101.345
G1 F3600 X101.346 Y101.169 E107.30755
;MESH:NONMESH
G0 F600 X101.346 Y101.169 Z0.8
G0 F5400 X119.33 Y119.33
G0 X119.4 Y119.4
;TIME_ELAPSED:47.768315
;LAYER:2
;TYPE:WALL-INNER
;MESH:xyzCalibration_cube.stl
G1 F7200 X100.6 Y119.4 E108.08916
G1 X100.6 Y100.6 E108.87077
G1 X119.4 Y100.6 E109.65239
G1 X119.4 Y119.4 E110.434
G0 X119.8 Y119.8
;TYPE:WALL-OUTER
G1 F3600 X100.2 Y119.8 E111.24887
G1 X100.2 Y100.2 E112.06374
G1 X119.8 Y100.2 E112.87862
G1 X119.8 Y119.8 E113.69349
G0 F7200 X119.6 Y119.8
G0 X119.36 Y119.36
G0 X119.01 Y119.01
;TYPE:SKIN
G1 F3600 X100.99 Y119.01 E114.44268
G1 X100.99 Y100.99 E115.19186
G1 X119.01 Y100.99 E115.94105
G1 X119.01 Y119.01 E116.69023
G0 F7200 X118.829 Y101.293
G1 F3600 X118.706 Y101.17 E116.69746
G0 F7200 X118.14 Y101.17
G1 F3600 X118.829 Y101.858 E116.73794
G0 F7200 X118.829 Y102.424
G1 F3600 X117.574 Y101.17 E116.8117
G0 F7200 X117.009 Y101.17
G1 F3600 X118.829 Y102.99 E116.91871
G0 F7200 X118.829 Y103.555
G1 F3600 X116.443 Y101.17 E117.05897
G0 F7200 X115.877 Y101.17
G1 F3600 X118.829 Y104.121 E117.23251
G0 F7200 X118.829 Y104.687
G1 F3600 X115.312 Y101.17 E117.43929
G0 F7200 X114.746 Y101.17
G1 F3600 X118.829 Y105.252 E117.67933
G0 F7200 X118.829 Y105.818
G1 F3600 X114.18 Y101.17 E117.95264
G0 F7200 X113.615 Y101.17
G1 F3600 X118.829 Y106.384 E118.25921
G0 F7200 X118.829 Y106.949
G1 F3600 X113.049 Y101.17 E118.59902
G0 F7200 X112.483 Y101.17
G1 F3600 X118.829 Y107.515 E118.97211
G0 F7200 X118.829 Y108.081
G1 F3600 X111.918 Y101.17 E119.37845
G0 F7200 X111.352 Y101.17
G1 F3600 X118.829 Y108.646 E119.81804
G0 F7200 X118.829 Y109.212
G1 F3600 X110.786 Y101.17 E120.29091
G0 F7200 X110.22 Y101.17
G1 F3600 X118.829 Y109.778 E120.79705
G0 F7200 X118.829 Y110.344
G1 F3600 X109.655 Y101.17 E121.33645
G0 F7200 X109.089 Y101.17
G1 F3600 X118.829 Y110.909 E121.9091
G0 F7200 X118.829 Y111.475
G1 F3600 X108.523 Y101.17 E122.51502
G0 F7200 X107.958 Y101.17
G1 F3600 X118.829 Y112.041 E123.15419
G0 F7200 X118.829 Y112.606
G1 F3600 X107.392 Y101.17 E123.82661
G0 F7200 X106.826 Y101.17
G1 F3600 X118.829 Y113.172 E124.53232
G0 F7200 X118.829 Y113.738
G1 F3600 X106.261 Y101.17 E125.27127
G0 F7200 X105.695 Y101.17
G1 F3600 X118.829 Y114.303 E126.04347
G0 F7200 X118.829 Y114.869
G1 F3600 X105.129 Y101.17 E126.84894
