;FLAVOR:Marlin
;TIME:849
;Filament used: 1.95518m
;Layer height: 0.24
;MINX:96.05
;MINY:91.638
;MINZ:0.24
;MAXX:124.05
;MAXY:128.434
;MAXZ:26.64
;Generated with Cura_SteamEngine 4.10.0
M82 ;absolute extrusion mode
;Starting G-Code (LETU V6): 
M140 S60.0 
M104 S220.0 
G90 
M109 S220.0 
M190 S60.0 
G28 
G29 
G1 Z0.2 X10 Y218 F3000 
G92 E0 
G1 Z0.2 F3000 
G1 E10 F500 
G4 P1000 
G1 X20 F1600 
G92 E0 
G1 Z3 F3000
G92 E0
G92 E0
G1 F3600 E-3.5
;LAYER_COUNT:111
;LAYER:0
M107
G0 F7200 X104.544 Y95.9 Z0.24
;TYPE:SKIRT
G1 F3600 E0
G1 F5400 X104.697 Y95.748 E0.00861
G1 X105.125 Y95.379 E0.03116
G1 X105.621 Y95.063 E0.05464
G1 X105.885 Y94.921 E0.0666
G1 X106.663 Y94.603 E0.10014
G1 X106.718 Y94.587 E0.10243
G1 X107.533 Y94.439 E0.13549
G1 X108.023 Y94.409 E0.15508
G1 X108.722 Y94.399 E0.18299
G1 X111.31 Y94.402 E0.28628
G1 X112.266 Y94.419 E0.32444
G1 X112.829 Y94.469 E0.347
G1 X113.468 Y94.626 E0.37326
G1 X113.736 Y94.716 E0.38455
G1 X114.258 Y94.934 E0.40712
G1 X114.835 Y95.287 E0.43412
G1 X115.002 Y95.41 E0.4424
G1 X115.474 Y95.818 E0.4673
G1 X115.893 Y96.287 E0.4924
G1 X116.222 Y96.715 E0.51395
G1 X117.945 Y98.893 E0.62479
G1 X119.698 Y100.986 E0.73375
G1 X121.474 Y102.987 E0.84054
G1 X122.899 Y104.51 E0.92378
G1 X123.024 Y104.65 E0.93127
G1 X123.37 Y105.097 E0.95384
G1 X123.649 Y105.589 E0.97641
G1 X123.856 Y106.115 E0.99897
G1 X123.987 Y106.665 E1.02154
G1 X124.038 Y107.191 E1.04263
G1 X124.05 Y107.639 E1.06052
G1 X124.05 Y111.878 E1.2297
G1 X124.04 Y112.601 E1.25856
G1 X123.992 Y113.165 E1.28115
G1 X123.865 Y113.716 E1.30372
G1 X123.662 Y114.243 E1.32626
G1 X123.387 Y114.737 E1.34883
G1 X123.12 Y115.098 E1.36675
G1 X122.489 Y115.859 E1.40621
G1 X121.892 Y116.556 E1.44283
G1 X120.185 Y118.672 E1.55134
G1 X118.562 Y120.802 E1.65822
G1 X117.968 Y121.603 E1.69802
G1 X117.607 Y122.056 E1.72114
G1 X117.522 Y122.155 E1.72635
G1 X116.312 Y123.526 E1.79933
G1 X115.68 Y124.216 E1.83668
G1 X115.269 Y124.605 E1.85927
G1 X114.685 Y125.014 E1.88772
G1 X114.191 Y125.289 E1.91029
G1 X113.663 Y125.491 E1.93285
G1 X112.914 Y125.659 E1.96349
G1 X112.243 Y125.734 E1.99044
G1 X111.827 Y125.743 E2.00704
G1 X108.498 Y125.74 E2.13991
G1 X107.775 Y125.728 E2.16877
G1 X107.211 Y125.679 E2.19137
G1 X106.62 Y125.538 E2.21562
G1 X106.358 Y125.454 E2.2266
G1 X105.833 Y125.244 E2.24917
G1 X105.335 Y124.963 E2.27199
G1 X104.873 Y124.639 E2.29451
G1 X104.451 Y124.242 E2.31763
G1 X103.635 Y123.353 E2.3658
G1 X102.879 Y122.496 E2.41141
G1 X102.37 Y121.902 E2.44263
G1 X102.186 Y121.671 E2.45442
G1 X101.733 Y121.056 E2.4849
G1 X100.095 Y118.892 E2.59323
G1 X98.393 Y116.772 E2.70173
G1 X97.266 Y115.432 E2.77162
G1 X97.021 Y115.146 E2.78665
G1 X96.685 Y114.691 E2.80922
G1 X96.416 Y114.194 E2.83178
G1 X96.22 Y113.664 E2.85433
G1 X96.1 Y113.111 E2.87692
G1 X96.052 Y112.342 E2.90767
G1 X96.05 Y112.219 E2.91258
G1 X96.05 Y107.959 E3.08261
G1 X96.06 Y107.256 E3.11067
G1 X96.108 Y106.693 E3.13322
G1 X96.235 Y106.142 E3.15579
G1 X96.439 Y105.614 E3.17838
G1 X96.714 Y105.121 E3.20091
G1 X97.131 Y104.589 E3.22789
G1 X97.995 Y103.66 E3.27852
G1 X99.794 Y101.671 E3.38556
G1 X101.575 Y99.587 E3.49498
G1 X103.58 Y97.088 E3.62285
G1 X104.202 Y96.286 E3.66336
G1 X104.544 Y95.9 E3.68394
G0 F7200 X104.979 Y96.032
G1 F5400 X105.386 Y95.684 E3.70532
G1 X105.811 Y95.416 E3.72537
G1 X106.075 Y95.274 E3.73733
G1 X106.774 Y94.987 E3.76749
G1 X106.829 Y94.971 E3.76978
G1 X107.563 Y94.838 E3.79955
G1 X108.029 Y94.809 E3.81819
G1 X108.722 Y94.799 E3.84585
G1 X111.303 Y94.802 E3.94886
G1 X112.259 Y94.819 E3.98702
G1 X112.793 Y94.868 E4.00843
G1 X113.341 Y95.005 E4.03097
G1 X113.609 Y95.095 E4.04225
G1 X114.103 Y95.303 E4.06365
G1 X114.598 Y95.609 E4.08687
G1 X114.765 Y95.732 E4.09515
G1 X115.189 Y96.099 E4.11753
G1 X115.576 Y96.53 E4.14065
G1 X115.925 Y96.985 E4.16354
G1 X117.623 Y99.131 E4.27276
G1 X119.394 Y101.245 E4.38283
G1 X121.2 Y103.281 E4.49145
G1 X122.6 Y104.776 E4.5732
G1 X122.725 Y104.916 E4.58069
G1 X123.052 Y105.342 E4.60213
G1 X123.311 Y105.811 E4.62351
G1 X123.498 Y106.314 E4.64493
G1 X123.608 Y106.839 E4.66634
G1 X123.648 Y107.528 E4.69388
G1 X123.65 Y107.639 E4.69831
G1 X123.65 Y111.873 E4.8673
G1 X123.64 Y112.596 E4.89616
G1 X123.592 Y113.13 E4.91756
G1 X123.466 Y113.651 E4.93895
G1 X123.264 Y114.148 E4.96037
G1 X122.99 Y114.609 E4.98177
G1 X122.812 Y114.843 E4.9935
G1 X122.185 Y115.599 E5.0327
G1 X121.593 Y116.291 E5.06905
G1 X119.871 Y118.424 E5.17846
G1 X118.244 Y120.56 E5.28563
G1 X117.697 Y121.298 E5.3223
G1 X117.298 Y121.801 E5.34792
G1 X117.222 Y121.89 E5.35259
G1 X116.017 Y123.256 E5.42529
G1 X115.385 Y123.946 E5.46264
G1 X114.994 Y124.313 E5.48404
G1 X114.467 Y124.679 E5.50965
G1 X113.997 Y124.938 E5.53107
G1 X113.494 Y125.124 E5.55247
G1 X112.837 Y125.267 E5.57931
G1 X112.233 Y125.334 E5.60356
G1 X111.827 Y125.343 E5.61977
G1 X108.504 Y125.341 E5.7524
G1 X107.781 Y125.329 E5.78126
G1 X107.247 Y125.28 E5.80266
G1 X106.742 Y125.157 E5.82341
G1 X106.48 Y125.073 E5.83439
G1 X105.983 Y124.872 E5.85579
G1 X105.541 Y124.62 E5.87609
G1 X105.104 Y124.311 E5.89746
G1 X104.746 Y123.971 E5.91716
G1 X103.934 Y123.088 E5.96504
G1 X103.182 Y122.235 E6.01043
G1 X102.673 Y121.641 E6.04165
G1 X102.508 Y121.434 E6.05221
G1 X102.055 Y120.819 E6.0827
G1 X100.41 Y118.646 E6.19148
G1 X98.69 Y116.503 E6.30115
G1 X97.294 Y114.844 E6.38769
G1 X97.007 Y114.453 E6.40705
G1 X96.758 Y113.979 E6.42842
G1 X96.581 Y113.472 E6.44985
G1 X96.482 Y112.945 E6.47125
G1 X96.452 Y112.329 E6.49587
G1 X96.45 Y112.219 E6.50026
G1 X96.45 Y107.965 E6.67004
G1 X96.46 Y107.262 E6.6981
G1 X96.508 Y106.728 E6.7195
G1 X96.634 Y106.206 E6.74094
G1 X96.837 Y105.71 E6.76233
G1 X97.111 Y105.249 E6.78373
G1 X97.424 Y104.861 E6.80363
G1 X98.269 Y103.953 E6.85313
G1 X100.129 Y101.896 E6.96382
G1 X101.876 Y99.851 E7.07117
G1 X103.896 Y97.334 E7.19998
G1 X104.518 Y96.532 E7.24048
G1 X104.979 Y96.032 E7.26763
G0 F7200 X105.261 Y96.316
G1 F5400 X105.646 Y95.989 E7.28779
G1 X106.264 Y95.626 E7.3164
G1 X106.886 Y95.371 E7.34323
G1 X106.941 Y95.355 E7.34551
G1 X107.593 Y95.237 E7.37196
G1 X108.035 Y95.209 E7.38963
G1 X108.722 Y95.199 E7.41706
G1 X111.296 Y95.202 E7.51979
G1 X112.252 Y95.219 E7.55795
G1 X112.755 Y95.267 E7.57812
G1 X113.482 Y95.474 E7.60829
G1 X113.947 Y95.673 E7.62848
G1 X114.528 Y96.054 E7.65621
G1 X114.996 Y96.473 E7.68128
G1 X115.259 Y96.774 E7.69723
G1 X115.614 Y97.236 E7.72049
G1 X117.318 Y99.39 E7.83011
G1 X119.072 Y101.483 E7.9391
G1 X120.91 Y103.556 E8.04967
G1 X122.302 Y105.043 E8.13097
G1 X122.427 Y105.183 E8.13846
G1 X122.733 Y105.585 E8.15862
G1 X122.972 Y106.031 E8.17882
G1 X123.137 Y106.509 E8.199
G1 X123.238 Y107.216 E8.22751
G1 X123.25 Y107.639 E8.2444
G1 X123.25 Y111.867 E8.41314
G1 X123.24 Y112.59 E8.442
G1 X123.193 Y113.094 E8.46221
G1 X123.067 Y113.583 E8.48236
G1 X122.866 Y114.047 E8.50254
G1 X122.504 Y114.587 E8.52849
G1 X121.882 Y115.338 E8.56741
G1 X121.26 Y116.065 E8.6056
G1 X119.557 Y118.175 E8.71382
G1 X117.952 Y120.282 E8.81953
G1 X117.335 Y121.114 E8.86088
G1 X116.99 Y121.546 E8.88294
G1 X116.922 Y121.626 E8.88713
G1 X115.722 Y122.985 E8.95949
G1 X115.09 Y123.675 E8.99684
G1 X114.72 Y124.02 E9.01703
G1 X114.248 Y124.344 E9.03988
G1 X113.804 Y124.586 E9.06006
G1 X113.119 Y124.804 E9.08875
G1 X112.759 Y124.875 E9.1034
G1 X112.222 Y124.934 E9.12496
G1 X111.827 Y124.943 E9.14073
G1 X108.511 Y124.941 E9.27308
G1 X107.788 Y124.929 E9.30194
G1 X107.285 Y124.88 E9.32211
G1 X106.602 Y124.692 E9.35038
G1 X105.93 Y124.388 E9.37982
G1 X105.747 Y124.278 E9.38834
G1 X105.336 Y123.984 E9.40851
G1 X105.04 Y123.701 E9.42485
G1 X104.234 Y122.823 E9.47242
G1 X103.486 Y121.975 E9.51756
G1 X102.977 Y121.381 E9.54878
G1 X102.831 Y121.197 E9.55815
G1 X102.378 Y120.582 E9.58864
G1 X100.726 Y118.399 E9.6979
G1 X99.027 Y116.283 E9.80621
G1 X97.601 Y114.588 E9.89462
G1 X97.331 Y114.217 E9.91293
G1 X97.102 Y113.766 E9.93312
G1 X96.947 Y113.285 E9.95329
G1 X96.862 Y112.643 E9.97914
G1 X96.85 Y112.219 E9.99607
G1 X96.85 Y107.97 E10.16565
G1 X96.86 Y107.267 E10.19371
G1 X96.907 Y106.764 E10.21388
G1 X97.033 Y106.274 E10.23407
G1 X97.235 Y105.811 E10.25423
G1 X97.506 Y105.384 E10.27442
G1 X97.717 Y105.134 E10.28747
G1 X98.551 Y104.237 E10.33636
G1 X100.429 Y102.161 E10.44809
G1 X102.179 Y100.111 E10.55567
G1 X104.224 Y97.564 E10.68604
G1 X104.834 Y96.777 E10.72578
G1 X105.261 Y96.316 E10.75086
G1 F3600 E7.25086
;MESH:T-nut corner_Default.STL(1)
G0 F7200 X106.723 Y98.468
G0 X107.751 Y99.239
G0 X111.88 Y116.755
G0 X111.95 Y116.685
;TYPE:WALL-INNER
G1 F3600 E10.75086
G1 F5400 X114.426 Y116.686 E10.84968
G1 X114.45 Y116.835 E10.8557
G1 X114.45 Y118.204 E10.91034
G1 X114.419 Y118.513 E10.92274
G1 X114.335 Y118.765 E10.93334
G1 X114.203 Y118.965 E10.9429
G1 X112.398 Y121.007 E11.05168
G1 X112.259 Y121.117 E11.05876
G1 X112.152 Y121.143 E11.06315
G1 X107.953 Y121.141 E11.23074
G1 X107.839 Y121.115 E11.23541
G1 X107.698 Y121.004 E11.24257
G1 X105.897 Y118.965 E11.35115
G1 X105.765 Y118.765 E11.36072
G1 X105.681 Y118.513 E11.37132
G1 X105.651 Y118.218 E11.38315
G1 X105.65 Y116.835 E11.43835
G1 X105.674 Y116.687 E11.44433
G1 X108.15 Y116.685 E11.54316
G1 X108.15 Y111.949 E11.73218
G1 X100.65 Y111.949 E12.03152
G1 X100.65 Y107.909 E12.19277
G1 X108.15 Y107.909 E12.49211
G1 X108.15 Y103.174 E12.68109
G1 X105.754 Y103.173 E12.77672
G1 X105.68 Y103.173 E12.77968
G1 X105.652 Y102.909 E12.79027
G1 X105.659 Y102.836 E12.7932
G1 X105.683 Y102.613 E12.80215
G1 X105.831 Y102.245 E12.81798
G1 X107.735 Y99.228 E12.96037
G1 X107.888 Y99.054 E12.96962
G1 X108.03 Y98.999 E12.9757
G1 X112.051 Y99.001 E13.13618
G1 X112.17 Y99.029 E13.14106
G1 X112.35 Y99.207 E13.15117
G1 X114.274 Y102.253 E13.29496
G1 X114.384 Y102.489 E13.30535
G1 X114.438 Y102.753 E13.31611
G1 X114.425 Y103.172 E13.33284
G1 X111.95 Y103.174 E13.43162
G1 X111.95 Y107.909 E13.62061
G1 X119.45 Y107.909 E13.91995
G1 X119.45 Y111.949 E14.08119
G1 X111.95 Y111.949 E14.38053
G1 X111.95 Y116.685 E14.56956
G0 F7200 X112.35 Y116.285
;TYPE:WALL-OUTER
G1 F5400 X114.566 Y116.286 E14.658
G1 X114.698 Y116.358 E14.664
G1 X114.808 Y116.541 E14.67253
G1 X114.85 Y116.803 E14.68312
G1 X114.85 Y118.224 E14.73983
G1 X114.813 Y118.596 E14.75475
G1 X114.697 Y118.942 E14.76932
G1 X114.52 Y119.211 E14.78217
G1 X112.678 Y121.295 E14.89318
G1 X112.437 Y121.486 E14.90545
G1 X112.199 Y121.543 E14.91522
G1 X107.908 Y121.541 E15.08648
G1 X107.662 Y121.485 E15.09655
G1 X107.421 Y121.295 E15.1088
G1 X105.58 Y119.211 E15.21979
G1 X105.403 Y118.942 E15.23264
G1 X105.287 Y118.596 E15.2472
G1 X105.251 Y118.238 E15.26156
G1 X105.25 Y116.803 E15.31884
G1 X105.292 Y116.541 E15.32943
G1 X105.416 Y116.344 E15.33872
G1 X105.531 Y116.287 E15.34384
G1 X107.75 Y116.285 E15.43241
G1 X107.75 Y112.349 E15.5895
G1 X100.25 Y112.349 E15.88884
G1 X100.25 Y107.509 E16.08202
G1 X107.75 Y107.509 E16.38136
G1 X107.75 Y103.574 E16.53841
G1 X105.535 Y103.573 E16.62682
G1 X105.402 Y103.501 E16.63285
G1 X105.293 Y103.322 E16.64122
G1 X105.25 Y102.909 E16.65779
G1 X105.289 Y102.531 E16.67296
G1 X105.394 Y102.21 E16.68644
G1 X105.48 Y102.053 E16.69358
G1 X107.417 Y98.984 E16.83843
G1 X107.638 Y98.732 E16.85181
G1 X107.873 Y98.615 E16.86229
G1 X108.01 Y98.599 E16.86779
G1 X112.098 Y98.601 E17.03095
G1 X112.35 Y98.661 E17.04129
G1 X112.577 Y98.842 E17.05288
G1 X112.679 Y98.979 E17.0597
G1 X114.627 Y102.063 E17.20528
G1 X114.766 Y102.362 E17.21844
G1 X114.839 Y102.714 E17.23279
G1 X114.831 Y103.238 E17.25371
G1 X114.743 Y103.448 E17.2628
G1 X114.607 Y103.563 E17.2699
G1 X114.566 Y103.572 E17.27158
G1 X112.35 Y103.574 E17.36002
G1 X112.35 Y107.509 E17.51708
G1 X119.85 Y107.509 E17.81642
G1 X119.85 Y112.349 E18.00959
G1 X112.35 Y112.349 E18.30894
G1 X112.35 Y116.285 E18.46603
G0 F7200 X112.55 Y116.285
G0 X112.549 Y116.725
G0 X112.549 Y116.785
G0 X111.56 Y117.075
;TYPE:SKIN
G1 F5400 X114.06 Y117.076 E18.56581
G1 X114.06 Y118.185 E18.61007
G1 X113.982 Y118.59 E18.62653
G1 X113.889 Y118.732 E18.63331
G1 X112.131 Y120.721 E18.73926
G1 X112.09 Y120.753 E18.74133
G1 X108.007 Y120.751 E18.9043
G1 X107.967 Y120.72 E18.90632
G1 X106.211 Y118.732 E19.01218
G1 X106.065 Y118.431 E19.02553
G1 X106.041 Y118.194 E19.03504
G1 X106.04 Y117.077 E19.07962
G1 X108.54 Y117.075 E19.1794
G1 X108.54 Y111.559 E19.39956
G1 X101.04 Y111.559 E19.6989
G1 X101.04 Y108.299 E19.82901
G1 X108.54 Y108.299 E20.12836
G1 X108.54 Y102.784 E20.34847
G1 X106.057 Y102.783 E20.44757
G1 X106.18 Y102.422 E20.4628
G1 X108.047 Y99.464 E20.6024
G1 X108.113 Y99.389 E20.60639
G1 X111.981 Y99.391 E20.76077
G1 X112.044 Y99.453 E20.7643
G1 X113.934 Y102.446 E20.90558
G1 X114.046 Y102.782 E20.91972
G1 X111.56 Y102.784 E21.01894
G1 X111.56 Y108.299 E21.23905
G1 X119.06 Y108.299 E21.5384
G1 X119.06 Y111.559 E21.66851
G1 X111.56 Y111.559 E21.96785
G1 X111.56 Y117.075 E22.18801
G0 F7200 X108.125 Y120.57
G1 F5400 X107.688 Y120.133 E22.21267
G0 F7200 X108.691 Y120.57
G1 F5400 X106.22 Y118.1 E22.35212
G0 F7200 X106.22 Y117.533
G1 F5400 X109.257 Y120.57 E22.52354
G0 F7200 X109.822 Y120.57
G1 F5400 X106.508 Y117.256 E22.7106
G0 F7200 X107.073 Y117.255
G1 F5400 X110.389 Y120.571 E22.89777
G0 F7200 X110.954 Y120.571
G1 F5400 X107.639 Y117.255 E23.08491
G0 F7200 X108.204 Y117.255
G1 F5400 X111.52 Y120.571 E23.27208
G0 F7200 X112.053 Y120.538
G1 F5400 X108.719 Y117.205 E23.46023
G0 F7200 X108.719 Y116.639
G1 F5400 X112.318 Y120.237 E23.66335
G0 F7200 X112.583 Y119.937
G1 F5400 X108.719 Y116.073 E23.88145
G0 F7200 X108.719 Y115.508
G1 F5400 X112.848 Y119.636 E24.11448
G0 F7200 X113.113 Y119.336
G1 F5400 X108.719 Y114.942 E24.3625
G0 F7200 X108.719 Y114.376
G1 F5400 X111.379 Y117.036 E24.51264
G0 F7200 X111.598 Y117.255
G1 F5400 X113.379 Y119.036 E24.61316
G0 F7200 X113.644 Y118.735
G1 F5400 X112.164 Y117.255 E24.6967
G0 F7200 X112.729 Y117.255
G1 F5400 X113.842 Y118.367 E24.7595
G0 F7200 X113.88 Y117.84
G1 F5400 X113.295 Y117.255 E24.79252
G1 X113.225 Y117.185
G0 F7200 X111.379 Y116.471
G1 F5400 X108.719 Y113.81 E24.94269
G0 F7200 X108.719 Y113.245
G1 F5400 X111.379 Y115.905 E25.09283
G0 F7200 X111.379 Y115.339
G1 F5400 X108.719 Y112.679 E25.24297
G0 F7200 X108.719 Y112.113
G1 F5400 X111.379 Y114.774 E25.39314
G0 F7200 X111.379 Y114.208
G1 F5400 X108.719 Y111.548 E25.54328
G0 F7200 X108.55 Y111.378
G1 F5400 X105.65 Y108.478 E25.70697
G0 F7200 X106.215 Y108.478
G1 F5400 X111.379 Y113.642 E25.99845
G0 F7200 X111.379 Y113.076
G1 F5400 X106.781 Y108.478 E26.25798
G0 F7200 X107.347 Y108.478
G1 F5400 X111.379 Y112.511 E26.48559
G0 F7200 X111.379 Y111.945
G1 F5400 X107.912 Y108.478 E26.68128
G0 F7200 X108.478 Y108.478
G1 F5400 X111.379 Y111.379 E26.84503
G0 F7200 X111.944 Y111.378
G1 F5400 X108.719 Y108.153 E27.02706
G0 F7200 X108.719 Y107.587
G1 F5400 X112.509 Y111.378 E27.24101
G0 F7200 X113.075 Y111.378
G1 F5400 X108.719 Y107.022 E27.48689
G0 F7200 X108.719 Y106.456
G1 F5400 X113.641 Y111.378 E27.7647
G0 F7200 X114.206 Y111.378
G1 F5400 X108.719 Y105.89 E28.07444
G0 F7200 X108.719 Y105.324
G1 F5400 X111.379 Y107.985 E28.22461
G0 F7200 X111.379 Y107.419
G1 F5400 X108.719 Y104.759 E28.37476
G0 F7200 X108.719 Y104.193
G1 F5400 X111.379 Y106.853 E28.5249
G0 F7200 X111.379 Y106.288
G1 F5400 X108.719 Y103.627 E28.67507
G0 F7200 X108.719 Y103.062
G1 F5400 X111.379 Y105.722 E28.82521
G0 F7200 X111.379 Y105.156
G1 F5400 X107.263 Y101.04 E29.05753
G0 F7200 X107.482 Y100.694
G1 F5400 X111.379 Y104.59 E29.27747
G0 F7200 X111.379 Y104.025
G1 F5400 X107.7 Y100.346 E29.48513
G0 F7200 X107.92 Y100
G1 F5400 X111.379 Y103.459 E29.68037
G0 F7200 X111.379 Y102.893
G1 F5400 X108.139 Y99.653 E29.86325
G0 F7200 X108.62 Y99.569
G1 F5400 X111.654 Y102.603 E30.0345
G0 F7200 X112.219 Y102.602
G1 F5400 X109.186 Y99.569 E30.2057
G0 F7200 X109.752 Y99.569
G1 F5400 X112.784 Y102.602 E30.37686
G0 F7200 X113.349 Y102.601
G1 F5400 X110.318 Y99.57 E30.54795
G0 F7200 X110.884 Y99.57
G1 F5400 X113.653 Y102.339 E30.70424
G1 X113.723 Y102.409
G0 F7200 X112.685 Y100.805
G1 F5400 X111.449 Y99.57 E30.77398
G1 X111.379 Y99.5
G0 F7200 X108.26 Y102.603
G1 F5400 X107.044 Y101.387 E30.84261
G0 F7200 X106.825 Y101.734
G1 F5400 X107.694 Y102.603 E30.89166
G0 F7200 X107.128 Y102.603
G1 F5400 X106.606 Y102.08 E30.92116
