;FLAVOR:Marlin
;TIME:1664
;Filament used: 3.89937m
;Layer height: 0.24
;MINX:85.65
;MINY:91.638
;MINZ:0.24
;MAXX:134.35
;MAXY:128.434
;MAXZ:26.64
;Generated with Cura_SteamEngine 4.10.0
M82 ;absolute extrusion mode
;Starting G-Code (LETU V6): 
M140 S60.0 
M104 S220.0 
G90 
M109 S220.0 
M190 S60.0 
G28 
G29 
G1 Z0.2 X10 Y218 F3000 
G92 E0 
G1 Z0.2 F3000 
G1 E10 F500 
G4 P1000 
G1 X20 F1600 
G92 E0 
G1 Z3 F3000
G92 E0
G92 E0
G1 F3600 E-3.5
;LAYER_COUNT:111
;LAYER:0
M107
G0 F7200 X94.198 Y96.014 Z0.24
;TYPE:SKIRT
G1 F3600 E0
G1 F5400 X94.608 Y95.668 E0.02141
G1 X95.275 Y95.274 E0.05233
G1 X95.974 Y94.987 E0.08249
G1 X96.029 Y94.971 E0.08478
G1 X96.763 Y94.838 E0.11455
G1 X97.229 Y94.809 E0.13318
G1 X97.922 Y94.799 E0.16085
G1 X100.503 Y94.802 E0.26386
G1 X101.52 Y94.82 E0.30446
G1 X101.739 Y94.83 E0.31321
G1 X102.423 Y94.884 E0.34059
G1 X105.198 Y95.063 E0.45158
G1 X107.93 Y95.162 E0.56069
G1 X110.657 Y95.184 E0.66953
G1 X113.355 Y95.128 E0.77724
G1 X116.129 Y94.994 E0.88808
G1 X117.471 Y94.9 E0.94178
G1 X118.514 Y94.819 E0.98353
G1 X118.74 Y94.808 E0.99256
G1 X119.422 Y94.799 E1.01978
G1 X122.003 Y94.802 E1.1228
G1 X122.959 Y94.819 E1.16096
G1 X123.493 Y94.868 E1.18236
G1 X124.041 Y95.005 E1.20491
G1 X124.309 Y95.095 E1.21619
G1 X124.803 Y95.303 E1.23758
G1 X125.298 Y95.609 E1.26081
G1 X125.465 Y95.732 E1.26909
G1 X125.889 Y96.099 E1.29147
G1 X126.276 Y96.53 E1.31459
G1 X126.625 Y96.985 E1.33748
G1 X128.323 Y99.131 E1.4467
G1 X130.094 Y101.245 E1.55677
G1 X131.9 Y103.281 E1.66539
G1 X133.3 Y104.776 E1.74714
G1 X133.425 Y104.916 E1.75463
G1 X133.752 Y105.342 E1.77606
G1 X134.011 Y105.811 E1.79745
G1 X134.198 Y106.314 E1.81886
G1 X134.308 Y106.839 E1.84027
G1 X134.348 Y107.528 E1.86782
G1 X134.35 Y107.639 E1.87225
G1 X134.35 Y111.873 E2.04124
G1 X134.34 Y112.596 E2.0701
G1 X134.292 Y113.13 E2.0915
G1 X134.166 Y113.651 E2.11289
G1 X133.964 Y114.148 E2.1343
G1 X133.69 Y114.609 E2.15571
G1 X133.512 Y114.843 E2.16744
G1 X132.885 Y115.599 E2.20664
G1 X132.293 Y116.291 E2.24299
G1 X130.571 Y118.424 E2.3524
G1 X128.944 Y120.56 E2.45957
G1 X128.397 Y121.298 E2.49623
G1 X127.998 Y121.801 E2.52186
G1 X127.922 Y121.89 E2.52653
G1 X126.717 Y123.256 E2.59923
G1 X126.085 Y123.946 E2.63658
G1 X125.694 Y124.313 E2.65798
G1 X125.167 Y124.679 E2.68359
G1 X124.697 Y124.938 E2.70501
G1 X124.194 Y125.124 E2.72641
G1 X123.537 Y125.267 E2.75325
G1 X122.933 Y125.334 E2.7775
G1 X122.527 Y125.343 E2.79371
G1 X119.211 Y125.341 E2.92606
G1 X118.531 Y125.331 E2.9532
G1 X118.364 Y125.324 E2.95987
G1 X117.77 Y125.287 E2.98363
G1 X116.052 Y125.155 E3.0524
G1 X113.284 Y125.02 E3.16301
G1 X110.589 Y124.964 E3.27059
G1 X107.859 Y124.986 E3.37956
G1 X105.121 Y125.084 E3.48891
G1 X101.912 Y125.309 E3.6173
G1 X101.128 Y125.342 E3.64862
G1 X97.704 Y125.341 E3.78528
G1 X96.981 Y125.329 E3.81414
G1 X96.447 Y125.28 E3.83554
G1 X95.942 Y125.157 E3.85628
G1 X95.68 Y125.073 E3.86727
G1 X95.183 Y124.872 E3.88866
G1 X94.741 Y124.62 E3.90897
G1 X94.304 Y124.311 E3.93033
G1 X93.946 Y123.971 E3.95004
G1 X93.134 Y123.088 E3.99792
G1 X92.382 Y122.235 E4.0433
G1 X91.873 Y121.641 E4.07452
G1 X91.708 Y121.434 E4.08509
G1 X91.255 Y120.819 E4.11557
G1 X89.61 Y118.646 E4.22435
G1 X87.89 Y116.503 E4.33403
G1 X86.494 Y114.844 E4.42056
G1 X86.207 Y114.453 E4.43992
G1 X85.958 Y113.979 E4.46129
G1 X85.781 Y113.472 E4.48272
G1 X85.682 Y112.945 E4.50413
G1 X85.652 Y112.329 E4.52874
G1 X85.65 Y112.219 E4.53313
G1 X85.65 Y107.965 E4.70292
G1 X85.66 Y107.262 E4.73098
G1 X85.708 Y106.728 E4.75238
G1 X85.834 Y106.206 E4.77381
G1 X86.037 Y105.71 E4.7952
G1 X86.311 Y105.249 E4.81661
G1 X86.624 Y104.861 E4.8365
G1 X87.469 Y103.953 E4.88601
G1 X89.329 Y101.896 E4.99669
G1 X91.076 Y99.851 E5.10404
G1 X93.112 Y97.314 E5.23387
G1 X93.73 Y96.518 E5.2741
G1 X94.198 Y96.014 E5.30155
G0 F7200 X94.477 Y96.299
G1 F5400 X94.865 Y95.975 E5.32172
G1 X95.464 Y95.626 E5.34939
G1 X96.086 Y95.371 E5.37622
G1 X96.141 Y95.355 E5.37851
G1 X96.793 Y95.237 E5.40495
G1 X97.235 Y95.209 E5.42263
G1 X97.922 Y95.199 E5.45005
G1 X100.496 Y95.202 E5.55279
G1 X101.513 Y95.22 E5.59338
G1 X101.708 Y95.229 E5.60117
G1 X102.441 Y95.287 E5.63052
G1 X105.158 Y95.462 E5.73919
G1 X107.912 Y95.562 E5.84918
G1 X110.662 Y95.584 E5.95894
G1 X113.382 Y95.528 E6.06752
G1 X116.131 Y95.395 E6.17737
G1 X117.512 Y95.298 E6.23263
G1 X118.544 Y95.218 E6.27394
G1 X118.746 Y95.208 E6.28201
G1 X119.422 Y95.199 E6.30899
G1 X121.996 Y95.202 E6.41173
G1 X122.952 Y95.219 E6.44989
G1 X123.455 Y95.267 E6.47006
G1 X124.182 Y95.474 E6.50023
G1 X124.647 Y95.673 E6.52041
G1 X125.228 Y96.054 E6.54814
G1 X125.696 Y96.473 E6.57321
G1 X125.959 Y96.774 E6.58917
G1 X126.314 Y97.236 E6.61242
G1 X128.018 Y99.39 E6.72204
G1 X129.772 Y101.483 E6.83103
G1 X131.61 Y103.556 E6.94161
G1 X133.002 Y105.043 E7.0229
G1 X133.127 Y105.183 E7.0304
G1 X133.433 Y105.585 E7.05056
G1 X133.672 Y106.031 E7.07076
G1 X133.837 Y106.509 E7.09094
G1 X133.938 Y107.216 E7.11944
G1 X133.95 Y107.639 E7.13633
G1 X133.95 Y111.867 E7.30508
G1 X133.94 Y112.59 E7.33394
G1 X133.893 Y113.094 E7.35414
G1 X133.767 Y113.583 E7.3743
G1 X133.566 Y114.047 E7.39448
G1 X133.204 Y114.587 E7.42043
G1 X132.582 Y115.338 E7.45935
G1 X131.96 Y116.065 E7.49753
G1 X130.257 Y118.175 E7.60576
G1 X128.652 Y120.282 E7.71147
G1 X128.035 Y121.114 E7.75281
G1 X127.69 Y121.546 E7.77488
G1 X127.622 Y121.626 E7.77907
G1 X126.422 Y122.985 E7.85143
G1 X125.79 Y123.675 E7.88877
G1 X125.42 Y124.02 E7.90896
G1 X124.948 Y124.344 E7.93181
G1 X124.504 Y124.586 E7.952
G1 X123.819 Y124.804 E7.98069
G1 X123.459 Y124.875 E7.99533
G1 X122.922 Y124.934 E8.01689
G1 X122.527 Y124.943 E8.03266
G1 X119.217 Y124.941 E8.16477
G1 X118.537 Y124.931 E8.19192
G1 X118.388 Y124.925 E8.19787
G1 X117.8 Y124.889 E8.22138
G1 X116.028 Y124.753 E8.29231
G1 X113.313 Y124.62 E8.4008
G1 X110.594 Y124.564 E8.50935
G1 X107.841 Y124.586 E8.61923
G1 X105.108 Y124.684 E8.72838
G1 X101.889 Y124.91 E8.85717
G1 X101.117 Y124.942 E8.88801
G1 X97.711 Y124.941 E9.02395
G1 X96.988 Y124.929 E9.05281
G1 X96.485 Y124.88 E9.07298
G1 X95.802 Y124.692 E9.10126
G1 X95.13 Y124.388 E9.1307
G1 X94.947 Y124.278 E9.13922
G1 X94.536 Y123.984 E9.15939
G1 X94.24 Y123.701 E9.17573
G1 X93.434 Y122.823 E9.2233
G1 X92.686 Y121.975 E9.26843
G1 X92.177 Y121.381 E9.29965
G1 X92.031 Y121.197 E9.30903
G1 X91.578 Y120.582 E9.33951
G1 X89.926 Y118.399 E9.44878
G1 X88.227 Y116.283 E9.55709
G1 X86.801 Y114.588 E9.6455
G1 X86.531 Y114.217 E9.66381
G1 X86.302 Y113.766 E9.684
G1 X86.147 Y113.285 E9.70417
G1 X86.062 Y112.643 E9.73001
G1 X86.05 Y112.219 E9.74694
G1 X86.05 Y107.97 E9.91653
G1 X86.06 Y107.267 E9.94459
G1 X86.107 Y106.764 E9.96475
G1 X86.233 Y106.274 E9.98495
G1 X86.435 Y105.811 E10.00511
G1 X86.706 Y105.384 E10.02529
G1 X86.917 Y105.134 E10.03835
G1 X87.751 Y104.237 E10.08724
G1 X89.629 Y102.161 E10.19897
G1 X91.379 Y100.111 E10.30654
G1 X93.395 Y97.6 E10.43507
G1 X94.045 Y96.763 E10.47736
G1 X94.477 Y96.299 E10.50267
G1 F3600 E7.00267
;MESH:T-nut corner_Default.STL(1)
G0 F7200 X95.923 Y98.468
G0 X96.951 Y99.239
G0 X101.08 Y116.755
G0 X101.15 Y116.685
;TYPE:WALL-INNER
G1 F3600 E10.50267
G1 F5400 X103.626 Y116.686 E10.60149
G1 X103.65 Y116.835 E10.60751
G1 X103.65 Y118.204 E10.66215
G1 X103.619 Y118.513 E10.67455
G1 X103.535 Y118.765 E10.68515
G1 X103.403 Y118.965 E10.69471
G1 X101.598 Y121.007 E10.80349
G1 X101.459 Y121.117 E10.81057
G1 X101.352 Y121.143 E10.81496
G1 X97.153 Y121.141 E10.98255
G1 X97.039 Y121.115 E10.98722
G1 X96.898 Y121.004 E10.99438
G1 X95.097 Y118.965 E11.10296
G1 X94.965 Y118.765 E11.11253
G1 X94.881 Y118.513 E11.12313
G1 X94.851 Y118.218 E11.13496
G1 X94.85 Y116.835 E11.19016
G1 X94.874 Y116.687 E11.19615
G1 X97.35 Y116.685 E11.29497
G1 X97.35 Y111.949 E11.48399
G1 X89.85 Y111.949 E11.78333
G1 X89.85 Y107.909 E11.94458
G1 X97.35 Y107.909 E12.24392
G1 X97.35 Y103.174 E12.4329
G1 X94.954 Y103.173 E12.52853
G1 X94.88 Y103.173 E12.53149
G1 X94.852 Y102.909 E12.54208
G1 X94.859 Y102.836 E12.54501
G1 X94.883 Y102.613 E12.55396
G1 X95.031 Y102.245 E12.56979
G1 X96.935 Y99.228 E12.71218
G1 X97.088 Y99.054 E12.72143
G1 X97.23 Y98.999 E12.72751
G1 X101.251 Y99.001 E12.88799
G1 X101.37 Y99.029 E12.89287
G1 X101.55 Y99.207 E12.90298
G1 X103.474 Y102.253 E13.04677
G1 X103.584 Y102.489 E13.05716
G1 X103.638 Y102.753 E13.06792
G1 X103.625 Y103.172 E13.08465
G1 X101.15 Y103.174 E13.18343
G1 X101.15 Y107.909 E13.37242
G1 X108.65 Y107.909 E13.67176
G1 X108.65 Y111.949 E13.833
G1 X101.15 Y111.949 E14.13234
G1 X101.15 Y116.685 E14.32137
G0 F7200 X101.55 Y116.285
;TYPE:WALL-OUTER
G1 F5400 X103.766 Y116.286 E14.40981
G1 X103.898 Y116.358 E14.41581
G1 X104.008 Y116.541 E14.42434
G1 X104.05 Y116.803 E14.43493
G1 X104.05 Y118.224 E14.49164
G1 X104.013 Y118.596 E14.50656
G1 X103.897 Y118.942 E14.52113
G1 X103.72 Y119.211 E14.53398
G1 X101.878 Y121.295 E14.64499
G1 X101.637 Y121.486 E14.65726
G1 X101.399 Y121.543 E14.66703
G1 X97.108 Y121.541 E14.83829
G1 X96.862 Y121.485 E14.84836
G1 X96.621 Y121.295 E14.86061
G1 X94.78 Y119.211 E14.9716
G1 X94.603 Y118.942 E14.98445
G1 X94.487 Y118.596 E14.99901
G1 X94.451 Y118.238 E15.01337
G1 X94.45 Y116.803 E15.07065
G1 X94.492 Y116.541 E15.08124
G1 X94.616 Y116.344 E15.09053
G1 X94.731 Y116.287 E15.09565
G1 X96.95 Y116.285 E15.18422
G1 X96.95 Y112.349 E15.34131
G1 X89.45 Y112.349 E15.64065
G1 X89.45 Y107.509 E15.83383
G1 X96.95 Y107.509 E16.13317
G1 X96.95 Y103.574 E16.29022
G1 X94.735 Y103.573 E16.37863
G1 X94.602 Y103.501 E16.38466
G1 X94.493 Y103.322 E16.39303
G1 X94.45 Y102.909 E16.4096
G1 X94.489 Y102.531 E16.42477
G1 X94.594 Y102.21 E16.43825
G1 X94.68 Y102.053 E16.44539
G1 X96.617 Y98.984 E16.59024
G1 X96.838 Y98.732 E16.60362
G1 X97.073 Y98.615 E16.6141
G1 X97.21 Y98.599 E16.6196
G1 X101.298 Y98.601 E16.78276
G1 X101.55 Y98.661 E16.7931
G1 X101.777 Y98.842 E16.80469
G1 X101.879 Y98.979 E16.81151
G1 X103.827 Y102.063 E16.95709
G1 X103.966 Y102.362 E16.97025
G1 X104.039 Y102.714 E16.9846
G1 X104.031 Y103.238 E17.00552
G1 X103.943 Y103.448 E17.01461
G1 X103.807 Y103.563 E17.02171
G1 X103.766 Y103.572 E17.02339
G1 X101.55 Y103.574 E17.11184
G1 X101.55 Y107.509 E17.26889
G1 X109.05 Y107.509 E17.56823
G1 X109.05 Y112.349 E17.76141
G1 X101.55 Y112.349 E18.06075
G1 X101.55 Y116.285 E18.21784
G0 F7200 X101.75 Y116.285
G0 X101.749 Y116.725
G0 X101.749 Y116.785
G0 X100.76 Y117.075
;TYPE:SKIN
G1 F5400 X103.26 Y117.076 E18.31762
G1 X103.26 Y118.185 E18.36188
G1 X103.182 Y118.59 E18.37835
G1 X103.089 Y118.732 E18.38512
G1 X101.331 Y120.721 E18.49107
G1 X101.29 Y120.753 E18.49315
G1 X97.207 Y120.751 E18.65611
G1 X97.167 Y120.72 E18.65813
G1 X95.411 Y118.732 E18.76399
G1 X95.265 Y118.431 E18.77735
G1 X95.241 Y118.194 E18.78685
G1 X95.24 Y117.077 E18.83143
G1 X97.74 Y117.075 E18.93122
G1 X97.74 Y111.559 E19.15137
G1 X90.24 Y111.559 E19.45071
G1 X90.24 Y108.299 E19.58083
G1 X97.74 Y108.299 E19.88017
G1 X97.74 Y102.784 E20.10028
G1 X95.257 Y102.783 E20.19938
G1 X95.38 Y102.422 E20.21461
G1 X97.247 Y99.464 E20.35422
G1 X97.313 Y99.389 E20.3582
G1 X101.181 Y99.391 E20.51258
G1 X101.244 Y99.453 E20.51611
G1 X103.134 Y102.446 E20.65739
G1 X103.246 Y102.782 E20.67153
G1 X100.76 Y102.784 E20.77075
G1 X100.76 Y108.299 E20.99087
G1 X108.26 Y108.299 E21.29021
G1 X108.26 Y111.559 E21.42032
G1 X100.76 Y111.559 E21.71966
G1 X100.76 Y117.075 E21.93982
G0 F7200 X97.377 Y120.57
G1 F5400 X96.504 Y119.697 E21.98909
G1 X96.434 Y119.627
G0 F7200 X97.942 Y120.57
G1 F5400 X95.42 Y118.047 E22.13147
G0 F7200 X95.419 Y117.481
G1 F5400 X98.508 Y120.57 E22.30583
G0 F7200 X99.074 Y120.57
G1 F5400 X95.76 Y117.256 E22.49289
G0 F7200 X96.325 Y117.255
G1 F5400 X99.64 Y120.57 E22.68
G0 F7200 X100.206 Y120.571
G1 F5400 X96.89 Y117.255 E22.86717
G0 F7200 X97.455 Y117.254
G1 F5400 X100.772 Y120.571 E23.05439
G0 F7200 X101.276 Y120.51
G1 F5400 X97.92 Y117.153 E23.24385
G0 F7200 X97.92 Y116.587
G1 F5400 X101.542 Y120.21 E23.44832
G0 F7200 X101.807 Y119.909
G1 F5400 X97.92 Y116.022 E23.66772
G0 F7200 X97.92 Y115.456
G1 F5400 X102.072 Y119.609 E23.9021
G0 F7200 X102.338 Y119.309
G1 F5400 X97.92 Y114.89 E24.1515
G0 F7200 X97.92 Y114.325
G1 F5400 X100.579 Y116.984 E24.30159
G0 F7200 X100.85 Y117.255
G1 F5400 X102.604 Y119.008 E24.40056
G0 F7200 X102.869 Y118.709
G1 F5400 X101.416 Y117.255 E24.48261
G0 F7200 X101.981 Y117.255
G1 F5400 X103.05 Y118.324 E24.54294
G0 F7200 X103.08 Y117.788
G1 F5400 X102.547 Y117.255 E24.57303
G0 F7200 X101.394 Y116.817
G0 X100.579 Y116.418
G1 F5400 X97.92 Y113.759 E24.72311
G0 F7200 X97.92 Y113.193
G1 F5400 X100.579 Y115.853 E24.87323
G0 F7200 X100.579 Y115.287
G1 F5400 X97.92 Y112.627 E25.02334
G0 F7200 X97.92 Y112.062
G1 F5400 X100.579 Y114.721 E25.17343
G0 F7200 X100.579 Y114.156
G1 F5400 X97.92 Y111.496 E25.32354
G0 F7200 X97.801 Y111.377
G1 F5400 X94.902 Y108.478 E25.48717
G0 F7200 X95.467 Y108.478
G1 F5400 X100.579 Y113.59 E25.77572
G0 F7200 X100.579 Y113.024
G1 F5400 X96.033 Y108.478 E26.03231
G0 F7200 X96.599 Y108.478
G1 F5400 X100.579 Y112.458 E26.25696
G0 F7200 X100.579 Y111.893
G1 F5400 X97.164 Y108.478 E26.44972
G0 F7200 X97.73 Y108.478
G1 F5400 X100.629 Y111.377 E26.61335
G0 F7200 X101.195 Y111.377
G1 F5400 X97.919 Y108.101 E26.79826
G0 F7200 X97.919 Y107.536
G1 F5400 X101.761 Y111.377 E27.01509
G0 F7200 X102.326 Y111.377
G1 F5400 X97.919 Y106.97 E27.26384
G0 F7200 X97.919 Y106.404
G1 F5400 X102.892 Y111.377 E27.54454
G0 F7200 X103.458 Y111.377
G1 F5400 X97.919 Y105.839 E27.85716
G0 F7200 X97.919 Y105.273
G1 F5400 X100.58 Y107.934 E28.00736
G0 F7200 X100.58 Y107.368
G1 F5400 X97.919 Y104.707 E28.15755
G0 F7200 X97.919 Y104.141
G1 F5400 X100.58 Y106.802 E28.30775
G0 F7200 X100.58 Y106.237
G1 F5400 X97.919 Y103.576 E28.45795
G0 F7200 X97.919 Y103.01
G1 F5400 X100.58 Y105.671 E28.60815
G0 F7200 X100.58 Y105.105
G1 F5400 X96.483 Y101.008 E28.8394
G0 F7200 X96.702 Y100.662
G1 F5400 X100.58 Y104.54 E29.05829
G0 F7200 X100.58 Y103.974
G1 F5400 X96.921 Y100.315 E29.26482
G0 F7200 X97.14 Y99.968
G1 F5400 X100.58 Y103.408 E29.45899
G0 F7200 X100.58 Y102.843
G1 F5400 X97.359 Y99.622 E29.6408
G0 F7200 X97.871 Y99.568
G1 F5400 X100.905 Y102.602 E29.81205
G0 F7200 X101.471 Y102.602
G1 F5400 X98.437 Y99.569 E29.98327
G0 F7200 X99.004 Y99.569
G1 F5400 X102.036 Y102.602 E30.15444
G0 F7200 X102.602 Y102.602
G1 F5400 X99.569 Y99.569 E30.32564
G0 F7200 X100.136 Y99.57
G1 F5400 X102.766 Y102.2 E30.47409
G1 X102.836 Y102.27
G0 F7200 X101.796 Y100.665
G1 F5400 X100.702 Y99.571 E30.53584
G1 X100.632 Y99.501
G0 F7200 X97.511 Y102.602
G1 F5400 X96.264 Y101.355 E30.60622
G0 F7200 X96.045 Y101.702
G1 F5400 X96.945 Y102.602 E30.65702
G0 F7200 X96.379 Y102.601
G1 F5400 X95.826 Y102.048 E30.68823
G0 F7200 X95.607 Y102.396
G1 F5400 X95.813 Y102.601 E30.69983
G0 F7200 X97.378 Y103.146
G0 X97.378 Y107.937
G0 X94.336 Y108.478
G1 F5400 X97.235 Y111.377 E30.86347
G0 F7200 X96.669 Y111.377
G1 F5400 X93.77 Y108.478 E31.0271
G0 F7200 X93.205 Y108.478
G1 F5400 X96.104 Y111.377 E31.19073
G0 F7200 X95.538 Y111.377
G1 F5400 X92.639 Y108.478 E31.35436
G0 F7200 X92.073 Y108.478
G1 F5400 X94.972 Y111.377 E31.51799
G0 F7200 X94.407 Y111.377
G1 F5400 X91.508 Y108.478 E31.68163
G0 F7200 X90.942 Y108.478
G1 F5400 X93.841 Y111.377 E31.84526
G0 F7200 X93.275 Y111.377
G1 F5400 X90.419 Y108.521 E32.00646
G0 F7200 X90.419 Y109.087
G1 F5400 X92.71 Y111.377 E32.13575
G0 F7200 X92.144 Y111.377
G1 F5400 X90.419 Y109.653 E32.23309
G0 F7200 X90.419 Y110.218
G1 F5400 X91.578 Y111.377 E32.29851
G0 F7200 X91.013 Y111.377
G1 F5400 X90.419 Y110.784 E32.33201
G1 X90.349 Y110.714
G0 F7200 X101.124 Y108.478
G1 F5400 X104.023 Y111.377 E32.49564
G0 F7200 X104.589 Y111.377
G1 F5400 X101.69 Y108.478 E32.65927
G0 F7200 X102.256 Y108.478
G1 F5400 X105.155 Y111.377 E32.8229
G0 F7200 X105.72 Y111.377
G1 F5400 X102.821 Y108.478 E32.98653
G0 F7200 X103.387 Y108.478
G1 F5400 X106.286 Y111.377 E33.15017
G0 F7200 X106.852 Y111.377
G1 F5400 X103.953 Y108.478 E33.3138
G0 F7200 X104.518 Y108.478
G1 F5400 X107.418 Y111.377 E33.47746
G0 F7200 X107.983 Y111.377
G1 F5400 X105.084 Y108.478 E33.64109
G0 F7200 X105.65 Y108.478
G1 F5400 X108.079 Y110.908 E33.77822
G0 F7200 X108.079 Y110.342
