;FLAVOR:Marlin
;TIME:2468
;Filament used: 6.095m
;Layer height: 0.25
;MINX:82.543
;MINY:98.559
;MINZ:0.25
;MAXX:153.352
;MAXY:136.723
;MAXZ:28.75
;Generated with Cura_SteamEngine 4.10.0
M82 ;absolute extrusion mode
; Start bed heating
M140 S60.0
M104 S225.0
; Use absolute coordinates
G90
; Set and wait for nozzle to reach temperature
M109 S225.0
; Wait for bed to reach temperature
M190 S60.0
; Home
G28
G1 Z10
; Move the nozzle near the bed
G1 Z10 X75 Y225 F3000
G1 Z0.2
; Set extruder position to 0
G92 E0
G1 E10 F500
G4 P1000
; Wipe a little without extruding
G1 X85 F1600
; Set extruder position to 0
G92 E0
; Move the nozzle up to clear
G1 Z5 F3000
G92 E0
G92 E0
G1 F7200 E-3.5
;LAYER_COUNT:115
;LAYER:0
M107
G0 X88.425 Y109.731 Z0.25
;TYPE:SKIRT
G1 F7200 E0
G1 X88.947 Y109.361 E0.0266
G1 X89.72 Y108.883 E0.06439
G1 X90.394 Y108.485 E0.09693
G1 X91.089 Y108.151 E0.12899
G1 X91.788 Y107.859 E0.16048
G1 X92.484 Y107.582 E0.19163
G1 X93.158 Y107.375 E0.22094
G1 X93.261 Y107.348 E0.22537
G1 X94.03 Y107.163 E0.25825
G1 X94.73 Y107.006 E0.28808
G1 X95.411 Y106.909 E0.31667
G1 X95.516 Y106.899 E0.32106
G1 X96.321 Y106.836 E0.35463
G1 X98.028 Y106.725 E0.42575
G1 X98.908 Y106.681 E0.46238
G1 X101.658 Y106.464 E0.57707
G1 X104.348 Y106.174 E0.68955
G1 X107.05 Y105.806 E0.80293
G1 X109.747 Y105.36 E0.91658
G1 X112.426 Y104.839 E1.03004
G1 X115.071 Y104.247 E1.14273
G1 X117.716 Y103.576 E1.25618
G1 X120.358 Y102.825 E1.37037
G1 X122.96 Y102.007 E1.48377
G1 X125.507 Y101.123 E1.59586
G1 X128.922 Y99.809 E1.74799
G1 X129.596 Y99.608 E1.77723
G1 X130.025 Y99.52 E1.79543
G1 X130.94 Y99.39 E1.83386
G1 X132.694 Y99.128 E1.90759
G1 X133.832 Y98.973 E1.95534
G1 X136.086 Y98.608 E2.05027
G1 X136.772 Y98.559 E2.07886
G1 X137.557 Y98.57 E2.1115
G1 X138.994 Y98.58 E2.17125
G1 X141.867 Y98.579 E2.29069
G1 X143.804 Y98.561 E2.37123
G1 X144.303 Y98.59 E2.39201
G1 X145.383 Y98.728 E2.43728
G1 X145.986 Y98.814 E2.4626
G1 X148.353 Y99.089 E2.56167
G1 X149.706 Y99.231 E2.61823
G1 X150.234 Y99.326 E2.64053
G1 X150.742 Y99.499 E2.66285
G1 X151.218 Y99.745 E2.68512
G1 X151.806 Y100.197 E2.71596
G1 X152.334 Y100.728 E2.74709
G1 X152.676 Y101.141 E2.76938
G1 X152.953 Y101.601 E2.79171
G1 X153.159 Y102.096 E2.814
G1 X153.288 Y102.616 E2.83627
G1 X153.346 Y103.373 E2.86784
G1 X153.35 Y103.653 E2.87948
G1 X153.352 Y109.553 E3.12477
G1 X153.339 Y110.385 E3.15937
G1 X153.322 Y110.683 E3.17178
G1 X153.202 Y111.896 E3.22245
G1 X152.971 Y114.617 E3.33599
G1 X152.818 Y117.315 E3.44834
G1 X152.741 Y120.076 E3.56317
G1 X152.741 Y122.773 E3.6753
G1 X152.82 Y125.538 E3.7903
G1 X152.973 Y128.23 E3.9024
G1 X153.206 Y130.967 E4.0166
G1 X153.271 Y131.556 E4.04124
G1 X153.324 Y132.126 E4.06504
G1 X153.345 Y132.671 E4.08772
G1 X153.34 Y133.049 E4.10343
G1 X153.293 Y133.583 E4.12572
G1 X153.167 Y134.104 E4.148
G1 X152.965 Y134.601 E4.17031
G1 X152.691 Y135.062 E4.1926
G1 X152.286 Y135.547 E4.21887
G1 X152.174 Y135.659 E4.22546
G1 X151.767 Y136.008 E4.24775
G1 X151.313 Y136.294 E4.27006
G1 X150.822 Y136.509 E4.29234
G1 X150.304 Y136.649 E4.31465
G1 X149.75 Y136.711 E4.33783
G1 X149.115 Y136.723 E4.36423
G1 X142.561 Y136.723 E4.63672
G1 X141.492 Y136.708 E4.68116
G1 X138.608 Y136.711 E4.80107
G1 X137.853 Y136.723 E4.83246
G1 X130.354 Y136.723 E5.14423
G1 X129.637 Y136.712 E5.17405
G1 X129.387 Y136.699 E5.18445
G1 X126.592 Y136.462 E5.30107
G1 X123.896 Y136.31 E5.41334
G1 X119.785 Y136.223 E5.58429
G1 X97.906 Y136.223 E6.49392
G1 X97.2 Y136.213 E6.52327
G1 X96.448 Y136.171 E6.55458
G1 X95.886 Y136.126 E6.57802
G1 X95.16 Y136.057 E6.60834
G1 X94.479 Y135.937 E6.63709
G1 X94.373 Y135.914 E6.6416
G1 X93.608 Y135.73 E6.67431
G1 X92.924 Y135.556 E6.70366
G1 X92.154 Y135.287 E6.73757
G1 X91.463 Y135.002 E6.76864
G1 X90.776 Y134.706 E6.79974
G1 X90.131 Y134.363 E6.83012
G1 X89.409 Y133.923 E6.86527
G1 X88.793 Y133.533 E6.89558
G1 X88.177 Y133.066 E6.92772
G1 X88.098 Y133.001 E6.93197
G1 X87.51 Y132.498 E6.96414
G1 X87.028 Y132.074 E6.99083
G1 X86.511 Y131.542 E7.02167
G1 X86.428 Y131.447 E7.02692
G1 X85.926 Y130.857 E7.05912
G1 X85.477 Y130.315 E7.08838
G1 X85.018 Y129.651 E7.12194
G1 X84.648 Y129.05 E7.15129
G1 X84.241 Y128.363 E7.18448
G1 X83.908 Y127.672 E7.21638
G1 X83.875 Y127.597 E7.21978
G1 X83.589 Y126.907 E7.25084
G1 X83.332 Y126.26 E7.27978
G1 X83.125 Y125.583 E7.30921
G1 X83.099 Y125.484 E7.31347
G1 X82.915 Y124.718 E7.34622
G1 X82.761 Y124.031 E7.37549
G1 X82.656 Y123.276 E7.40718
G1 X82.594 Y122.512 E7.43905
G1 X82.543 Y121.733 E7.47151
G1 X82.557 Y120.969 E7.50327
G1 X82.564 Y120.857 E7.50794
G1 X82.635 Y119.958 E7.54543
G1 X82.751 Y119.05 E7.58349
G1 X82.987 Y117.981 E7.629
G1 X83.014 Y117.866 E7.63391
G1 X83.191 Y117.173 E7.66365
G1 X83.441 Y116.451 E7.69542
G1 X83.48 Y116.352 E7.69984
G1 X83.763 Y115.671 E7.7305
G1 X84.045 Y115.019 E7.76003
G1 X84.408 Y114.342 E7.79197
G1 X84.825 Y113.657 E7.82531
G1 X85.215 Y113.041 E7.85562
G1 X85.662 Y112.449 E7.88647
G1 X86.253 Y111.755 E7.92436
G1 X86.672 Y111.278 E7.95076
G1 X87.23 Y110.739 E7.98301
G1 X87.873 Y110.189 E8.01819
G1 X88.425 Y109.731 E8.04801
G0 X88.68 Y110.039
G1 X89.168 Y109.695 E8.07283
G1 X89.253 Y109.64 E8.07704
G1 X89.983 Y109.191 E8.11268
G1 X90.597 Y108.829 E8.14231
G1 X91.251 Y108.516 E8.17245
G1 X91.988 Y108.209 E8.20565
G1 X92.632 Y107.953 E8.23446
G1 X93.263 Y107.761 E8.26188
G1 X93.355 Y107.737 E8.26583
G1 X94.118 Y107.554 E8.29845
G1 X94.818 Y107.397 E8.32828
G1 X95.455 Y107.307 E8.35503
G1 X95.548 Y107.298 E8.35891
G1 X96.347 Y107.235 E8.39223
G1 X98.048 Y107.124 E8.4631
G1 X98.961 Y107.078 E8.50111
G1 X101.662 Y106.865 E8.61375
G1 X104.408 Y106.569 E8.72858
G1 X107.132 Y106.198 E8.84287
G1 X109.817 Y105.754 E8.95602
G1 X112.491 Y105.234 E9.06927
G1 X115.185 Y104.631 E9.18405
G1 X117.81 Y103.966 E9.29663
G1 X120.482 Y103.206 E9.41213
G1 X123.075 Y102.39 E9.52514
G1 X125.638 Y101.501 E9.63793
G1 X129.066 Y100.182 E9.79063
G1 X129.7 Y99.994 E9.81813
G1 X130.081 Y99.916 E9.8343
G1 X130.973 Y99.789 E9.87175
G1 X132.798 Y99.517 E9.94847
G1 X133.871 Y99.372 E9.99348
G1 X136.15 Y99.003 E10.08947
G1 X136.767 Y98.959 E10.11518
G1 X137.552 Y98.97 E10.14782
G1 X138.991 Y98.98 E10.20765
G1 X141.87 Y98.979 E10.32735
G1 X143.809 Y98.961 E10.40796
G1 X144.253 Y98.987 E10.42646
G1 X145.326 Y99.124 E10.47143
G1 X145.919 Y99.209 E10.49633
G1 X148.277 Y99.483 E10.59503
G1 X149.665 Y99.628 E10.65305
G1 X150.162 Y99.721 E10.67407
G1 X150.638 Y99.89 E10.69507
G1 X151.082 Y100.132 E10.71609
G1 X151.531 Y100.487 E10.73989
G1 X152.046 Y101.006 E10.77029
G1 X152.367 Y101.396 E10.79129
G1 X152.622 Y101.833 E10.81232
G1 X152.805 Y102.304 E10.83333
G1 X152.912 Y102.798 E10.85435
G1 X152.946 Y103.386 E10.87883
G1 X152.95 Y103.653 E10.88993
G1 X152.952 Y109.547 E11.13498
G1 X152.939 Y110.379 E11.16957
G1 X152.923 Y110.644 E11.18061
G1 X152.808 Y111.812 E11.22941
G1 X152.572 Y114.596 E11.34557
G1 X152.418 Y117.316 E11.45883
G1 X152.341 Y120.064 E11.57312
G1 X152.341 Y122.784 E11.68621
G1 X152.42 Y125.538 E11.80075
G1 X152.576 Y128.286 E11.91519
G1 X152.803 Y130.958 E12.02668
G1 X152.872 Y131.593 E12.05323
G1 X152.925 Y132.163 E12.07703
G1 X152.945 Y132.665 E12.09792
G1 X152.94 Y133.043 E12.11364
G1 X152.893 Y133.547 E12.13468
G1 X152.768 Y134.037 E12.1557
G1 X152.567 Y134.5 E12.17669
G1 X152.295 Y134.927 E12.19774
G1 X151.891 Y135.376 E12.22285
G1 X151.506 Y135.704 E12.24388
G1 X151.075 Y135.967 E12.26487
G1 X150.607 Y136.16 E12.28592
G1 X150.115 Y136.276 E12.30693
G1 X149.588 Y136.316 E12.3289
G1 X149.11 Y136.323 E12.34878
G1 X142.566 Y136.323 E12.62085
G1 X141.496 Y136.308 E12.66534
G1 X138.602 Y136.311 E12.78566
G1 X137.847 Y136.323 E12.81705
G1 X130.36 Y136.323 E13.12832
G1 X129.643 Y136.312 E13.15813
G1 X129.421 Y136.301 E13.16738
G1 X126.615 Y136.063 E13.28445
G1 X123.898 Y135.91 E13.39759
G1 X119.793 Y135.823 E13.5683
G1 X97.912 Y135.823 E14.478
G1 X97.206 Y135.813 E14.50736
G1 X96.475 Y135.772 E14.5378
G1 X95.924 Y135.728 E14.56078
G1 X95.198 Y135.659 E14.5911
G1 X94.56 Y135.546 E14.61804
G1 X93.75 Y135.353 E14.65266
G1 X93.023 Y135.168 E14.68384
G1 X92.297 Y134.913 E14.71583
G1 X91.616 Y134.632 E14.74646
G1 X90.935 Y134.338 E14.7773
G1 X90.33 Y134.016 E14.8058
G1 X89.623 Y133.585 E14.84022
G1 X89.007 Y133.195 E14.87053
G1 X88.428 Y132.755 E14.90077
G1 X87.774 Y132.198 E14.93648
G1 X87.292 Y131.774 E14.96317
G1 X86.806 Y131.272 E14.99222
G1 X86.732 Y131.188 E14.99687
G1 X86.234 Y130.601 E15.02888
G1 X85.785 Y130.059 E15.05814
G1 X85.354 Y129.434 E15.0897
G1 X84.963 Y128.797 E15.12078
G1 X84.585 Y128.159 E15.15161
G1 X84.273 Y127.51 E15.18155
G1 X83.961 Y126.759 E15.21536
G1 X83.704 Y126.112 E15.2443
G1 X83.511 Y125.478 E15.27185
G1 X83.488 Y125.39 E15.27563
G1 X83.305 Y124.631 E15.30809
G1 X83.151 Y123.944 E15.33737
G1 X83.054 Y123.233 E15.3672
G1 X82.993 Y122.48 E15.39861
G1 X82.943 Y121.707 E15.43081
G1 X82.956 Y120.988 E15.46071
G1 X83.033 Y119.998 E15.50199
G1 X83.141 Y119.136 E15.53811
G1 X83.377 Y118.067 E15.58363
G1 X83.579 Y117.272 E15.61773
G1 X83.815 Y116.593 E15.64761
G1 X84.111 Y115.875 E15.6799
G1 X84.412 Y115.178 E15.71147
G1 X84.754 Y114.542 E15.74149
G1 X85.163 Y113.871 E15.77416
G1 X85.553 Y113.255 E15.80447
G1 X85.974 Y112.699 E15.83347
G1 X86.554 Y112.019 E15.87062
G1 X86.973 Y111.542 E15.89702
G1 X87.499 Y111.035 E15.92739
G1 X88.166 Y110.465 E15.96387
G1 X88.68 Y110.039 E15.99163
G0 X96.595 Y120.204
;TYPE:SUPPORT
G1 X97.071 Y120.06 E16.0123
G1 X97.553 Y120.08 E16.03236
G1 X98.003 Y120.26 E16.05251
G1 X98.379 Y120.589 E16.07328
G1 X98.616 Y121.012 E16.09344
G1 X98.702 Y121.495 E16.11384
G1 X98.615 Y121.983 E16.13444
G1 X98.376 Y122.41 E16.15479
G1 X98.007 Y122.732 E16.17515
G1 X97.553 Y122.914 E16.19548
G1 X97.062 Y122.935 E16.21592
G1 X96.592 Y122.789 E16.23638
G1 X96.201 Y122.499 E16.25662
G1 X95.928 Y122.093 E16.27696
G1 X95.808 Y121.587 E16.29858
G1 X95.854 Y121.115 E16.31829
G1 X95.971 Y120.78 E16.33305
G1 X96.194 Y120.505 E16.34777
G1 X96.595 Y120.204 E16.36861
G0 X96.012 Y121.15
G1 X96.012 Y121.751 E16.3936
G0 X96.787 Y122.682
G1 X97.701 Y122.682 E16.4316
G0 X130.229 Y132.55
G1 X132.192 Y132.561 E16.51321
G1 X138.042 Y132.561 E16.75643
G1 X138.041 Y132.874 E16.76944
G1 X138.089 Y132.923 E16.77229
G1 X130.185 Y132.923 E17.1009
G1 X130.229 Y132.879 E17.10349
G1 X130.229 Y132.55 E17.11717
G1 F7200 E13.61717
G0 X138.784 Y133.284
G0 X141.714 Y133.284
G0 X142.413 Y132.923
G1 F7200 E17.11717
G1 X142.457 Y132.879 E17.11975
G1 X142.457 Y132.561 E17.13298
G1 X149.55 Y132.56 E17.42787
G1 X149.55 Y132.923 E17.44296
G1 X142.413 Y132.923 E17.73968
G1 F7200 E14.23968
G0 X145.781 Y129.257
G0 X150.411 Y110.484
G0 X150.411 Y109.378
G0 X149.55 Y108.611
G1 F7200 E17.73968
G1 X130.853 Y108.608 E18.51701
G1 X130.91 Y108.154 E18.53604
G1 X130.45 Y107.43 E18.5717
G1 X130.45 Y103.308 E18.74307
G1 X130.459 Y103.299 E18.7436
G1 X131.938 Y103.291 E18.80509
G1 X132.379 Y103.1 E18.82507
G1 X132.471 Y103.003 E18.83063
G1 X136.229 Y102.987 E18.98687
G1 X136.661 Y102.697 E19.0085
G1 X136.826 Y102.351 E19.02444
G1 X136.856 Y102.38 E19.02617
G1 X143.673 Y102.379 E19.30959
G1 X143.705 Y102.35 E19.31139
G1 X143.852 Y102.692 E19.32686
G1 X144.283 Y102.979 E19.34839
G1 X149.25 Y103 E19.5549
G1 X149.55 Y103.302 E19.5726
G1 X149.55 Y108.611 E19.79332
G0 X149.352 Y108.45
G1 X149.352 Y103.33 E20.00618
G0 X149.39 Y104.013
G1 X130.61 Y104.013 E20.78696
G0 X130.683 Y103.457
G1 X130.683 Y107.498 E20.95497
G0 X130.61 Y106.68
G1 X149.39 Y106.68 E21.73575
G0 X146.685 Y108.45
G1 X146.685 Y103.15 E21.9561
G0 X144.018 Y102.996
G1 X144.018 Y108.45 E22.18285
G0 X141.351 Y108.449
G1 X141.351 Y102.539 E22.42856
G0 X138.684 Y102.539
G1 X138.684 Y108.449 E22.67427
G0 X136.017 Y108.448
G1 X136.017 Y103.148 E22.89462
G0 X133.35 Y103.159
G1 X133.35 Y108.448 E23.11451
G1 F7200 E19.61451
;MESH:Arm Base Mount Redesign 1.3.STL
G0 X133.35 Y109.756
G0 X139.368 Y110.104
G0 X140.959 Y114.482
;TYPE:WALL-INNER
G1 F7200 E23.11451
G1 X143.43 Y114.484 E23.21724
G1 X143.431 Y114.484 E23.21728
G1 X143.98 Y114.484 E23.24011
G1 X143.558 Y114.836 E23.25222
G1 X142.146 Y116.012 E23.32862
G1 X138.411 Y116.012 E23.4839
G1 X137.219 Y114.823 E23.5539
G1 X136.878 Y114.483 E23.57392
G1 X137.359 Y114.483 E23.58467
G1 X137.36 Y114.483 E23.58471
G1 X139.541 Y114.482 E23.67539
G1 X139.543 Y111.401 E23.80348
G1 X139.547 Y110.923 E23.82336
G1 X139.541 Y110.337 E23.84772
G1 X139.54 Y110.336 E23.84778
G1 X139.54 Y110.136 E23.8561
G1 X139.74 Y110.136 E23.86148
G1 X139.741 Y110.136 E23.86152
G1 X140.757 Y110.136 E23.90376
G1 X140.957 Y110.136 E23.91208
G1 X140.956 Y110.336 E23.91745
G1 X140.953 Y110.924 E23.9419
G1 X140.957 Y111.396 E23.96152
G1 X140.959 Y114.482 E24.08982
G0 X141.359 Y114.082
;TYPE:WALL-OUTER
G1 X144.557 Y114.084 E24.22278
G1 X144.915 Y114.084 E24.23766
G1 X144.916 Y114.224 E24.24348
G1 X144.641 Y114.453 E24.2538
G1 X142.29 Y116.412 E24.38103
G1 X138.245 Y116.412 E24.5492
G1 X136.278 Y114.449 E24.66474
G1 X136.085 Y114.257 E24.67606
G1 X136.084 Y114.083 E24.68329
G1 X136.357 Y114.083 E24.69168
G1 X139.141 Y114.082 E24.80743
G1 X139.143 Y111.398 E24.91901
G1 X139.147 Y110.923 E24.93876
G1 X139.14 Y110.134 E24.97157
G1 X139.14 Y110.132 E24.97165
G1 X133.222 Y110.132 E25.21769
G1 X130.283 Y110.132 E25.33988
G1 X130.282 Y110.133 E25.33994
G1 X129.701 Y110.133 E25.3641
G1 X130.173 Y109.794 E25.37676
G1 X130.282 Y109.716 E25.38233
G1 X133.221 Y109.736 E25.50391
G1 X139.14 Y109.736 E25.74754
G1 X139.142 Y109.736 E25.74762
G1 X141.352 Y109.736 E25.8395
G1 X141.356 Y109.736 E25.83967
G1 X149.55 Y109.735 E26.18033
G1 X149.55 Y110.127 E26.19663
G1 X141.357 Y110.128 E26.53044
G1 X141.357 Y110.132 E26.53061
G1 X141.353 Y110.923 E26.5635
G1 X141.357 Y111.396 E26.58316
G1 X141.359 Y114.082 E26.69483
G0 X141.559 Y114.082
G0 X141.558 Y114.522
G1 F7200 E23.19483
G0 X136.487 Y114.36
G0 X135.728 Y115.122
G0 X129.998 Y114.36
G0 X128.933 Y114.361
G0 X115.374 Y118.536
G0 X114.828 Y118.565
G0 X97.875 Y124.395
G0 X96.907 Y124.603
;TYPE:WALL-INNER
G1 F7200 E26.69483
G1 X97.434 Y124.616 E26.71675
G1 X97.908 Y124.553 E26.73663
G1 X98.416 Y124.399 E26.7587
G1 X98.889 Y124.16 E26.78073
G1 X99.315 Y123.845 E26.80276
G1 X99.684 Y123.46 E26.82493
G1 X100.001 Y122.977 E26.84895
G1 X100.198 Y122.54 E26.86888
G1 X100.332 Y122.026 E26.89096
G1 X100.376 Y121.498 E26.91299
G1 X100.332 Y120.97 E26.93502
G1 X100.197 Y120.454 E26.95719
G1 X99.953 Y119.93 E26.98122
G1 X99.682 Y119.533 E27.00121
G1 X99.316 Y119.151 E27.0232
G1 X98.888 Y118.835 E27.04532
G1 X98.416 Y118.597 E27.0673
G1 X97.908 Y118.442 E27.08938
G1 X97.384 Y118.375 E27.11134
G1 X96.803 Y118.406 E27.13553
G1 X96.334 Y118.508 E27.15549
G1 X95.843 Y118.706 E27.1775
G1 X95.391 Y118.984 E27.19956
G1 X94.991 Y119.336 E27.22171
G1 X94.631 Y119.793 E27.2459
G1 X94.382 Y120.259 E27.26786
G1 X94.225 Y120.712 E27.2878
G1 X94.135 Y121.233 E27.30978
G1 X94.135 Y121.765 E27.3319
G1 X94.24 Y122.333 E27.35591
G1 X94.401 Y122.786 E27.3759
G1 X94.661 Y123.25 E27.39801
G1 X95.031 Y123.695 E27.42207
G1 X95.391 Y124.011 E27.44199
G1 X95.842 Y124.289 E27.46401
G1 X96.337 Y124.489 E27.48621
G1 X96.907 Y124.603 E27.51038
G0 X96.951 Y124.204
;TYPE:WALL-OUTER
G1 X97.413 Y124.215 E27.52959
G1 X97.823 Y124.161 E27.54678
G1 X98.266 Y124.026 E27.56604
G1 X98.678 Y123.818 E27.58523
G1 X99.05 Y123.543 E27.60446
G1 X99.37 Y123.21 E27.62366
G1 X99.649 Y122.784 E27.64483
G1 X99.819 Y122.406 E27.66206
G1 X99.936 Y121.958 E27.68131
G1 X99.975 Y121.498 E27.70051
G1 X99.936 Y121.038 E27.7197
G1 X99.819 Y120.59 E27.73895
G1 X99.604 Y120.129 E27.7601
G1 X99.37 Y119.786 E27.77736
G1 X99.051 Y119.452 E27.79656
G1 X98.678 Y119.177 E27.81583
G1 X98.266 Y118.97 E27.835
G1 X97.823 Y118.834 E27.85426
G1 X97.369 Y118.776 E27.87329
G1 X96.857 Y118.804 E27.89461
G1 X96.452 Y118.892 E27.91184
G1 X96.024 Y119.064 E27.93102
G1 X95.63 Y119.307 E27.95027
G1 X95.283 Y119.612 E27.96947
G1 X94.967 Y120.013 E27.9907
G1 X94.75 Y120.42 E28.00987
G1 X94.614 Y120.812 E28.02713
G1 X94.535 Y121.267 E28.04632
G1 X94.535 Y121.728 E28.06549
G1 X94.628 Y122.229 E28.08668
G1 X94.767 Y122.62 E28.10393
G1 X94.992 Y123.023 E28.12312
G1 X95.318 Y123.415 E28.14431
G1 X95.63 Y123.688 E28.16155
