;FLAVOR:Marlin
;TIME:4996
;Filament used: 16.1519m
;Layer height: 0.25
;MINX:24.124
;MINY:30.116
;MINZ:0.25
;MAXX:210.877
;MAXY:204.884
;MAXZ:2
;Generated with Cura_SteamEngine 4.10.0
M82 ;absolute extrusion mode
; Start bed heating
M140 S60.0
M104 S225.0
; Use absolute coordinates
G90
; Set and wait for nozzle to reach temperature
M109 S225.0
; Wait for bed to reach temperature
M190 S60.0
; Home
G28
G1 Z10
; Move the nozzle near the bed
G1 Z10 X75 Y225 F3000
G1 Z0.2
; Set extruder position to 0
G92 E0
G1 E10 F500
G4 P1000
; Wipe a little without extruding
G1 X85 F1600
; Set extruder position to 0
G92 E0
; Move the nozzle up to clear
G1 Z5 F3000
G92 E0
G92 E0
G1 F7200 E-3.5
;LAYER_COUNT:8
;LAYER:0
M107
G0 F6000 X25.5 Y31.369 Z0.25
;TYPE:SKIRT
G1 F7200 E0
G1 F6000 X26.052 Y30.928 E0.02937
G1 X26.306 Y30.768 E0.04185
G1 X26.858 Y30.491 E0.06753
G1 X27.145 Y30.38 E0.08033
G1 X27.709 Y30.22 E0.1047
G1 X28.178 Y30.147 E0.12443
G1 X28.682 Y30.117 E0.14542
G1 X28.993 Y30.137 E0.15838
G1 X29.755 Y30.225 E0.19027
G1 X32.496 Y30.503 E0.30481
G1 X35.244 Y30.703 E0.41936
G1 X37.958 Y30.823 E0.53231
G1 X40.93 Y30.867 E0.65588
G1 X71.889 Y30.866 E1.94301
G1 X74.686 Y30.826 E2.05931
G1 X77.403 Y30.711 E2.17237
G1 X80.121 Y30.518 E2.28565
G1 X83.804 Y30.135 E2.4396
G1 X84.227 Y30.116 E2.4572
G1 X85.303 Y30.135 E2.50195
G1 X88.075 Y30.146 E2.61719
G1 X89.68 Y30.117 E2.68393
G1 X90.11 Y30.138 E2.70183
G1 X90.724 Y30.21 E2.72753
G1 X93.477 Y30.493 E2.84259
G1 X96.178 Y30.692 E2.95519
G1 X98.934 Y30.818 E3.06989
G1 X102.039 Y30.867 E3.199
G1 X132.989 Y30.866 E4.48575
G1 X135.786 Y30.826 E4.60205
G1 X138.503 Y30.711 E4.71511
G1 X141.22 Y30.518 E4.82835
G1 X144.826 Y30.142 E4.97909
G1 X145.34 Y30.116 E5.00048
G1 X146.369 Y30.135 E5.04327
G1 X150.472 Y30.124 E5.21386
G1 X151.201 Y30.139 E5.24417
G1 X151.612 Y30.187 E5.26137
G1 X154.389 Y30.477 E5.37746
G1 X157.124 Y30.684 E5.49149
G1 X159.815 Y30.812 E5.60349
G1 X163.122 Y30.867 E5.741
G1 X194.089 Y30.866 E7.02846
G1 X196.886 Y30.826 E7.14476
G1 X199.603 Y30.711 E7.25782
G1 X202.321 Y30.518 E7.37111
G1 X205.974 Y30.138 E7.5238
G1 X206.075 Y30.129 E7.52801
G1 X206.777 Y30.143 E7.55721
G1 X207.545 Y30.284 E7.58967
G1 X207.806 Y30.361 E7.60098
G1 X208.392 Y30.599 E7.62728
G1 X209.01 Y30.966 E7.65716
G1 X209.522 Y31.379 E7.68451
G1 X209.679 Y31.531 E7.6936
G1 X210.013 Y31.91 E7.7146
G1 X210.472 Y32.675 E7.75169
G1 X210.681 Y33.135 E7.77269
G1 X210.816 Y33.622 E7.79371
G1 X210.872 Y34.124 E7.81471
G1 X210.84 Y34.759 E7.84114
G1 X210.604 Y37.057 E7.93718
G1 X210.406 Y39.758 E8.04978
G1 X210.281 Y42.515 E8.16452
G1 X210.234 Y45.572 E8.29163
G1 X210.234 Y103.877 E10.71567
G1 X210.274 Y106.674 E10.83197
G1 X210.389 Y109.391 E10.94503
G1 X210.584 Y112.142 E11.05969
G1 X210.731 Y113.713 E11.12529
G1 X210.857 Y114.957 E11.17727
G1 X210.873 Y115.317 E11.19225
G1 X210.86 Y116.409 E11.23766
G1 X210.877 Y118.586 E11.32817
G1 X210.875 Y119.722 E11.3754
G1 X210.851 Y120.142 E11.39289
G1 X210.594 Y122.692 E11.49944
G1 X210.398 Y125.419 E11.61311
G1 X210.277 Y128.156 E11.72701
G1 X210.234 Y131.08 E11.84859
G1 X210.234 Y189.464 E14.27592
G1 X210.274 Y192.262 E14.39225
G1 X210.389 Y194.979 E14.50532
G1 X210.582 Y197.705 E14.61893
G1 X210.82 Y200.066 E14.71759
G1 X210.858 Y200.498 E14.73562
G1 X210.862 Y201.003 E14.75662
G1 X210.787 Y201.503 E14.77764
G1 X210.634 Y201.985 E14.79866
G1 X210.414 Y202.44 E14.81967
G1 X210.286 Y202.672 E14.83069
G1 X210.007 Y203.093 E14.85169
G1 X209.5 Y203.631 E14.88242
G1 X208.96 Y204.064 E14.9112
G1 X208.718 Y204.218 E14.92312
G1 X208.166 Y204.498 E14.94886
G1 X207.867 Y204.615 E14.9622
G1 X207.291 Y204.78 E14.98712
G1 X206.825 Y204.852 E15.00672
G1 X206.321 Y204.884 E15.02772
G1 X206.008 Y204.863 E15.04076
G1 X205.245 Y204.775 E15.07269
G1 X202.504 Y204.497 E15.18723
G1 X199.756 Y204.297 E15.30178
G1 X197.042 Y204.177 E15.41473
G1 X194.07 Y204.133 E15.5383
G1 X163.111 Y204.134 E16.82543
G1 X160.314 Y204.174 E16.94173
G1 X157.597 Y204.289 E17.05479
G1 X154.879 Y204.482 E17.16807
G1 X151.195 Y204.865 E17.32206
G1 X150.757 Y204.884 E17.34029
G1 X149.713 Y204.865 E17.3837
G1 X146.899 Y204.854 E17.50069
G1 X145.34 Y204.883 E17.56552
G1 X144.916 Y204.863 E17.58317
G1 X144.167 Y204.777 E17.61451
G1 X141.404 Y204.497 E17.72997
G1 X138.656 Y204.297 E17.84452
G1 X135.942 Y204.177 E17.95747
G1 X132.97 Y204.133 E18.08104
G1 X102.011 Y204.134 E19.36817
G1 X99.214 Y204.174 E19.48447
G1 X96.497 Y204.289 E19.59753
G1 X93.779 Y204.482 E19.71081
G1 X90.103 Y204.864 E19.86447
G1 X89.661 Y204.884 E19.88286
G1 X88.631 Y204.865 E19.92569
G1 X84.528 Y204.876 E20.09627
G1 X83.799 Y204.861 E20.12659
G1 X83.388 Y204.813 E20.14379
G1 X80.611 Y204.523 E20.25988
G1 X77.876 Y204.316 E20.37391
G1 X75.185 Y204.188 E20.48591
G1 X71.878 Y204.133 E20.62342
G1 X40.911 Y204.134 E21.91088
G1 X38.114 Y204.174 E22.02718
G1 X35.397 Y204.289 E22.14024
G1 X32.679 Y204.482 E22.25352
G1 X29.026 Y204.862 E22.40622
G1 X28.925 Y204.871 E22.41043
G1 X28.218 Y204.856 E22.43983
G1 X27.449 Y204.715 E22.47234
G1 X27.192 Y204.639 E22.48348
G1 X26.607 Y204.401 E22.50974
G1 X26.402 Y204.293 E22.51937
G1 X25.941 Y203.997 E22.54215
G1 X25.431 Y203.574 E22.5697
G1 X25.301 Y203.446 E22.57728
G1 X24.97 Y203.064 E22.59829
G1 X24.526 Y202.317 E22.63442
G1 X24.318 Y201.857 E22.65541
G1 X24.184 Y201.369 E22.67645
G1 X24.129 Y200.866 E22.69749
G1 X24.141 Y200.483 E22.71342
G1 X24.203 Y199.804 E22.74177
G1 X24.365 Y198.272 E22.80581
G1 X24.575 Y195.558 E22.91899
G1 X24.706 Y192.845 E23.03191
G1 X24.766 Y189.419 E23.17437
G1 X24.766 Y131.119 E25.5982
G1 X24.726 Y128.321 E25.71454
G1 X24.611 Y125.604 E25.8276
G1 X24.416 Y122.853 E25.94226
G1 X24.266 Y121.243 E26.00949
G1 X24.144 Y120.046 E26.05951
G1 X24.127 Y119.682 E26.07466
G1 X24.141 Y118.541 E26.1221
G1 X24.124 Y115.686 E26.2408
G1 X24.14 Y114.977 E26.27029
G1 X24.177 Y114.563 E26.28757
G1 X24.379 Y112.61 E26.3692
G1 X24.585 Y109.892 E26.48252
G1 X24.713 Y107.147 E26.59677
G1 X24.766 Y103.917 E26.73108
G1 X24.766 Y45.535 E29.15832
G1 X24.726 Y42.738 E29.27461
G1 X24.611 Y40.021 E29.38768
G1 X24.417 Y37.291 E29.50146
G1 X24.17 Y34.824 E29.60454
G1 X24.142 Y34.489 E29.61852
G1 X24.14 Y33.983 E29.63955
G1 X24.217 Y33.483 E29.66059
G1 X24.373 Y33.002 E29.68161
G1 X24.639 Y32.463 E29.7066
G1 X24.714 Y32.328 E29.71302
G1 X24.993 Y31.907 E29.73402
G1 X25.5 Y31.369 E29.76475
G1 F7200 E26.26475
;MESH:Battery Case Lid 1.4.STL(1)
G0 F6000 X27.671 Y33.854
G0 X28.41 Y34.611
G0 X28.582 Y34.73
;TYPE:WALL-INNER
G1 F7200 E29.76475
G1 F6000 X28.709 Y34.667 E29.77065
G1 X28.802 Y34.667 E29.77451
G1 X28.754 Y34.713
G1 X28.656 Y34.807 E29.77613
G1 X28.566 Y34.893 E29.7809
G1 X28.582 Y34.73 E29.78281
G0 X30.142 Y34.511
G0 X82.642 Y34.511
G0 X83.997 Y34.666
G1 X84.092 Y34.666 E29.78676
G1 X84.216 Y34.729 E29.79255
G1 X84.234 Y34.892 E29.79936
G1 X84.144 Y34.806 E29.79963
G1 X84.047 Y34.714 E29.80076
G1 X83.997 Y34.666
G0 X84.23 Y35.128
G0 X84.388 Y36.332
G0 X84.388 Y113.332
G0 X84.234 Y114.639
G1 X84.218 Y114.77 E29.80625
G1 X84.091 Y114.833 E29.81214
G1 X83.995 Y114.833 E29.81614
G1 X84.052 Y114.787
G1 X84.16 Y114.699 E29.81754
G1 X84.234 Y114.639 E29.8176
G0 X83.589 Y114.936
G0 X29.21 Y114.943
G0 X28.566 Y114.632
G1 X28.591 Y114.653 E29.81896
G1 X28.699 Y114.743 E29.8248
G1 X28.806 Y114.834 E29.83064
G1 X28.635 Y114.82 E29.83236
G1 X28.566 Y114.684 E29.83434
G1 X28.566 Y114.632 E29.83498
G0 X29.21 Y114.943
G0 X81.305 Y114.833
G1 X81.069 Y114.833 E29.84479
G1 X80.884 Y114.833 E29.85248
G1 X31.918 Y114.833 E31.88825
G1 X31.733 Y114.833 E31.89594
G1 X31.494 Y114.834 E31.90588
G1 X31.732 Y114.642 E31.91044
G1 X31.828 Y114.485 E31.91636
G1 X32.104 Y114.035 E31.9383
G1 X32.256 Y113.34 E31.96788
G1 X32.164 Y112.633 E31.99752
G1 X31.844 Y111.998 E32.02709
G1 X31.329 Y111.505 E32.05673
G1 X30.697 Y111.218 E32.08558
G1 X30.311 Y111.152 E32.10186
G1 X29.618 Y111.211 E32.13078
G1 X28.971 Y111.505 E32.16033
G1 X28.903 Y111.57 E32.16424
G1 X28.566 Y111.893 E32.18364
G1 X28.566 Y111.427 E32.19411
G1 X28.566 Y111.426 E32.19415
G1 X28.566 Y38.054 E35.24461
G1 X28.566 Y37.653 E35.26128
G1 X28.566 Y37.632 E35.26215
G1 X28.581 Y37.653 E35.2623
G1 X28.893 Y37.904 E35.27172
G1 X29.122 Y38.089 E35.28395
G1 X29.794 Y38.326 E35.31358
G1 X30.505 Y38.326 E35.34314
G1 X31.178 Y38.089 E35.3728
G1 X31.732 Y37.642 E35.4024
G1 X32.104 Y37.035 E35.432
G1 X32.256 Y36.34 E35.46158
G1 X32.164 Y35.633 E35.49122
G1 X31.868 Y35.047 E35.51851
G1 X31.844 Y34.998 E35.52078
G1 X31.498 Y34.667 E35.54069
G1 X31.844 Y34.667 E35.54574
G1 X31.899 Y34.667 E35.54787
G1 X80.9 Y34.667 E37.58509
G1 X80.955 Y34.667 E37.58738
G1 X81.303 Y34.666 E37.60184
G1 X80.956 Y34.998 E37.61244
G1 X80.932 Y35.047 E37.61454
G1 X80.636 Y35.633 E37.64184
G1 X80.544 Y36.34 E37.67148
G1 X80.696 Y37.035 E37.70106
G1 X81.068 Y37.642 E37.73066
G1 X81.622 Y38.089 E37.76025
G1 X82.294 Y38.326 E37.78988
G1 X83.005 Y38.326 E37.81944
G1 X83.678 Y38.089 E37.8491
G1 X83.909 Y37.902 E37.86146
G1 X84.234 Y37.639 E37.87884
G1 X84.234 Y38.057 E37.88838
G1 X84.234 Y111.426 E40.93871
G1 X84.234 Y111.892 E40.95808
G1 X83.897 Y111.57 E40.96855
G1 X83.829 Y111.505 E40.97246
G1 X83.197 Y111.218 E41.00132
G1 X82.811 Y111.152 E41.0176
G1 X82.118 Y111.211 E41.04652
G1 X81.471 Y111.505 E41.07606
G1 X80.956 Y111.998 E41.1057
G1 X80.636 Y112.633 E41.13527
G1 X80.544 Y113.34 E41.16491
G1 X80.696 Y114.035 E41.19449
G1 X80.972 Y114.485 E41.21643
G1 X81.068 Y114.642 E41.22234
G1 X81.305 Y114.833 E41.22692
G0 X81.82 Y114.735
;TYPE:WALL-OUTER
G1 X82.107 Y114.836 E41.23957
G1 X82.362 Y114.926 E41.25082
G1 X82.937 Y114.926 E41.27472
G1 X83.193 Y114.836 E41.286
G1 X83.48 Y114.735 E41.29865
G1 X83.927 Y114.374 E41.32254
G1 X84.228 Y113.884 E41.34645
G1 X84.236 Y113.85 E41.3479
G1 X84.349 Y113.327 E41.37015
G1 X84.337 Y113.031 E41.38246
G1 X84.237 Y112.706 E41.3966
G1 X84.168 Y112.485 E41.40623
G1 X84.018 Y112.239 E41.41821
G1 X83.602 Y111.841 E41.44214
G1 X83.079 Y111.604 E41.46601
G1 X82.794 Y111.555 E41.47804
G1 X82.221 Y111.604 E41.50195
G1 X81.698 Y111.841 E41.52582
G1 X81.282 Y112.239 E41.54975
G1 X81.024 Y112.752 E41.57363
G1 X80.95 Y113.323 E41.59756
G1 X81.072 Y113.884 E41.62143
G1 X81.373 Y114.374 E41.64534
G1 X81.82 Y114.735 E41.66923
G0 X82.008 Y114.801
G0 X81.974 Y114.895
G0 X81.191 Y114.535
G0 X66.815 Y92.806
G0 X74.577 Y92.802
G0 X74.577 Y72.198
G0 X68.577 Y67.198
G0 X52.913 Y67.193
G0 X29.22 Y38.017
G0 X29.32 Y37.735
G1 X29.862 Y37.926 E41.69312
G1 X30.437 Y37.926 E41.71703
G1 X30.98 Y37.735 E41.74096
G1 X31.427 Y37.374 E41.76485
G1 X31.728 Y36.884 E41.78876
G1 X31.85 Y36.323 E41.81262
G1 X31.776 Y35.752 E41.83656
G1 X31.518 Y35.239 E41.86044
G1 X31.102 Y34.841 E41.88437
G1 X30.711 Y34.663 E41.90223
G1 X30.579 Y34.604 E41.90824
G1 X30.14 Y34.55 E41.92663
G1 X29.721 Y34.604 E41.9442
G1 X29.589 Y34.663 E41.95021
G1 X29.198 Y34.841 E41.96807
G1 X28.782 Y35.239 E41.992
G1 X28.563 Y35.674 E42.01225
G1 X28.524 Y35.752 E42.01588
G1 X28.45 Y36.252 E42.03689
G1 X28.488 Y36.608 E42.05178
G1 X28.562 Y36.794 E42.0601
G1 X28.702 Y37.141 E42.07566
G1 X28.873 Y37.374 E42.08767
G1 X29.32 Y37.735 E42.11156
G0 X29.508 Y37.801
G0 X29.361 Y38.216
G0 X81.72 Y38.017
G0 X81.82 Y37.735
G1 X82.362 Y37.926 E42.13545
G1 X82.937 Y37.926 E42.15936
G1 X83.48 Y37.735 E42.18329
G1 X83.927 Y37.374 E42.20718
G1 X84.228 Y36.884 E42.23109
G1 X84.236 Y36.85 E42.23254
G1 X84.349 Y36.327 E42.25478
G1 X84.337 Y36.032 E42.26706
G1 X84.237 Y35.706 E42.28123
G1 X84.168 Y35.485 E42.29086
G1 X84.018 Y35.239 E42.30284
G1 X83.602 Y34.841 E42.32677
G1 X83.211 Y34.663 E42.34464
G1 X83.079 Y34.604 E42.35065
G1 X82.64 Y34.55 E42.36904
G1 X82.221 Y34.604 E42.3866
G1 X82.089 Y34.663 E42.39261
G1 X81.698 Y34.841 E42.41047
G1 X81.282 Y35.239 E42.43441
G1 X81.024 Y35.752 E42.45828
G1 X80.95 Y36.323 E42.48222
G1 X81.072 Y36.884 E42.50609
G1 X81.373 Y37.374 E42.53
G1 X81.82 Y37.735 E42.55388
G0 X82.008 Y37.801
G0 X81.861 Y38.216
G0 X61.7 Y62.423
G0 X60.833 Y63.252
G0 X59.836 Y63.922
G0 X58.744 Y64.414
G0 X56.307 Y64.972
;TYPE:WALL-INNER
G1 X56.489 Y64.973 E42.56145
G1 X57.537 Y64.883 E42.60518
G1 X57.78 Y64.833 E42.6155
G1 X58.801 Y64.566 E42.65937
G1 X59.906 Y64.067 E42.70978
G1 X60.004 Y64.009 E42.71451
G1 X60.928 Y63.382 E42.76094
G1 X61.013 Y63.309 E42.7656
G1 X61.818 Y62.533 E42.81208
G1 X61.888 Y62.445 E42.81676
G1 X62.549 Y61.547 E42.86312
G1 X62.603 Y61.448 E42.86781
G1 X63.096 Y60.462 E42.91364
G1 X63.136 Y60.358 E42.91827
G1 X63.441 Y59.354 E42.9619
G1 X63.485 Y59.111 E42.97216
G1 X63.619 Y58.064 E43.01605
G1 X63.614 Y57.886 E43.02345
G1 X63.567 Y56.844 E43.06682
G1 X63.532 Y56.661 E43.07456
G1 X63.313 Y55.647 E43.11769
G1 X63.275 Y55.541 E43.12237
G1 X62.858 Y54.505 E43.1688
G1 X62.802 Y54.407 E43.17349
G1 X62.212 Y53.454 E43.22009
G1 X61.413 Y52.547 E43.27035
G1 X61.329 Y52.471 E43.27506
G1 X60.457 Y51.77 E43.32157
G1 X60.362 Y51.711 E43.32622
G1 X59.452 Y51.204 E43.36953
G1 X59.223 Y51.109 E43.37984
G1 X58.23 Y50.761 E43.42359
G1 X58.057 Y50.727 E43.43092
G1 X57.027 Y50.552 E43.47435
G1 X56.916 Y50.546 E43.47897
G1 X55.79 Y50.548 E43.52579
G1 X54.595 Y50.755 E43.57621
G1 X54.488 Y50.786 E43.58084
G1 X53.436 Y51.16 E43.62726
G1 X53.336 Y51.209 E43.63189
G1 X52.355 Y51.761 E43.67869
G1 X51.414 Y52.521 E43.72898
G1 X51.335 Y52.601 E43.73365
G1 X50.597 Y53.443 E43.7802
G1 X50.534 Y53.536 E43.78487
G1 X49.948 Y54.494 E43.83156
G1 X49.496 Y55.62 E43.882
G1 X49.467 Y55.729 E43.88669
G1 X49.25 Y56.74 E43.92968
G1 X49.225 Y56.921 E43.93728
G1 X49.182 Y57.961 E43.98055
G1 X49.188 Y58.144 E43.98817
G1 X49.332 Y59.259 E44.03491
G1 X49.36 Y59.367 E44.03955
G1 X49.668 Y60.364 E44.08293
G1 X49.767 Y60.59 E44.09319
G1 X50.242 Y61.532 E44.13705
G1 X50.347 Y61.677 E44.14449
G1 X50.97 Y62.517 E44.18797
G1 X51.105 Y62.65 E44.19585
G1 X51.847 Y63.361 E44.23858
G1 X51.936 Y63.429 E44.24323
G1 X52.871 Y64.056 E44.29004
G1 X53.042 Y64.135 E44.29787
G1 X53.98 Y64.558 E44.34065
G1 X54.086 Y64.591 E44.34526
G1 X55.085 Y64.851 E44.38818
G1 X55.265 Y64.884 E44.39579
G1 X56.307 Y64.972 E44.43926
G0 X56.325 Y64.572
;TYPE:WALL-OUTER
G1 X56.473 Y64.573 E44.44542
G1 X57.479 Y64.486 E44.4874
G1 X57.689 Y64.443 E44.49631
G1 X58.668 Y64.187 E44.53838
G1 X58.81 Y64.124 E44.54484
G1 X59.722 Y63.711 E44.58646
G1 X59.79 Y63.671 E44.58974
G1 X60.684 Y63.064 E44.63467
G1 X60.743 Y63.013 E44.63791
G1 X61.521 Y62.264 E44.68281
G1 X61.57 Y62.202 E44.6861
G1 X62.211 Y61.331 E44.73106
G1 X62.249 Y61.262 E44.73433
G1 X62.729 Y60.301 E44.77899
G1 X62.757 Y60.228 E44.78224
G1 X63.052 Y59.26 E44.82431
G1 X63.09 Y59.05 E44.83319
G1 X63.218 Y58.044 E44.87535
G1 X63.214 Y57.9 E44.88134
G1 X63.169 Y56.891 E44.92333
G1 X63.14 Y56.741 E44.92968
G1 X62.927 Y55.756 E44.97158
G1 X62.901 Y55.682 E44.97484
G1 X62.497 Y54.68 E45.01976
G1 X62.458 Y54.612 E45.02302
G1 X61.89 Y53.693 E45.06793
G1 X61.127 Y52.828 E45.11589
G1 X61.069 Y52.775 E45.11915
G1 X60.225 Y52.097 E45.16416
G1 X60.159 Y52.056 E45.16739
G1 X59.278 Y51.565 E45.20932
G1 X59.08 Y51.483 E45.21823
G1 X58.125 Y51.148 E45.26031
G1 X57.985 Y51.121 E45.26624
G1 X56.983 Y50.95 E45.3085
G1 X56.906 Y50.946 E45.3117
G1 X55.825 Y50.948 E45.35665
G1 X54.686 Y51.145 E45.4047
G1 X54.611 Y51.167 E45.40795
G1 X53.592 Y51.529 E45.45291
G1 X53.523 Y51.563 E45.45611
G1 X52.58 Y52.093 E45.50108
G1 X51.682 Y52.819 E45.54909
G1 X51.627 Y52.874 E45.55233
G1 X50.914 Y53.688 E45.59732
G1 X50.87 Y53.753 E45.60058
G1 X50.307 Y54.674 E45.64546
G1 X49.876 Y55.746 E45.69349
G1 X49.856 Y55.822 E45.69676
G1 X49.644 Y56.809 E45.73873
G1 X49.624 Y56.956 E45.7449
G1 X49.582 Y57.963 E45.7868
G1 X49.587 Y58.112 E45.793
G1 X49.726 Y59.184 E45.83794
G1 X49.745 Y59.259 E45.84116
G1 X50.043 Y60.224 E45.88315
G1 X50.129 Y60.419 E45.89201
G1 X50.585 Y61.323 E45.9341
G1 X50.67 Y61.44 E45.94012
G1 X51.273 Y62.254 E45.98223
G1 X51.384 Y62.363 E45.9887
G1 X52.107 Y63.056 E46.03034
G1 X52.169 Y63.103 E46.03357
G1 X53.067 Y63.706 E46.07854
G1 X53.208 Y63.771 E46.085
G1 X54.122 Y64.183 E46.12668
G1 X54.196 Y64.206 E46.1299
G1 X55.172 Y64.46 E46.17183
G1 X55.318 Y64.487 E46.178
G1 X56.325 Y64.572 E46.22002
G0 X56.473 Y64.573
G0 X56.524 Y64.569
G0 X56.56 Y65.007
