;FLAVOR:Marlin
;TIME:3337
;Filament used: 10.7728m
;Layer height: 0.25
;MINX:54.676
;MINY:30.116
;MINZ:0.25
;MAXX:180.325
;MAXY:204.884
;MAXZ:2
;Generated with Cura_SteamEngine 4.10.0
M82 ;absolute extrusion mode
; Start bed heating
M140 S60.0
M104 S225.0
; Use absolute coordinates
G90
; Set and wait for nozzle to reach temperature
M109 S225.0
; Wait for bed to reach temperature
M190 S60.0
; Home
G28
G1 Z10
; Move the nozzle near the bed
G1 Z10 X75 Y225 F3000
G1 Z0.2
; Set extruder position to 0
G92 E0
G1 E10 F500
G4 P1000
; Wipe a little without extruding
G1 X85 F1600
; Set extruder position to 0
G92 E0
; Move the nozzle up to clear
G1 Z5 F3000
G92 E0
G92 E0
G1 F7200 E-3.5
;LAYER_COUNT:8
;LAYER:0
M107
G0 F6000 X55.267 Y32.322 Z0.25
;TYPE:SKIRT
G1 F7200 E0
G1 F6000 X55.548 Y31.901 E0.02104
G1 X56.05 Y31.369 E0.05145
G1 X56.602 Y30.928 E0.08083
G1 X56.856 Y30.768 E0.09331
G1 X57.408 Y30.491 E0.11899
G1 X57.695 Y30.38 E0.13178
G1 X58.259 Y30.22 E0.15615
G1 X58.728 Y30.147 E0.17589
G1 X59.232 Y30.117 E0.19688
G1 X59.543 Y30.137 E0.20983
G1 X60.305 Y30.225 E0.24172
G1 X63.046 Y30.503 E0.35627
G1 X65.794 Y30.703 E0.47082
G1 X68.508 Y30.823 E0.58376
G1 X71.48 Y30.867 E0.70734
G1 X102.439 Y30.866 E1.99446
G1 X105.236 Y30.826 E2.11076
G1 X107.953 Y30.711 E2.22382
G1 X110.671 Y30.518 E2.33711
G1 X114.355 Y30.135 E2.4911
G1 X114.793 Y30.116 E2.50932
G1 X115.837 Y30.135 E2.55274
G1 X118.651 Y30.146 E2.66973
G1 X120.212 Y30.117 E2.73464
G1 X120.637 Y30.137 E2.75233
G1 X121.388 Y30.223 E2.78375
G1 X124.146 Y30.503 E2.89901
G1 X126.894 Y30.703 E3.01356
G1 X129.608 Y30.823 E3.1265
G1 X132.58 Y30.867 E3.25008
G1 X163.539 Y30.866 E4.5372
G1 X166.336 Y30.826 E4.6535
G1 X169.053 Y30.711 E4.76656
G1 X171.771 Y30.518 E4.87985
G1 X175.424 Y30.138 E5.03254
G1 X175.525 Y30.129 E5.03676
G1 X176.23 Y30.144 E5.06608
G1 X176.779 Y30.231 E5.08919
G1 X176.993 Y30.28 E5.09831
G1 X177.679 Y30.522 E5.12856
G1 X178.445 Y30.954 E5.16512
G1 X178.974 Y31.381 E5.19338
G1 X179.146 Y31.55 E5.20341
G1 X179.477 Y31.932 E5.22442
G1 X179.917 Y32.666 E5.26
G1 X180.128 Y33.125 E5.281
G1 X180.264 Y33.612 E5.30203
G1 X180.322 Y34.114 E5.32303
G1 X180.303 Y34.617 E5.34396
G1 X180.044 Y37.191 E5.45152
G1 X179.847 Y39.939 E5.56606
G1 X179.727 Y42.656 E5.67913
G1 X179.684 Y45.58 E5.80071
G1 X179.684 Y103.964 E8.22803
G1 X179.724 Y106.762 E8.34437
G1 X179.839 Y109.479 E8.45743
G1 X180.032 Y112.205 E8.57105
G1 X180.273 Y114.605 E8.67133
G1 X180.322 Y115.3 E8.7003
G1 X180.323 Y115.668 E8.7156
G1 X180.3 Y117.703 E8.80021
G1 X180.325 Y119.412 E8.87127
G1 X180.316 Y119.957 E8.89393
G1 X180.301 Y120.142 E8.90165
G1 X180.044 Y122.692 E9.0082
G1 X179.847 Y125.439 E9.1227
G1 X179.727 Y128.156 E9.23577
G1 X179.684 Y131.08 E9.35735
G1 X179.684 Y189.464 E11.78467
G1 X179.724 Y192.262 E11.90101
G1 X179.839 Y194.979 E12.01407
G1 X180.032 Y197.705 E12.12769
G1 X180.27 Y200.065 E12.22631
G1 X180.308 Y200.499 E12.24442
G1 X180.312 Y201.004 E12.26542
G1 X180.236 Y201.504 E12.28644
G1 X180.083 Y201.986 E12.30747
G1 X179.864 Y202.44 E12.32842
G1 X179.736 Y202.672 E12.33944
G1 X179.457 Y203.093 E12.36044
G1 X178.95 Y203.631 E12.39117
G1 X178.41 Y204.064 E12.41995
G1 X178.168 Y204.218 E12.43187
G1 X177.616 Y204.498 E12.45761
G1 X177.317 Y204.615 E12.47096
G1 X176.741 Y204.78 E12.49587
G1 X176.272 Y204.853 E12.5156
G1 X175.768 Y204.883 E12.53659
G1 X175.457 Y204.863 E12.54955
G1 X174.695 Y204.775 E12.58144
G1 X171.954 Y204.497 E12.69598
G1 X169.206 Y204.297 E12.81053
G1 X166.492 Y204.177 E12.92348
G1 X163.52 Y204.133 E13.04705
G1 X132.561 Y204.134 E14.33418
G1 X129.764 Y204.174 E14.45047
G1 X127.047 Y204.289 E14.56354
G1 X124.329 Y204.482 E14.67682
G1 X120.645 Y204.865 E14.83081
G1 X120.207 Y204.884 E14.84904
G1 X119.163 Y204.865 E14.89245
G1 X116.349 Y204.854 E15.00944
G1 X114.789 Y204.883 E15.07431
G1 X114.364 Y204.863 E15.092
G1 X113.612 Y204.777 E15.12347
G1 X110.854 Y204.497 E15.23872
G1 X108.106 Y204.297 E15.35327
G1 X105.392 Y204.177 E15.46622
G1 X102.42 Y204.133 E15.58979
G1 X71.461 Y204.134 E16.87692
G1 X68.664 Y204.174 E16.99322
G1 X65.947 Y204.289 E17.10628
G1 X63.229 Y204.482 E17.21956
G1 X59.576 Y204.862 E17.37226
G1 X59.475 Y204.871 E17.37647
G1 X58.77 Y204.856 E17.40579
G1 X58.224 Y204.77 E17.42877
G1 X58.009 Y204.721 E17.43794
G1 X57.314 Y204.475 E17.46859
G1 X56.789 Y204.2 E17.49323
G1 X56.181 Y203.756 E17.52453
G1 X55.915 Y203.509 E17.53962
G1 X55.572 Y203.137 E17.56066
G1 X55.264 Y202.67 E17.58391
G1 X55.036 Y202.244 E17.604
G1 X54.839 Y201.778 E17.62504
G1 X54.718 Y201.287 E17.64606
G1 X54.676 Y200.784 E17.66705
G1 X54.724 Y200.093 E17.69584
G1 X54.929 Y198.108 E17.77881
G1 X55.135 Y195.391 E17.89209
G1 X55.263 Y192.646 E18.00634
G1 X55.316 Y189.418 E18.14056
G1 X55.316 Y131.036 E20.56781
G1 X55.276 Y128.239 E20.6841
G1 X55.161 Y125.522 E20.79716
G1 X54.968 Y122.795 E20.91082
G1 X54.727 Y120.395 E21.01111
G1 X54.678 Y119.689 E21.04053
G1 X54.678 Y119.361 E21.05416
G1 X54.702 Y117.268 E21.14119
G1 X54.676 Y115.315 E21.22239
G1 X54.722 Y114.606 E21.25193
G1 X54.93 Y112.605 E21.33557
G1 X55.135 Y109.892 E21.44868
G1 X55.263 Y107.147 E21.56293
G1 X55.316 Y103.917 E21.69724
G1 X55.316 Y45.535 E24.12448
G1 X55.276 Y42.738 E24.24078
G1 X55.161 Y40.021 E24.35384
G1 X54.967 Y37.291 E24.46762
G1 X54.72 Y34.824 E24.5707
G1 X54.692 Y34.489 E24.58468
G1 X54.69 Y33.983 E24.60572
G1 X54.767 Y33.483 E24.62675
G1 X54.923 Y33.002 E24.64777
G1 X55.148 Y32.54 E24.66914
G1 X55.267 Y32.322 E24.67946
G1 F7200 E21.17946
;MESH:Battery Case Lid 1.4.STL
G0 F6000 X58.221 Y33.854
G0 X58.96 Y34.611
G0 X59.132 Y34.73
;TYPE:WALL-INNER
G1 F7200 E24.67946
G1 F6000 X59.259 Y34.667 E24.68536
G1 X59.352 Y34.667 E24.68922
G1 X59.304 Y34.713
G1 X59.206 Y34.807 E24.69084
G1 X59.116 Y34.893 E24.69561
G1 X59.132 Y34.73 E24.69753
G0 X60.692 Y34.511
G0 X113.192 Y34.511
G0 X114.547 Y34.666
G1 X114.642 Y34.666 E24.70147
G1 X114.766 Y34.729 E24.70726
G1 X114.784 Y34.892 E24.71408
G1 X114.694 Y34.806 E24.71434
G1 X114.597 Y34.714 E24.71547
G1 X114.547 Y34.666
G0 X114.78 Y35.128
G0 X114.938 Y36.332
G0 X114.938 Y113.332
G0 X114.784 Y114.639
G1 X114.768 Y114.77 E24.72096
G1 X114.641 Y114.833 E24.72686
G1 X114.545 Y114.833 E24.73085
G1 X114.602 Y114.787
G1 X114.71 Y114.699 E24.73225
G1 X114.784 Y114.639 E24.73231
G0 X114.139 Y114.936
G0 X59.76 Y114.943
G0 X59.116 Y114.632
G1 X59.141 Y114.653 E24.73367
G1 X59.249 Y114.743 E24.73951
G1 X59.356 Y114.834 E24.74535
G1 X59.185 Y114.82 E24.74707
G1 X59.116 Y114.684 E24.74905
G1 X59.116 Y114.632 E24.74969
G0 X59.76 Y114.943
G0 X111.855 Y114.833
G1 X111.619 Y114.833 E24.7595
G1 X111.434 Y114.833 E24.76719
G1 X62.468 Y114.833 E26.80296
G1 X62.283 Y114.833 E26.81065
G1 X62.044 Y114.834 E26.82059
G1 X62.282 Y114.642 E26.82516
G1 X62.378 Y114.485 E26.83107
G1 X62.654 Y114.035 E26.85301
G1 X62.806 Y113.34 E26.88259
G1 X62.714 Y112.633 E26.91223
G1 X62.394 Y111.998 E26.9418
G1 X61.879 Y111.505 E26.97144
G1 X61.247 Y111.218 E27.00029
G1 X60.861 Y111.152 E27.01658
G1 X60.168 Y111.211 E27.04549
G1 X59.521 Y111.505 E27.07504
G1 X59.453 Y111.57 E27.07895
G1 X59.116 Y111.893 E27.09836
G1 X59.116 Y111.427 E27.10882
G1 X59.116 Y111.426 E27.10886
G1 X59.116 Y38.054 E30.15932
G1 X59.116 Y37.653 E30.17599
G1 X59.116 Y37.632 E30.17686
G1 X59.131 Y37.653 E30.17701
G1 X59.443 Y37.904 E30.18643
G1 X59.672 Y38.089 E30.19867
G1 X60.345 Y38.326 E30.22833
G1 X61.056 Y38.326 E30.25789
G1 X61.728 Y38.089 E30.28751
G1 X62.282 Y37.642 E30.31711
G1 X62.654 Y37.035 E30.34671
G1 X62.806 Y36.34 E30.37629
G1 X62.714 Y35.633 E30.40593
G1 X62.418 Y35.047 E30.43322
G1 X62.394 Y34.998 E30.43549
G1 X62.048 Y34.667 E30.4554
G1 X62.394 Y34.667 E30.46045
G1 X62.449 Y34.667 E30.46258
G1 X111.45 Y34.667 E32.4998
G1 X111.505 Y34.667 E32.50209
G1 X111.853 Y34.666 E32.51656
G1 X111.506 Y34.998 E32.52715
G1 X111.482 Y35.047 E32.52925
G1 X111.186 Y35.633 E32.55655
G1 X111.094 Y36.34 E32.58619
G1 X111.246 Y37.035 E32.61577
G1 X111.618 Y37.642 E32.64537
G1 X112.172 Y38.089 E32.67496
G1 X112.845 Y38.326 E32.70463
G1 X113.556 Y38.326 E32.73419
G1 X114.228 Y38.089 E32.76381
G1 X114.459 Y37.902 E32.77617
G1 X114.784 Y37.639 E32.79355
G1 X114.784 Y38.057 E32.80309
G1 X114.784 Y111.426 E35.85342
G1 X114.784 Y111.892 E35.87279
G1 X114.447 Y111.57 E35.88326
G1 X114.379 Y111.505 E35.88717
G1 X113.747 Y111.218 E35.91603
G1 X113.361 Y111.152 E35.93231
G1 X112.668 Y111.211 E35.96123
G1 X112.021 Y111.505 E35.99077
G1 X111.506 Y111.998 E36.02041
G1 X111.186 Y112.633 E36.04998
G1 X111.094 Y113.34 E36.07962
G1 X111.246 Y114.035 E36.1092
G1 X111.522 Y114.485 E36.13114
G1 X111.618 Y114.642 E36.13705
G1 X111.855 Y114.833 E36.14163
G0 X112.37 Y114.735
;TYPE:WALL-OUTER
G1 X112.657 Y114.836 E36.15428
G1 X112.913 Y114.926 E36.16557
G1 X113.488 Y114.926 E36.18947
G1 X113.743 Y114.836 E36.20071
G1 X114.03 Y114.735 E36.21336
G1 X114.477 Y114.374 E36.23725
G1 X114.778 Y113.884 E36.26116
G1 X114.786 Y113.85 E36.26261
G1 X114.899 Y113.327 E36.28486
G1 X114.887 Y113.031 E36.29717
G1 X114.787 Y112.706 E36.31131
G1 X114.718 Y112.485 E36.32094
G1 X114.568 Y112.239 E36.33292
G1 X114.152 Y111.841 E36.35685
G1 X113.629 Y111.604 E36.38072
G1 X113.344 Y111.555 E36.39275
G1 X112.771 Y111.604 E36.41666
G1 X112.248 Y111.841 E36.44053
G1 X111.832 Y112.239 E36.46446
G1 X111.574 Y112.752 E36.48834
G1 X111.5 Y113.323 E36.51228
G1 X111.622 Y113.884 E36.53614
G1 X111.923 Y114.374 E36.56005
G1 X112.37 Y114.735 E36.58394
G0 X112.558 Y114.801
G0 X112.524 Y114.895
G0 X111.741 Y114.535
G0 X97.366 Y92.806
G0 X105.127 Y92.802
G0 X105.127 Y72.198
G0 X99.127 Y67.198
G0 X83.465 Y67.196
G0 X59.77 Y38.017
G0 X59.87 Y37.735
G1 X60.413 Y37.926 E36.60787
G1 X60.988 Y37.926 E36.63178
G1 X61.53 Y37.735 E36.65567
G1 X61.977 Y37.374 E36.67956
G1 X62.278 Y36.884 E36.70347
G1 X62.4 Y36.323 E36.72733
G1 X62.326 Y35.752 E36.75127
G1 X62.068 Y35.239 E36.77515
G1 X61.652 Y34.841 E36.79908
G1 X61.261 Y34.663 E36.81694
G1 X61.129 Y34.604 E36.82295
G1 X60.69 Y34.55 E36.84134
G1 X60.271 Y34.604 E36.85891
G1 X60.139 Y34.663 E36.86492
G1 X59.748 Y34.841 E36.88278
G1 X59.332 Y35.239 E36.90672
G1 X59.113 Y35.674 E36.92696
G1 X59.074 Y35.752 E36.93059
G1 X59 Y36.252 E36.9516
G1 X59.038 Y36.608 E36.96649
G1 X59.112 Y36.794 E36.97481
G1 X59.252 Y37.141 E36.99037
G1 X59.423 Y37.374 E37.00238
G1 X59.87 Y37.735 E37.02627
G0 X60.058 Y37.801
G0 X59.911 Y38.216
G0 X112.27 Y38.017
G0 X112.37 Y37.735
G1 X112.913 Y37.926 E37.0502
G1 X113.488 Y37.926 E37.07411
G1 X114.03 Y37.735 E37.098
G1 X114.477 Y37.374 E37.12189
G1 X114.778 Y36.884 E37.1458
G1 X114.786 Y36.85 E37.14725
G1 X114.899 Y36.327 E37.16949
G1 X114.887 Y36.032 E37.18177
G1 X114.787 Y35.706 E37.19595
G1 X114.718 Y35.485 E37.20557
G1 X114.568 Y35.239 E37.21755
G1 X114.152 Y34.841 E37.24149
G1 X113.761 Y34.663 E37.25935
G1 X113.629 Y34.604 E37.26536
G1 X113.19 Y34.55 E37.28375
G1 X112.771 Y34.604 E37.30131
G1 X112.639 Y34.663 E37.30732
G1 X112.248 Y34.841 E37.32518
G1 X111.832 Y35.239 E37.34912
G1 X111.574 Y35.752 E37.37299
G1 X111.5 Y36.323 E37.39693
G1 X111.622 Y36.884 E37.4208
G1 X111.923 Y37.374 E37.44471
G1 X112.37 Y37.735 E37.4686
G0 X112.558 Y37.801
G0 X112.411 Y38.216
G0 X92.247 Y62.426
G0 X91.385 Y63.25
G0 X90.386 Y63.922
G0 X89.294 Y64.414
G0 X86.857 Y64.972
;TYPE:WALL-INNER
G1 X87.039 Y64.973 E37.47616
G1 X88.087 Y64.883 E37.51989
G1 X88.33 Y64.833 E37.53021
G1 X89.351 Y64.566 E37.57408
G1 X90.456 Y64.067 E37.62449
G1 X90.554 Y64.009 E37.62923
G1 X91.481 Y63.38 E37.6758
G1 X91.565 Y63.306 E37.68045
G1 X92.368 Y62.533 E37.72679
G1 X92.438 Y62.445 E37.73147
G1 X93.099 Y61.547 E37.77783
G1 X93.153 Y61.448 E37.78252
G1 X93.646 Y60.462 E37.82835
G1 X93.685 Y60.358 E37.83297
G1 X93.993 Y59.354 E37.87663
G1 X94.036 Y59.11 E37.88693
G1 X94.169 Y58.064 E37.93077
G1 X94.164 Y57.886 E37.93817
G1 X94.117 Y56.844 E37.98153
G1 X94.082 Y56.661 E37.98928
G1 X93.863 Y55.647 E38.03241
G1 X93.825 Y55.541 E38.03709
G1 X93.408 Y54.505 E38.08352
G1 X93.352 Y54.407 E38.08821
G1 X92.762 Y53.454 E38.13481
G1 X91.963 Y52.547 E38.18507
G1 X91.879 Y52.471 E38.18978
G1 X91.007 Y51.77 E38.23629
G1 X90.912 Y51.711 E38.24094
G1 X90.002 Y51.204 E38.28425
G1 X89.773 Y51.109 E38.29456
G1 X88.78 Y50.761 E38.3383
G1 X88.607 Y50.727 E38.34563
G1 X87.577 Y50.552 E38.38907
G1 X87.466 Y50.546 E38.39369
G1 X86.34 Y50.548 E38.44051
G1 X85.145 Y50.755 E38.49093
G1 X85.038 Y50.786 E38.49556
G1 X83.986 Y51.16 E38.54198
G1 X83.886 Y51.209 E38.54661
G1 X82.905 Y51.761 E38.59341
G1 X81.964 Y52.521 E38.64369
G1 X81.885 Y52.601 E38.64837
G1 X81.147 Y53.443 E38.69492
G1 X81.084 Y53.536 E38.69959
G1 X80.498 Y54.494 E38.74628
G1 X80.046 Y55.62 E38.79672
G1 X80.017 Y55.729 E38.80141
G1 X79.8 Y56.74 E38.8444
G1 X79.775 Y56.921 E38.852
G1 X79.732 Y57.961 E38.89527
G1 X79.738 Y58.145 E38.90293
G1 X79.883 Y59.259 E38.94963
G1 X79.911 Y59.367 E38.95427
G1 X80.217 Y60.363 E38.99759
G1 X80.317 Y60.59 E39.0079
G1 X80.792 Y61.532 E39.05176
G1 X80.897 Y61.677 E39.05921
G1 X81.52 Y62.517 E39.10269
G1 X81.648 Y62.644 E39.11018
G1 X82.398 Y63.361 E39.15332
G1 X82.487 Y63.429 E39.15798
G1 X83.42 Y64.056 E39.20471
G1 X84.53 Y64.558 E39.25536
G1 X84.636 Y64.591 E39.25998
G1 X85.635 Y64.851 E39.30289
G1 X85.815 Y64.884 E39.3105
G1 X86.857 Y64.972 E39.35398
G0 X86.875 Y64.572
;TYPE:WALL-OUTER
G1 X87.023 Y64.573 E39.36013
G1 X88.029 Y64.486 E39.40211
G1 X88.239 Y64.443 E39.41102
G1 X89.218 Y64.187 E39.4531
G1 X89.36 Y64.124 E39.45955
G1 X90.272 Y63.711 E39.50118
G1 X90.34 Y63.671 E39.50446
G1 X91.236 Y63.063 E39.54947
G1 X91.294 Y63.012 E39.55269
G1 X92.071 Y62.264 E39.59753
G1 X92.12 Y62.202 E39.60081
G1 X92.761 Y61.331 E39.64577
G1 X92.799 Y61.262 E39.64905
G1 X93.279 Y60.301 E39.69371
G1 X93.307 Y60.228 E39.69696
G1 X93.603 Y59.26 E39.73904
G1 X93.64 Y59.05 E39.74791
G1 X93.768 Y58.044 E39.79007
G1 X93.764 Y57.9 E39.79606
G1 X93.719 Y56.891 E39.83805
G1 X93.69 Y56.741 E39.8444
G1 X93.477 Y55.756 E39.8863
G1 X93.451 Y55.682 E39.88956
G1 X93.047 Y54.68 E39.93448
G1 X93.008 Y54.612 E39.93774
G1 X92.44 Y53.693 E39.98265
G1 X91.677 Y52.828 E40.03061
G1 X91.619 Y52.775 E40.03387
G1 X90.775 Y52.097 E40.07888
G1 X90.709 Y52.056 E40.08211
G1 X89.828 Y51.565 E40.12405
G1 X89.63 Y51.483 E40.13296
G1 X88.675 Y51.148 E40.17503
G1 X88.535 Y51.121 E40.18096
G1 X87.533 Y50.95 E40.22322
G1 X87.456 Y50.946 E40.22643
G1 X86.375 Y50.948 E40.27137
G1 X85.236 Y51.145 E40.31943
G1 X85.161 Y51.167 E40.32268
G1 X84.142 Y51.529 E40.36763
G1 X84.073 Y51.563 E40.37083
G1 X83.13 Y52.093 E40.41581
G1 X82.232 Y52.819 E40.46381
G1 X82.177 Y52.874 E40.46705
G1 X81.464 Y53.688 E40.51204
G1 X81.42 Y53.753 E40.5153
G1 X80.857 Y54.674 E40.56018
G1 X80.426 Y55.746 E40.60822
G1 X80.406 Y55.822 E40.61148
G1 X80.194 Y56.809 E40.65345
G1 X80.174 Y56.956 E40.65962
G1 X80.132 Y57.963 E40.70152
G1 X80.137 Y58.112 E40.70772
G1 X80.277 Y59.184 E40.75267
G1 X80.296 Y59.259 E40.75589
G1 X80.593 Y60.223 E40.79782
G1 X80.679 Y60.419 E40.80672
G1 X81.135 Y61.323 E40.84882
G1 X81.22 Y61.44 E40.85483
G1 X81.823 Y62.254 E40.89695
G1 X81.927 Y62.357 E40.90303
G1 X82.658 Y63.056 E40.94508
G1 X82.72 Y63.103 E40.94831
G1 X83.617 Y63.706 E40.99325
G1 X83.758 Y63.771 E40.99971
G1 X84.672 Y64.183 E41.04139
G1 X84.746 Y64.206 E41.04461
G1 X85.722 Y64.46 E41.08654
G1 X85.868 Y64.487 E41.09271
G1 X86.875 Y64.572 E41.13473
G0 X87.023 Y64.573
G0 X87.074 Y64.569
G0 X87.11 Y65.007
G0 X74.773 Y67.198
G0 X68.601 Y72.026
;TYPE:WALL-INNER
G1 X68.601 Y92.974 E42.00564
G1 X105.299 Y92.974 E43.53137
G1 X105.299 Y72.026 E44.40229
G1 X99.3 Y72.026 E44.65169
G1 X99.299 Y67.026 E44.85957
G1 X74.601 Y67.026 E45.88639
G1 X74.601 Y72.025 E46.09423
G1 X68.601 Y72.026 E46.34368
G0 X69.001 Y72.426
;TYPE:WALL-OUTER
G1 X69.001 Y92.574 E47.18134
G1 X104.899 Y92.574 E48.6738
G1 X104.899 Y72.426 E49.51146
G1 X98.9 Y72.426 E49.76087
G1 X98.899 Y67.426 E49.96874
G1 X75.001 Y67.426 E50.96231
G1 X75.001 Y72.425 E51.17014
G1 X69.001 Y72.426 E51.41959
G0 X69.001 Y72.626
G0 X68.561 Y72.626
G0 X59.119 Y112.132
G0 X58.961 Y113.252
G0 X59.135 Y114.431
G0 X59.76 Y114.943
G0 X59.87 Y114.735
G1 X60.158 Y114.836 E51.43228
G1 X60.413 Y114.926 E51.44352
G1 X60.988 Y114.926 E51.46743
