;FLAVOR:Marlin
;TIME:1670
;Filament used: 5.39118m
;Layer height: 0.25
;MINX:54.676
;MINY:72.866
;MINZ:0.25
;MAXX:180.322
;MAXY:162.134
;MAXZ:2
;Generated with Cura_SteamEngine 4.10.0
M82 ;absolute extrusion mode
; Start bed heating
M140 S60.0
M104 S225.0
; Use absolute coordinates
G90
; Set and wait for nozzle to reach temperature
M109 S225.0
; Wait for bed to reach temperature
M190 S60.0
; Home
G28
G1 Z10
; Move the nozzle near the bed
G1 Z10 X75 Y225 F3000
G1 Z0.2
; Set extruder position to 0
G92 E0
G1 E10 F500
G4 P1000
; Wipe a little without extruding
G1 X85 F1600
; Set extruder position to 0
G92 E0
; Move the nozzle up to clear
G1 Z5 F3000
G92 E0
G92 E0
G1 F7200 E-3.5
;LAYER_COUNT:8
;LAYER:0
M107
G0 F6000 X56.602 Y73.678 Z0.25
;TYPE:SKIRT
G1 F7200 E0
G1 F6000 X56.856 Y73.518 E0.01248
G1 X57.408 Y73.241 E0.03816
G1 X57.695 Y73.13 E0.05095
G1 X58.259 Y72.97 E0.07532
G1 X58.728 Y72.897 E0.09506
G1 X59.232 Y72.867 E0.11605
G1 X59.543 Y72.887 E0.12901
G1 X60.305 Y72.975 E0.1609
G1 X63.046 Y73.253 E0.27544
G1 X65.794 Y73.453 E0.38999
G1 X68.508 Y73.573 E0.50293
G1 X71.48 Y73.617 E0.62651
G1 X102.439 Y73.616 E1.91364
G1 X105.236 Y73.576 E2.02993
G1 X107.953 Y73.461 E2.14299
G1 X110.671 Y73.268 E2.25628
G1 X114.355 Y72.885 E2.41027
G1 X114.793 Y72.866 E2.4285
G1 X115.837 Y72.885 E2.47191
G1 X118.651 Y72.896 E2.5889
G1 X120.212 Y72.867 E2.65381
G1 X120.637 Y72.887 E2.6715
G1 X121.388 Y72.973 E2.70293
G1 X124.146 Y73.253 E2.81818
G1 X126.894 Y73.453 E2.93273
G1 X129.608 Y73.573 E3.04568
G1 X132.58 Y73.617 E3.16925
G1 X163.539 Y73.616 E4.45638
G1 X166.336 Y73.576 E4.57267
G1 X169.053 Y73.461 E4.68574
G1 X171.771 Y73.268 E4.79902
G1 X175.424 Y72.888 E4.95171
G1 X175.525 Y72.879 E4.95593
G1 X176.23 Y72.894 E4.98525
G1 X176.779 Y72.981 E5.00836
G1 X176.993 Y73.03 E5.01748
G1 X177.679 Y73.272 E5.04773
G1 X178.445 Y73.704 E5.08429
G1 X178.974 Y74.131 E5.11255
G1 X179.146 Y74.3 E5.12258
G1 X179.477 Y74.682 E5.14359
G1 X179.917 Y75.416 E5.17917
G1 X180.128 Y75.875 E5.20017
G1 X180.264 Y76.362 E5.2212
G1 X180.322 Y76.864 E5.24221
G1 X180.303 Y77.367 E5.26313
G1 X180.044 Y79.941 E5.37069
G1 X179.847 Y82.689 E5.48523
G1 X179.727 Y85.406 E5.5983
G1 X179.684 Y88.33 E5.71988
G1 X179.684 Y146.714 E8.1472
G1 X179.724 Y149.512 E8.26354
G1 X179.839 Y152.229 E8.3766
G1 X180.032 Y154.955 E8.49022
G1 X180.27 Y157.315 E8.58884
G1 X180.308 Y157.749 E8.60695
G1 X180.312 Y158.254 E8.62795
G1 X180.236 Y158.754 E8.64897
G1 X180.083 Y159.236 E8.67
G1 X179.864 Y159.69 E8.69095
G1 X179.736 Y159.922 E8.70197
G1 X179.457 Y160.343 E8.72297
G1 X178.95 Y160.881 E8.7537
G1 X178.41 Y161.314 E8.78248
G1 X178.168 Y161.468 E8.7944
G1 X177.616 Y161.748 E8.82014
G1 X177.317 Y161.865 E8.83349
G1 X176.741 Y162.03 E8.8584
G1 X176.272 Y162.103 E8.87813
G1 X175.768 Y162.133 E8.89912
G1 X175.457 Y162.113 E8.91208
G1 X174.695 Y162.025 E8.94397
G1 X171.954 Y161.747 E9.05851
G1 X169.206 Y161.547 E9.17306
G1 X166.492 Y161.427 E9.28601
G1 X163.52 Y161.383 E9.40958
G1 X132.561 Y161.384 E10.69671
G1 X129.764 Y161.424 E10.813
G1 X127.047 Y161.539 E10.92606
G1 X124.329 Y161.732 E11.03935
G1 X120.645 Y162.115 E11.19334
G1 X120.207 Y162.134 E11.21157
G1 X119.163 Y162.115 E11.25498
G1 X116.349 Y162.104 E11.37197
G1 X114.789 Y162.133 E11.43684
G1 X114.364 Y162.113 E11.45453
G1 X113.612 Y162.027 E11.486
G1 X110.854 Y161.747 E11.60125
G1 X108.106 Y161.547 E11.7158
G1 X105.392 Y161.427 E11.82875
G1 X102.42 Y161.383 E11.95232
G1 X71.461 Y161.384 E13.23945
G1 X68.664 Y161.424 E13.35574
G1 X65.947 Y161.539 E13.46881
G1 X63.229 Y161.732 E13.58209
G1 X59.576 Y162.112 E13.73479
G1 X59.475 Y162.121 E13.739
G1 X58.77 Y162.106 E13.76832
G1 X58.224 Y162.02 E13.7913
G1 X58.009 Y161.971 E13.80047
G1 X57.314 Y161.725 E13.83112
G1 X56.789 Y161.45 E13.85576
G1 X56.181 Y161.006 E13.88706
G1 X55.915 Y160.759 E13.90215
G1 X55.572 Y160.387 E13.92319
G1 X55.264 Y159.92 E13.94644
G1 X55.036 Y159.494 E13.96653
G1 X54.839 Y159.028 E13.98757
G1 X54.718 Y158.537 E14.00859
G1 X54.676 Y158.034 E14.02958
G1 X54.724 Y157.343 E14.05837
G1 X54.929 Y155.358 E14.14134
G1 X55.135 Y152.641 E14.25462
G1 X55.263 Y149.896 E14.36887
G1 X55.316 Y146.668 E14.50309
G1 X55.316 Y88.286 E16.93034
G1 X55.276 Y85.489 E17.04663
G1 X55.161 Y82.772 E17.15969
G1 X54.967 Y80.041 E17.27352
G1 X54.72 Y77.574 E17.3766
G1 X54.692 Y77.238 E17.39062
G1 X54.69 Y76.732 E17.41166
G1 X54.768 Y76.233 E17.43265
G1 X54.923 Y75.751 E17.4537
G1 X55.148 Y75.29 E17.47503
G1 X55.267 Y75.072 E17.48536
G1 X55.548 Y74.651 E17.5064
G1 X56.05 Y74.119 E17.53681
G1 X56.602 Y73.678 E17.56618
G1 F7200 E14.06618
;MESH:Battery Case Lid 1.4.STL(2)
G0 F6000 X58.221 Y76.604
G0 X58.96 Y77.361
G0 X59.132 Y77.48
;TYPE:WALL-INNER
G1 F7200 E17.56618
G1 F6000 X59.259 Y77.417 E17.57208
G1 X59.352 Y77.417 E17.57594
G1 X59.304 Y77.463
G1 X59.206 Y77.557 E17.57756
G1 X59.116 Y77.643 E17.58233
G1 X59.132 Y77.48 E17.58425
G0 X60.692 Y77.261
G0 X113.192 Y77.261
G0 X114.547 Y77.416
G1 X114.642 Y77.416 E17.5882
G1 X114.766 Y77.479 E17.59398
G1 X114.784 Y77.642 E17.6008
G1 X114.694 Y77.556 E17.60106
G1 X114.597 Y77.464 E17.6022
G1 X114.547 Y77.416
G0 X114.78 Y77.878
G0 X114.938 Y79.082
G0 X114.938 Y156.082
G0 X114.784 Y157.389
G1 X114.768 Y157.52 E17.60768
G1 X114.641 Y157.583 E17.61358
G1 X114.545 Y157.583 E17.61757
G1 X114.602 Y157.537
G1 X114.71 Y157.449 E17.61897
G1 X114.784 Y157.389 E17.61903
G0 X114.139 Y157.686
G0 X59.76 Y157.693
G0 X59.116 Y157.382
G1 X59.141 Y157.403 E17.62039
G1 X59.249 Y157.493 E17.62623
G1 X59.356 Y157.584 E17.63207
G1 X59.185 Y157.57 E17.63379
G1 X59.116 Y157.434 E17.63577
G1 X59.116 Y157.382 E17.63641
G0 X59.76 Y157.693
G0 X111.855 Y157.583
G1 X111.619 Y157.583 E17.64622
G1 X111.434 Y157.583 E17.65391
G1 X62.468 Y157.583 E19.68968
G1 X62.283 Y157.583 E19.69737
G1 X62.044 Y157.584 E19.70731
G1 X62.282 Y157.392 E19.71188
G1 X62.378 Y157.235 E19.71779
G1 X62.654 Y156.785 E19.73974
G1 X62.806 Y156.09 E19.76931
G1 X62.714 Y155.383 E19.79895
G1 X62.394 Y154.748 E19.82852
G1 X61.879 Y154.255 E19.85816
G1 X61.247 Y153.968 E19.88702
G1 X60.861 Y153.902 E19.9033
G1 X60.168 Y153.961 E19.93221
G1 X59.521 Y154.255 E19.96176
G1 X59.453 Y154.32 E19.96567
G1 X59.116 Y154.643 E19.98508
G1 X59.116 Y154.177 E19.99554
G1 X59.116 Y154.176 E19.99558
G1 X59.116 Y80.804 E23.04604
G1 X59.116 Y80.403 E23.06271
G1 X59.116 Y80.382 E23.06358
G1 X59.131 Y80.403 E23.06373
G1 X59.443 Y80.654 E23.07315
G1 X59.672 Y80.839 E23.08539
G1 X60.344 Y81.076 E23.11501
G1 X61.055 Y81.076 E23.14457
G1 X61.728 Y80.839 E23.17424
G1 X62.282 Y80.392 E23.20383
G1 X62.654 Y79.785 E23.23343
G1 X62.806 Y79.09 E23.26301
G1 X62.714 Y78.383 E23.29265
G1 X62.418 Y77.797 E23.31994
G1 X62.394 Y77.748 E23.32221
G1 X62.048 Y77.417 E23.34212
G1 X62.394 Y77.417 E23.34717
G1 X62.449 Y77.417 E23.3493
G1 X111.45 Y77.417 E25.38652
G1 X111.505 Y77.417 E25.38881
G1 X111.853 Y77.416 E25.40328
G1 X111.506 Y77.748 E25.41387
G1 X111.482 Y77.797 E25.41597
G1 X111.186 Y78.383 E25.44327
G1 X111.094 Y79.09 E25.47291
G1 X111.246 Y79.785 E25.50249
G1 X111.618 Y80.392 E25.53209
G1 X112.172 Y80.839 E25.56168
G1 X112.844 Y81.076 E25.59131
G1 X113.555 Y81.076 E25.62087
G1 X114.228 Y80.839 E25.65053
G1 X114.459 Y80.652 E25.66289
G1 X114.784 Y80.389 E25.68027
G1 X114.784 Y80.807 E25.68981
G1 X114.784 Y154.176 E28.74014
G1 X114.784 Y154.642 E28.75951
G1 X114.447 Y154.32 E28.76998
G1 X114.379 Y154.255 E28.77389
G1 X113.747 Y153.968 E28.80275
G1 X113.361 Y153.902 E28.81903
G1 X112.668 Y153.961 E28.84795
G1 X112.021 Y154.255 E28.87749
G1 X111.506 Y154.748 E28.90713
G1 X111.186 Y155.383 E28.9367
G1 X111.094 Y156.09 E28.96634
G1 X111.246 Y156.785 E28.99592
G1 X111.522 Y157.235 E29.01786
G1 X111.618 Y157.392 E29.02378
G1 X111.855 Y157.583 E29.02836
G0 X112.37 Y157.485
;TYPE:WALL-OUTER
G1 X112.657 Y157.586 E29.04101
G1 X112.912 Y157.676 E29.05225
G1 X113.487 Y157.676 E29.07615
G1 X113.743 Y157.586 E29.08744
G1 X114.03 Y157.485 E29.10008
G1 X114.477 Y157.124 E29.12397
G1 X114.778 Y156.634 E29.14788
G1 X114.786 Y156.6 E29.14933
G1 X114.899 Y156.077 E29.17158
G1 X114.887 Y155.781 E29.1839
G1 X114.787 Y155.456 E29.19803
G1 X114.718 Y155.235 E29.20766
G1 X114.568 Y154.989 E29.21964
G1 X114.152 Y154.591 E29.24357
G1 X113.629 Y154.354 E29.26744
G1 X113.344 Y154.305 E29.27947
G1 X112.771 Y154.354 E29.30338
G1 X112.248 Y154.591 E29.32725
G1 X111.832 Y154.989 E29.35119
G1 X111.574 Y155.502 E29.37506
G1 X111.5 Y156.073 E29.399
G1 X111.622 Y156.634 E29.42287
G1 X111.923 Y157.124 E29.44677
G1 X112.37 Y157.485 E29.47066
G0 X112.558 Y157.551
G0 X112.524 Y157.645
G0 X111.741 Y157.285
G0 X97.366 Y135.556
G0 X105.127 Y135.552
G0 X105.127 Y114.948
G0 X99.127 Y109.948
G0 X83.465 Y109.945
G0 X59.77 Y80.767
G0 X59.87 Y80.485
G1 X60.412 Y80.676 E29.49455
G1 X60.987 Y80.676 E29.51846
G1 X61.53 Y80.485 E29.54239
G1 X61.977 Y80.124 E29.56628
G1 X62.278 Y79.634 E29.59019
G1 X62.4 Y79.073 E29.61406
G1 X62.326 Y78.502 E29.63799
G1 X62.068 Y77.989 E29.66187
G1 X61.652 Y77.591 E29.6858
G1 X61.261 Y77.413 E29.70366
G1 X61.129 Y77.354 E29.70968
G1 X60.69 Y77.3 E29.72806
G1 X60.271 Y77.354 E29.74563
G1 X60.139 Y77.413 E29.75164
G1 X59.748 Y77.591 E29.7695
G1 X59.332 Y77.989 E29.79344
G1 X59.113 Y78.424 E29.81368
G1 X59.074 Y78.502 E29.81731
G1 X59 Y79.002 E29.83832
G1 X59.038 Y79.358 E29.85321
G1 X59.112 Y79.544 E29.86153
G1 X59.252 Y79.891 E29.87709
G1 X59.423 Y80.124 E29.8891
G1 X59.87 Y80.485 E29.91299
G0 X60.058 Y80.551
G0 X59.911 Y80.966
G0 X112.27 Y80.767
G0 X112.37 Y80.485
G1 X112.912 Y80.676 E29.93688
G1 X113.487 Y80.676 E29.96079
G1 X114.03 Y80.485 E29.98472
G1 X114.477 Y80.124 E30.00861
G1 X114.778 Y79.634 E30.03252
G1 X114.786 Y79.6 E30.03397
G1 X114.899 Y79.077 E30.05621
G1 X114.887 Y78.782 E30.06849
G1 X114.787 Y78.456 E30.08267
G1 X114.718 Y78.235 E30.09229
G1 X114.568 Y77.989 E30.10427
G1 X114.152 Y77.591 E30.12821
G1 X113.761 Y77.413 E30.14607
G1 X113.629 Y77.354 E30.15208
G1 X113.19 Y77.3 E30.17047
G1 X112.771 Y77.354 E30.18803
G1 X112.639 Y77.413 E30.19404
G1 X112.248 Y77.591 E30.2119
G1 X111.832 Y77.989 E30.23584
G1 X111.574 Y78.502 E30.25971
G1 X111.5 Y79.073 E30.28365
G1 X111.622 Y79.634 E30.30752
G1 X111.923 Y80.124 E30.33143
G1 X112.37 Y80.485 E30.35532
G0 X112.558 Y80.551
G0 X112.411 Y80.966
G0 X92.25 Y105.173
G0 X91.383 Y106.002
G0 X90.386 Y106.672
G0 X89.294 Y107.164
G0 X86.857 Y107.722
;TYPE:WALL-INNER
G1 X87.039 Y107.723 E30.36288
G1 X88.087 Y107.633 E30.40661
G1 X88.33 Y107.583 E30.41693
G1 X89.351 Y107.316 E30.4608
G1 X90.456 Y106.817 E30.51121
G1 X90.554 Y106.759 E30.51595
G1 X91.478 Y106.132 E30.56237
G1 X91.563 Y106.059 E30.56703
G1 X92.368 Y105.283 E30.61352
G1 X92.438 Y105.195 E30.61819
G1 X93.099 Y104.297 E30.66455
G1 X93.153 Y104.198 E30.66924
G1 X93.646 Y103.212 E30.71507
G1 X93.686 Y103.108 E30.7197
G1 X93.991 Y102.104 E30.76333
G1 X94.035 Y101.861 E30.77359
G1 X94.169 Y100.814 E30.81748
G1 X94.164 Y100.636 E30.82488
G1 X94.117 Y99.594 E30.86825
G1 X94.082 Y99.411 E30.87599
G1 X93.863 Y98.397 E30.91912
G1 X93.825 Y98.291 E30.9238
G1 X93.408 Y97.255 E30.97023
G1 X93.352 Y97.157 E30.97493
G1 X92.762 Y96.204 E31.02153
G1 X91.963 Y95.297 E31.07178
G1 X91.879 Y95.221 E31.07649
G1 X91.007 Y94.52 E31.12301
G1 X90.912 Y94.461 E31.12765
G1 X90.002 Y93.954 E31.17096
G1 X89.773 Y93.859 E31.18127
G1 X88.78 Y93.511 E31.22502
G1 X88.607 Y93.477 E31.23235
G1 X87.577 Y93.302 E31.27578
G1 X87.466 Y93.296 E31.2804
G1 X86.34 Y93.298 E31.32722
G1 X85.145 Y93.505 E31.37764
G1 X85.038 Y93.536 E31.38227
G1 X83.986 Y93.91 E31.42869
G1 X83.886 Y93.959 E31.43332
G1 X82.905 Y94.511 E31.48012
G1 X81.964 Y95.271 E31.53041
G1 X81.885 Y95.351 E31.53508
G1 X81.147 Y96.193 E31.58163
G1 X81.084 Y96.286 E31.5863
G1 X80.498 Y97.244 E31.63299
G1 X80.046 Y98.37 E31.68344
G1 X80.017 Y98.479 E31.68813
G1 X79.8 Y99.49 E31.73111
G1 X79.775 Y99.671 E31.73871
G1 X79.732 Y100.711 E31.78199
G1 X79.738 Y100.894 E31.7896
G1 X79.882 Y102.009 E31.83634
G1 X79.91 Y102.117 E31.84098
G1 X80.218 Y103.114 E31.88436
G1 X80.317 Y103.34 E31.89462
G1 X80.792 Y104.282 E31.93848
G1 X80.897 Y104.427 E31.94592
G1 X81.52 Y105.267 E31.9894
G1 X81.655 Y105.4 E31.99728
G1 X82.397 Y106.111 E32.04001
G1 X82.486 Y106.179 E32.04466
G1 X83.421 Y106.806 E32.09147
G1 X83.592 Y106.885 E32.0993
G1 X84.53 Y107.308 E32.14208
G1 X84.636 Y107.341 E32.1467
G1 X85.635 Y107.601 E32.18961
G1 X85.815 Y107.634 E32.19722
G1 X86.857 Y107.722 E32.2407
G0 X86.875 Y107.322
;TYPE:WALL-OUTER
G1 X87.023 Y107.323 E32.24685
G1 X88.029 Y107.236 E32.28883
G1 X88.239 Y107.193 E32.29774
G1 X89.218 Y106.937 E32.33981
G1 X89.36 Y106.874 E32.34627
G1 X90.272 Y106.461 E32.38789
G1 X90.34 Y106.421 E32.39117
G1 X91.234 Y105.814 E32.4361
G1 X91.293 Y105.763 E32.43934
G1 X92.071 Y105.014 E32.48424
G1 X92.12 Y104.952 E32.48753
G1 X92.761 Y104.081 E32.53249
G1 X92.799 Y104.012 E32.53576
G1 X93.279 Y103.051 E32.58042
G1 X93.307 Y102.978 E32.58367
G1 X93.602 Y102.01 E32.62575
G1 X93.64 Y101.8 E32.63462
G1 X93.768 Y100.794 E32.67678
G1 X93.764 Y100.65 E32.68277
G1 X93.719 Y99.641 E32.72476
G1 X93.69 Y99.491 E32.73111
G1 X93.477 Y98.506 E32.77301
G1 X93.451 Y98.432 E32.77627
G1 X93.047 Y97.43 E32.82119
G1 X93.008 Y97.362 E32.82445
G1 X92.44 Y96.443 E32.86936
G1 X91.677 Y95.578 E32.91732
G1 X91.619 Y95.525 E32.92058
G1 X90.775 Y94.847 E32.96559
G1 X90.709 Y94.806 E32.96882
G1 X89.828 Y94.315 E33.01076
G1 X89.63 Y94.233 E33.01967
G1 X88.675 Y93.898 E33.06174
G1 X88.535 Y93.871 E33.06767
G1 X87.533 Y93.7 E33.10993
G1 X87.456 Y93.696 E33.11314
G1 X86.375 Y93.698 E33.15808
G1 X85.236 Y93.895 E33.20614
G1 X85.161 Y93.917 E33.20939
G1 X84.142 Y94.279 E33.25434
G1 X84.073 Y94.313 E33.25754
G1 X83.13 Y94.843 E33.30252
G1 X82.232 Y95.569 E33.35053
G1 X82.177 Y95.624 E33.35376
G1 X81.464 Y96.438 E33.39875
G1 X81.42 Y96.503 E33.40201
G1 X80.857 Y97.424 E33.44689
G1 X80.426 Y98.496 E33.49493
G1 X80.406 Y98.572 E33.49819
G1 X80.194 Y99.559 E33.54016
G1 X80.174 Y99.706 E33.54633
G1 X80.132 Y100.713 E33.58823
G1 X80.137 Y100.862 E33.59443
G1 X80.276 Y101.934 E33.63937
G1 X80.295 Y102.009 E33.64259
G1 X80.593 Y102.974 E33.68458
G1 X80.679 Y103.169 E33.69344
G1 X81.135 Y104.073 E33.73554
G1 X81.22 Y104.19 E33.74155
G1 X81.823 Y105.004 E33.78366
G1 X81.934 Y105.113 E33.79013
G1 X82.657 Y105.806 E33.83177
G1 X82.719 Y105.853 E33.835
G1 X83.617 Y106.456 E33.87997
G1 X83.758 Y106.521 E33.88643
G1 X84.672 Y106.933 E33.92811
G1 X84.746 Y106.956 E33.93133
G1 X85.722 Y107.21 E33.97326
G1 X85.868 Y107.237 E33.97944
G1 X86.875 Y107.322 E34.02145
G0 X87.023 Y107.323
G0 X87.074 Y107.319
G0 X87.11 Y107.757
G0 X74.773 Y109.948
G0 X68.601 Y114.776
;TYPE:WALL-INNER
G1 X68.601 Y135.724 E34.89237
G1 X105.299 Y135.724 E36.41809
G1 X105.299 Y114.776 E37.28901
G1 X99.3 Y114.776 E37.53842
G1 X99.299 Y109.776 E37.74629
G1 X74.601 Y109.776 E38.77312
G1 X74.601 Y114.775 E38.98095
G1 X68.601 Y114.776 E39.2304
G0 X69.001 Y115.176
;TYPE:WALL-OUTER
G1 X69.001 Y135.324 E40.06806
G1 X104.899 Y135.324 E41.56052
G1 X104.899 Y115.176 E42.39818
G1 X98.9 Y115.176 E42.64759
G1 X98.899 Y110.176 E42.85547
G1 X75.001 Y110.176 E43.84903
G1 X75.001 Y115.175 E44.05686
G1 X69.001 Y115.176 E44.30632
G0 X69.001 Y115.376
G0 X68.561 Y115.376
G0 X59.119 Y154.882
G0 X58.961 Y156.002
G0 X59.135 Y157.181
G0 X59.76 Y157.693
G0 X59.87 Y157.485
G1 X60.157 Y157.586 E44.31896
G1 X60.412 Y157.676 E44.33021
G1 X60.987 Y157.676 E44.35411
G1 X61.243 Y157.586 E44.36539
G1 X61.53 Y157.485 E44.37804
G1 X61.977 Y157.124 E44.40193
G1 X62.278 Y156.634 E44.42584
G1 X62.4 Y156.073 E44.44971
G1 X62.326 Y155.502 E44.47365
G1 X62.068 Y154.989 E44.49752
G1 X61.652 Y154.591 E44.52146
G1 X61.129 Y154.354 E44.54533
G1 X60.844 Y154.305 E44.55735
G1 X60.271 Y154.354 E44.58126
G1 X59.748 Y154.591 E44.60513
G1 X59.332 Y154.989 E44.62907
G1 X59.113 Y155.424 E44.64932
G1 X59.074 Y155.502 E44.65294
G1 X59 Y156.002 E44.67396
G1 X59.038 Y156.358 E44.68884
G1 X59.112 Y156.544 E44.69716
G1 X59.252 Y156.891 E44.71272
G1 X59.423 Y157.124 E44.72474
G1 X59.87 Y157.485 E44.74862
G0 X60.058 Y157.551
G0 X60.142 Y157.983
G1 X59.221 Y157.984 E44.78692
G1 X58.992 Y157.941 E44.7966
G1 X58.766 Y157.721 E44.80971
