;FLAVOR:Marlin
;TIME:834
;Filament used: 2.69926m
;Layer height: 0.25
;MINX:85.183
;MINY:72.832
;MINZ:0.25
;MAXX:149.729
;MAXY:162.099
;MAXZ:2
;Generated with Cura_SteamEngine 4.10.0
M82 ;absolute extrusion mode
; Start bed heating
M140 S60.0
M104 S225.0
; Use absolute coordinates
G90
; Set and wait for nozzle to reach temperature
M109 S225.0
; Wait for bed to reach temperature
M190 S60.0
; Home
G28
G1 Z10
; Move the nozzle near the bed
G1 Z10 X75 Y225 F3000
G1 Z0.2
; Set extruder position to 0
G92 E0
G1 E10 F500
G4 P1000
; Wipe a little without extruding
G1 X85 F1600
; Set extruder position to 0
G92 E0
; Move the nozzle up to clear
G1 Z5 F3000
G92 E0
G92 E0
G1 F7200 E-3.5
;LAYER_COUNT:8
;LAYER:0
M107
G0 F6000 X86.055 Y74.616 Z0.25
;TYPE:SKIRT
G1 F7200 E0
G1 F6000 X86.557 Y74.084 E0.03041
G1 X87.109 Y73.643 E0.05978
G1 X87.363 Y73.483 E0.07227
G1 X87.915 Y73.206 E0.09794
G1 X88.202 Y73.095 E0.11074
G1 X88.766 Y72.935 E0.13511
G1 X89.235 Y72.862 E0.15484
G1 X89.739 Y72.832 E0.17583
G1 X90.05 Y72.852 E0.18879
G1 X90.812 Y72.94 E0.22068
G1 X93.553 Y73.218 E0.33522
G1 X96.301 Y73.418 E0.44977
G1 X99.015 Y73.538 E0.56272
G1 X101.987 Y73.582 E0.68629
G1 X132.946 Y73.581 E1.97342
G1 X135.743 Y73.541 E2.08972
G1 X138.46 Y73.426 E2.20278
G1 X141.178 Y73.233 E2.31606
G1 X144.831 Y72.853 E2.46876
G1 X144.932 Y72.844 E2.47297
G1 X145.637 Y72.859 E2.50229
G1 X146.186 Y72.946 E2.5254
G1 X146.4 Y72.995 E2.53453
G1 X147.086 Y73.237 E2.56477
G1 X147.852 Y73.669 E2.60133
G1 X148.381 Y74.096 E2.6296
G1 X148.553 Y74.265 E2.63962
G1 X148.884 Y74.647 E2.66064
G1 X149.324 Y75.381 E2.69622
G1 X149.535 Y75.84 E2.71722
G1 X149.671 Y76.327 E2.73824
G1 X149.729 Y76.829 E2.75925
G1 X149.71 Y77.332 E2.78018
G1 X149.451 Y79.906 E2.88773
G1 X149.254 Y82.654 E3.00227
G1 X149.134 Y85.371 E3.11534
G1 X149.091 Y88.295 E3.23692
G1 X149.091 Y146.679 E5.66425
G1 X149.131 Y149.477 E5.78059
G1 X149.246 Y152.194 E5.89365
G1 X149.439 Y154.92 E6.00726
G1 X149.677 Y157.28 E6.10588
G1 X149.715 Y157.714 E6.12399
G1 X149.719 Y158.219 E6.14499
G1 X149.643 Y158.719 E6.16601
G1 X149.49 Y159.201 E6.18704
G1 X149.271 Y159.655 E6.208
G1 X149.143 Y159.887 E6.21901
G1 X148.864 Y160.308 E6.24001
G1 X148.357 Y160.846 E6.27074
G1 X147.817 Y161.279 E6.29952
G1 X147.575 Y161.433 E6.31145
G1 X147.023 Y161.713 E6.33718
G1 X146.724 Y161.83 E6.35053
G1 X146.148 Y161.995 E6.37544
G1 X145.685 Y162.067 E6.39492
G1 X145.18 Y162.099 E6.41596
G1 X144.867 Y162.078 E6.429
G1 X144.11 Y161.991 E6.46068
G1 X141.361 Y161.712 E6.57556
G1 X138.613 Y161.512 E6.69011
G1 X135.899 Y161.392 E6.80305
G1 X132.927 Y161.348 E6.92663
G1 X101.968 Y161.349 E8.21375
G1 X99.171 Y161.389 E8.33005
G1 X96.454 Y161.504 E8.44311
G1 X93.736 Y161.697 E8.5564
G1 X90.083 Y162.077 E8.70909
G1 X89.982 Y162.086 E8.71331
G1 X89.277 Y162.071 E8.74262
G1 X88.731 Y161.985 E8.7656
G1 X88.516 Y161.936 E8.77477
G1 X87.821 Y161.69 E8.80542
G1 X87.296 Y161.415 E8.83006
G1 X86.688 Y160.971 E8.86136
G1 X86.422 Y160.724 E8.87645
G1 X86.079 Y160.352 E8.89749
G1 X85.771 Y159.885 E8.92075
G1 X85.543 Y159.459 E8.94084
G1 X85.346 Y158.993 E8.96187
G1 X85.225 Y158.502 E8.9829
G1 X85.183 Y157.999 E9.00388
G1 X85.231 Y157.308 E9.03268
G1 X85.436 Y155.323 E9.11564
G1 X85.642 Y152.606 E9.22893
G1 X85.77 Y149.861 E9.34318
G1 X85.823 Y146.633 E9.4774
G1 X85.823 Y88.251 E11.90464
G1 X85.783 Y85.454 E12.02094
G1 X85.668 Y82.737 E12.134
G1 X85.474 Y80.006 E12.24783
G1 X85.227 Y77.539 E12.35091
G1 X85.199 Y77.203 E12.36492
G1 X85.197 Y76.697 E12.38596
G1 X85.275 Y76.198 E12.40696
G1 X85.43 Y75.716 E12.42801
G1 X85.655 Y75.255 E12.44934
G1 X85.774 Y75.037 E12.45966
G1 X86.055 Y74.616 E12.48071
G1 F7200 E8.98071
;MESH:Battery Case Lid 1.4.STL(4)
G0 F6000 X88.728 Y76.569
G0 X89.467 Y77.326
G0 X89.639 Y77.445
;TYPE:WALL-INNER
G1 F7200 E12.48071
G1 F6000 X89.766 Y77.382 E12.4866
G1 X89.859 Y77.382 E12.49047
G1 X89.811 Y77.428
G1 X89.713 Y77.522 E12.49208
G1 X89.623 Y77.608 E12.49685
G1 X89.639 Y77.445 E12.49877
G0 X91.199 Y77.226
G0 X143.699 Y77.226
G0 X145.054 Y77.381
G1 X145.149 Y77.381 E12.50272
G1 X145.273 Y77.444 E12.5085
G1 X145.291 Y77.607 E12.51532
G1 X145.201 Y77.521 E12.51558
G1 X145.104 Y77.429 E12.51672
G1 X145.054 Y77.381
G0 X145.287 Y77.843
G0 X145.445 Y79.047
G0 X145.445 Y156.047
G0 X145.291 Y157.354
G1 X145.275 Y157.485 E12.5222
G1 X145.148 Y157.548 E12.5281
G1 X145.052 Y157.548 E12.53209
G1 X145.109 Y157.502
G1 X145.217 Y157.414 E12.53349
G1 X145.291 Y157.354 E12.53355
G0 X144.646 Y157.651
G0 X90.267 Y157.658
G0 X89.623 Y157.347
G1 X89.648 Y157.368 E12.53491
G1 X89.756 Y157.458 E12.54075
G1 X89.863 Y157.549 E12.54659
G1 X89.692 Y157.535 E12.54831
G1 X89.623 Y157.399 E12.55029
G1 X89.623 Y157.347 E12.55093
G0 X90.267 Y157.658
G0 X142.362 Y157.548
G1 X142.126 Y157.548 E12.56074
G1 X141.941 Y157.548 E12.56843
G1 X92.975 Y157.548 E14.6042
G1 X92.79 Y157.548 E14.6119
G1 X92.551 Y157.549 E14.62183
G1 X92.789 Y157.357 E14.6264
G1 X92.885 Y157.2 E14.63231
G1 X93.161 Y156.75 E14.65426
G1 X93.313 Y156.055 E14.68383
G1 X93.221 Y155.348 E14.71348
G1 X92.901 Y154.713 E14.74304
G1 X92.386 Y154.22 E14.77268
G1 X91.754 Y153.933 E14.80154
G1 X91.368 Y153.867 E14.81782
G1 X90.675 Y153.926 E14.84673
G1 X90.028 Y154.22 E14.87628
G1 X89.96 Y154.285 E14.88019
G1 X89.623 Y154.608 E14.8996
G1 X89.623 Y154.142 E14.91006
G1 X89.623 Y154.141 E14.91011
G1 X89.623 Y80.768 E17.9606
G1 X89.623 Y80.368 E17.97723
G1 X89.623 Y80.347 E17.9781
G1 X89.638 Y80.368 E17.97825
G1 X89.949 Y80.618 E17.98764
G1 X90.179 Y80.803 E17.99991
G1 X90.85 Y81.041 E18.02951
G1 X91.563 Y81.041 E18.05915
G1 X92.235 Y80.803 E18.08879
G1 X92.789 Y80.357 E18.11836
G1 X93.161 Y79.75 E18.14796
G1 X93.313 Y79.055 E18.17754
G1 X93.221 Y78.348 E18.20718
G1 X92.925 Y77.762 E18.23447
G1 X92.901 Y77.713 E18.23674
G1 X92.555 Y77.382 E18.25665
G1 X92.901 Y77.382 E18.2617
G1 X92.956 Y77.382 E18.26383
G1 X141.957 Y77.382 E20.30105
G1 X142.012 Y77.382 E20.30334
G1 X142.36 Y77.381 E20.31781
G1 X142.013 Y77.713 E20.3284
G1 X141.989 Y77.762 E20.3305
G1 X141.693 Y78.348 E20.3578
G1 X141.601 Y79.055 E20.38744
G1 X141.753 Y79.75 E20.41702
G1 X142.125 Y80.357 E20.44662
G1 X142.679 Y80.803 E20.47618
G1 X143.35 Y81.041 E20.50578
G1 X144.063 Y81.041 E20.53543
G1 X144.735 Y80.803 E20.56507
G1 X144.967 Y80.616 E20.57746
G1 X145.291 Y80.354 E20.59478
G1 X145.291 Y80.77 E20.60427
G1 X145.291 Y80.771 E20.60431
G1 X145.291 Y154.141 E23.65468
G1 X145.291 Y154.607 E23.67405
G1 X144.954 Y154.285 E23.68452
G1 X144.886 Y154.22 E23.68843
G1 X144.254 Y153.933 E23.71729
G1 X143.868 Y153.867 E23.73357
G1 X143.175 Y153.926 E23.76249
G1 X142.528 Y154.22 E23.79203
G1 X142.013 Y154.713 E23.82167
G1 X141.693 Y155.348 E23.85124
G1 X141.601 Y156.055 E23.88088
G1 X141.753 Y156.75 E23.91046
G1 X142.029 Y157.2 E23.9324
G1 X142.125 Y157.357 E23.93832
G1 X142.362 Y157.548 E23.9429
G0 X142.877 Y157.45
;TYPE:WALL-OUTER
G1 X143.164 Y157.551 E23.95555
G1 X143.419 Y157.641 E23.96679
G1 X143.994 Y157.641 E23.99069
G1 X144.25 Y157.551 E24.00198
G1 X144.537 Y157.45 E24.01463
G1 X144.984 Y157.089 E24.03851
G1 X145.285 Y156.599 E24.06242
G1 X145.293 Y156.565 E24.06387
G1 X145.406 Y156.042 E24.08612
G1 X145.394 Y155.746 E24.09844
G1 X145.294 Y155.421 E24.11257
G1 X145.225 Y155.2 E24.1222
G1 X145.075 Y154.954 E24.13418
G1 X144.659 Y154.556 E24.15811
G1 X144.136 Y154.319 E24.18198
G1 X143.851 Y154.27 E24.19401
G1 X143.278 Y154.319 E24.21792
G1 X142.755 Y154.556 E24.24179
G1 X142.339 Y154.954 E24.26573
G1 X142.081 Y155.467 E24.2896
G1 X142.007 Y156.038 E24.31354
G1 X142.129 Y156.599 E24.33741
G1 X142.43 Y157.089 E24.36131
G1 X142.877 Y157.45 E24.3852
G0 X143.065 Y157.516
G0 X143.031 Y157.61
G0 X142.248 Y157.25
G0 X127.858 Y135.521
G0 X135.634 Y135.517
G0 X135.634 Y114.913
G0 X129.634 Y109.913
G0 X113.945 Y109.91
G0 X90.19 Y80.682
G0 X90.377 Y80.449
G1 X90.919 Y80.641 E24.40911
G1 X91.494 Y80.641 E24.43301
G1 X92.037 Y80.449 E24.45696
G1 X92.484 Y80.089 E24.48082
G1 X92.785 Y79.599 E24.50473
G1 X92.907 Y79.038 E24.5286
G1 X92.833 Y78.467 E24.55254
G1 X92.575 Y77.954 E24.57641
G1 X92.159 Y77.556 E24.60034
G1 X91.768 Y77.378 E24.61821
G1 X91.636 Y77.319 E24.62422
G1 X91.197 Y77.265 E24.64261
G1 X90.778 Y77.319 E24.66017
G1 X90.646 Y77.378 E24.66618
G1 X90.255 Y77.556 E24.68404
G1 X89.839 Y77.954 E24.70798
G1 X89.62 Y78.389 E24.72823
G1 X89.581 Y78.467 E24.73185
G1 X89.507 Y78.967 E24.75287
G1 X89.545 Y79.323 E24.76775
G1 X89.619 Y79.509 E24.77607
G1 X89.759 Y79.856 E24.79163
G1 X89.93 Y80.089 E24.80365
G1 X90.377 Y80.449 E24.82751
G0 X90.565 Y80.515
G0 X90.418 Y80.929
G0 X142.69 Y80.681
G0 X142.877 Y80.449
G1 X143.419 Y80.641 E24.85141
G1 X143.994 Y80.641 E24.87532
G1 X144.537 Y80.449 E24.89926
G1 X144.984 Y80.089 E24.92313
G1 X145.285 Y79.599 E24.94703
G1 X145.293 Y79.565 E24.94849
G1 X145.406 Y79.042 E24.97073
G1 X145.394 Y78.747 E24.98301
G1 X145.294 Y78.421 E24.99718
G1 X145.225 Y78.2 E25.00681
G1 X145.075 Y77.954 E25.01879
G1 X144.659 Y77.556 E25.04272
G1 X144.268 Y77.378 E25.06058
G1 X144.136 Y77.319 E25.0666
G1 X143.697 Y77.265 E25.08498
G1 X143.278 Y77.319 E25.10255
G1 X143.146 Y77.378 E25.10856
G1 X142.755 Y77.556 E25.12642
G1 X142.339 Y77.954 E25.15036
G1 X142.081 Y78.467 E25.17423
G1 X142.007 Y79.038 E25.19817
G1 X142.129 Y79.599 E25.22204
G1 X142.43 Y80.089 E25.24595
G1 X142.877 Y80.449 E25.26981
G0 X143.065 Y80.515
G0 X142.918 Y80.929
G0 X122.757 Y105.138
G0 X121.89 Y105.967
G0 X120.893 Y106.637
G0 X119.801 Y107.129
G0 X117.364 Y107.687
;TYPE:WALL-INNER
G1 X117.546 Y107.688 E25.27737
G1 X118.594 Y107.598 E25.32111
G1 X118.837 Y107.548 E25.33142
G1 X119.858 Y107.281 E25.3753
G1 X120.963 Y106.782 E25.4257
G1 X121.061 Y106.724 E25.43044
G1 X121.985 Y106.097 E25.47686
G1 X122.07 Y106.024 E25.48152
G1 X122.875 Y105.248 E25.52801
G1 X122.945 Y105.16 E25.53268
G1 X123.606 Y104.262 E25.57904
G1 X123.66 Y104.163 E25.58373
G1 X124.153 Y103.177 E25.62956
G1 X124.193 Y103.073 E25.63419
G1 X124.498 Y102.069 E25.67782
G1 X124.542 Y101.826 E25.68809
G1 X124.676 Y100.779 E25.73197
G1 X124.671 Y100.601 E25.73937
G1 X124.624 Y99.559 E25.78274
G1 X124.589 Y99.376 E25.79048
G1 X124.37 Y98.362 E25.83361
G1 X124.332 Y98.256 E25.83829
G1 X123.915 Y97.22 E25.88473
G1 X123.859 Y97.122 E25.88942
G1 X123.269 Y96.169 E25.93602
G1 X122.47 Y95.262 E25.98627
G1 X122.386 Y95.186 E25.99098
G1 X121.514 Y94.485 E26.0375
G1 X121.419 Y94.426 E26.04215
G1 X120.509 Y93.919 E26.08545
G1 X120.28 Y93.824 E26.09576
G1 X119.287 Y93.476 E26.13951
G1 X119.114 Y93.442 E26.14684
G1 X118.084 Y93.267 E26.19027
G1 X117.973 Y93.261 E26.1949
G1 X116.847 Y93.263 E26.24171
G1 X115.652 Y93.47 E26.29213
G1 X115.545 Y93.501 E26.29676
G1 X114.493 Y93.875 E26.34318
G1 X114.393 Y93.924 E26.34781
G1 X113.412 Y94.476 E26.39461
G1 X112.471 Y95.236 E26.4449
G1 X112.392 Y95.316 E26.44957
G1 X111.654 Y96.158 E26.49612
G1 X111.591 Y96.251 E26.50079
G1 X111.005 Y97.209 E26.54748
G1 X110.553 Y98.335 E26.59793
G1 X110.524 Y98.444 E26.60262
G1 X110.307 Y99.455 E26.64561
G1 X110.282 Y99.636 E26.6532
G1 X110.239 Y100.676 E26.69648
G1 X110.245 Y100.859 E26.70409
G1 X110.389 Y101.974 E26.75083
G1 X110.417 Y102.082 E26.75547
G1 X110.725 Y103.079 E26.79885
G1 X110.824 Y103.305 E26.80911
G1 X111.299 Y104.247 E26.85297
G1 X111.404 Y104.392 E26.86042
G1 X112.027 Y105.232 E26.9039
G1 X112.155 Y105.359 E26.91139
G1 X112.905 Y106.076 E26.95453
G1 X112.994 Y106.144 E26.95919
G1 X113.927 Y106.771 E27.00592
G1 X115.037 Y107.273 E27.05657
G1 X115.143 Y107.306 E27.06119
G1 X116.142 Y107.566 E27.1041
G1 X116.322 Y107.599 E27.11171
G1 X117.364 Y107.687 E27.15519
G0 X117.382 Y107.287
;TYPE:WALL-OUTER
G1 X117.53 Y107.288 E27.16134
G1 X118.536 Y107.201 E27.20332
G1 X118.746 Y107.158 E27.21223
G1 X119.725 Y106.902 E27.2543
G1 X119.867 Y106.839 E27.26076
G1 X120.779 Y106.426 E27.30238
G1 X120.847 Y106.386 E27.30566
G1 X121.741 Y105.779 E27.35059
G1 X121.8 Y105.728 E27.35383
G1 X122.578 Y104.979 E27.39873
G1 X122.627 Y104.917 E27.40202
G1 X123.268 Y104.046 E27.44698
G1 X123.306 Y103.977 E27.45025
G1 X123.786 Y103.016 E27.49491
G1 X123.814 Y102.943 E27.49816
G1 X124.109 Y101.975 E27.54024
G1 X124.147 Y101.765 E27.54911
G1 X124.275 Y100.759 E27.59127
G1 X124.271 Y100.615 E27.59726
G1 X124.226 Y99.606 E27.63925
G1 X124.197 Y99.456 E27.6456
G1 X123.984 Y98.471 E27.6875
G1 X123.958 Y98.397 E27.69076
G1 X123.554 Y97.395 E27.73568
G1 X123.515 Y97.327 E27.73894
G1 X122.947 Y96.408 E27.78385
G1 X122.184 Y95.543 E27.83181
G1 X122.126 Y95.49 E27.83507
G1 X121.282 Y94.812 E27.88008
G1 X121.216 Y94.771 E27.88331
G1 X120.335 Y94.28 E27.92525
G1 X120.137 Y94.198 E27.93416
G1 X119.182 Y93.863 E27.97623
G1 X119.042 Y93.836 E27.98216
G1 X118.04 Y93.665 E28.02442
G1 X117.963 Y93.661 E28.02763
G1 X116.882 Y93.663 E28.07257
G1 X115.743 Y93.86 E28.12063
G1 X115.668 Y93.882 E28.12388
G1 X114.649 Y94.244 E28.16883
G1 X114.58 Y94.278 E28.17203
G1 X113.637 Y94.808 E28.21701
G1 X112.739 Y95.534 E28.26502
G1 X112.684 Y95.589 E28.26825
G1 X111.971 Y96.403 E28.31324
G1 X111.927 Y96.468 E28.3165
G1 X111.364 Y97.389 E28.36138
G1 X110.933 Y98.461 E28.40942
G1 X110.913 Y98.537 E28.41268
G1 X110.701 Y99.524 E28.45465
G1 X110.681 Y99.671 E28.46082
G1 X110.639 Y100.678 E28.50272
G1 X110.644 Y100.827 E28.50892
G1 X110.783 Y101.899 E28.55386
G1 X110.802 Y101.974 E28.55708
G1 X111.1 Y102.939 E28.59907
G1 X111.186 Y103.134 E28.60793
G1 X111.642 Y104.038 E28.65003
G1 X111.727 Y104.155 E28.65604
G1 X112.33 Y104.969 E28.69815
G1 X112.434 Y105.072 E28.70424
G1 X113.165 Y105.771 E28.74629
G1 X113.227 Y105.818 E28.74952
G1 X114.124 Y106.421 E28.79446
G1 X114.265 Y106.486 E28.80092
G1 X115.179 Y106.898 E28.8426
G1 X115.253 Y106.921 E28.84582
G1 X116.229 Y107.175 E28.88775
G1 X116.375 Y107.202 E28.89392
G1 X117.382 Y107.287 E28.93594
G0 X117.53 Y107.288
G0 X117.581 Y107.284
G0 X117.617 Y107.722
G0 X105.28 Y109.913
G0 X99.108 Y114.741
;TYPE:WALL-INNER
G1 X99.108 Y135.689 E29.80685
G1 X135.806 Y135.689 E31.33258
G1 X135.806 Y114.741 E32.20349
G1 X129.807 Y114.741 E32.4529
G1 X129.806 Y109.741 E32.66078
G1 X105.108 Y109.741 E33.6876
G1 X105.108 Y114.74 E33.89544
G1 X99.108 Y114.741 E34.14489
G0 X99.508 Y115.141
;TYPE:WALL-OUTER
G1 X99.508 Y135.289 E34.98255
G1 X135.406 Y135.289 E36.47501
G1 X135.406 Y115.141 E37.31267
G1 X129.407 Y115.141 E37.56208
G1 X129.406 Y110.141 E37.76995
G1 X105.508 Y110.141 E38.76352
G1 X105.508 Y115.14 E38.97135
G1 X99.508 Y115.141 E39.2208
G0 X99.508 Y115.341
G0 X99.068 Y115.341
G0 X89.626 Y154.847
G0 X89.468 Y155.967
G0 X89.642 Y157.146
G0 X90.267 Y157.658
G0 X90.377 Y157.45
G1 X90.664 Y157.551 E39.23345
G1 X90.919 Y157.641 E39.24469
G1 X91.494 Y157.641 E39.2686
G1 X91.75 Y157.551 E39.27988
G1 X92.037 Y157.45 E39.29253
G1 X92.484 Y157.089 E39.31642
G1 X92.785 Y156.599 E39.34033
G1 X92.907 Y156.038 E39.3642
G1 X92.833 Y155.467 E39.38813
G1 X92.575 Y154.954 E39.41201
G1 X92.159 Y154.556 E39.43594
G1 X91.636 Y154.319 E39.45981
G1 X91.351 Y154.27 E39.47184
G1 X90.778 Y154.319 E39.49575
G1 X90.255 Y154.556 E39.51962
G1 X89.839 Y154.954 E39.54356
G1 X89.62 Y155.389 E39.5638
G1 X89.581 Y155.467 E39.56743
G1 X89.507 Y155.967 E39.58844
G1 X89.545 Y156.323 E39.60333
G1 X89.619 Y156.509 E39.61165
G1 X89.759 Y156.856 E39.62721
G1 X89.93 Y157.089 E39.63922
G1 X90.377 Y157.45 E39.66311
G0 X90.565 Y157.516
G0 X90.649 Y157.948
G1 X89.728 Y157.949 E39.7014
G1 X89.499 Y157.906 E39.71109
G1 X89.273 Y157.686 E39.7242
G1 X89.223 Y157.443 E39.73452
G1 X89.223 Y156.524 E39.77272
G1 X89.223 Y156.323 E39.78028
G1 X89.223 Y155.967 E39.79149
G1 X89.223 Y155.467 E39.80816
G1 X89.223 Y155.379 E39.81163
G1 X89.223 Y79.524 E42.96532
G1 X89.223 Y79.323 E42.97288
G1 X89.223 Y78.967 E42.98408
G1 X89.223 Y78.467 E43.00076
G1 X89.223 Y78.379 E43.00423
G1 X89.223 Y77.485 E43.0414
G1 X89.272 Y77.244 E43.05162
G1 X89.496 Y77.026 E43.06462
G1 X89.728 Y76.982 E43.07444
G1 X90.633 Y76.982 E43.11206
G1 X90.778 Y76.982 E43.11763
G1 X91.197 Y76.982 E43.13112
G1 X91.636 Y76.982 E43.14526
G1 X91.781 Y76.982 E43.15083
G1 X143.132 Y76.982 E45.28575
G1 X143.277 Y76.982 E45.29132
G1 X143.697 Y76.982 E45.30485
G1 X144.135 Y76.982 E45.31914
G1 X144.28 Y76.982 E45.32471
