;FLAVOR:Marlin
;TIME:2494
;Filament used: 7.92044m
;Layer height: 0.25
;MINX:65.174
;MINY:44.424
;MINZ:0.25
;MAXX:169.826
;MAXY:190.576
;MAXZ:2
;Generated with Cura_SteamEngine 4.10.0
M82 ;absolute extrusion mode
; Start bed heating
M140 S60.0
M104 S225.0
; Use absolute coordinates
G90
; Set and wait for nozzle to reach temperature
M109 S225.0
; Wait for bed to reach temperature
M190 S60.0
; Home
G28
G1 Z10
; Move the nozzle near the bed
G1 Z10 X75 Y225 F3000
G1 Z0.2
; Set extruder position to 0
G92 E0
G1 E10 F500
G4 P1000
; Wipe a little without extruding
G1 X85 F1600
; Set extruder position to 0
G92 E0
; Move the nozzle up to clear
G1 Z5 F3000
G92 E0
G92 E0
G1 F7200 E-3.5
;LAYER_COUNT:8
;LAYER:0
M107
G0 F6000 X65.952 Y45.682 Z0.25
;TYPE:SKIRT
G1 F7200 E0
G1 F6000 X66.292 Y45.308 E0.02101
G1 X66.686 Y44.991 E0.04204
G1 X67.125 Y44.741 E0.06304
G1 X67.599 Y44.563 E0.08409
G1 X67.946 Y44.484 E0.09889
G1 X68.834 Y44.426 E0.13589
G1 X165.838 Y44.424 E4.16884
G1 X166.472 Y44.433 E4.1952
G1 X166.976 Y44.48 E4.21625
G1 X167.465 Y44.606 E4.23724
G1 X168 Y44.846 E4.26162
G1 X168.186 Y44.951 E4.2705
G1 X168.605 Y45.234 E4.29152
G1 X168.975 Y45.579 E4.31256
G1 X169.285 Y45.978 E4.33356
G1 X169.529 Y46.421 E4.35459
G1 X169.7 Y46.896 E4.37558
G1 X169.814 Y47.661 E4.40773
G1 X169.825 Y48.112 E4.42649
G1 X169.826 Y115.098 E7.21144
G1 X169.813 Y116.022 E7.24986
G1 X169.813 Y118.805 E7.36557
G1 X169.825 Y119.635 E7.40008
G1 X169.826 Y186.566 E10.18275
G1 X169.817 Y187.22 E10.20994
G1 X169.77 Y187.723 E10.23094
G1 X169.644 Y188.213 E10.25198
G1 X169.414 Y188.731 E10.27554
G1 X169.31 Y188.918 E10.28444
G1 X169.03 Y189.339 E10.30546
G1 X168.687 Y189.711 E10.32649
G1 X168.29 Y190.024 E10.34751
G1 X167.849 Y190.271 E10.36853
G1 X167.374 Y190.445 E10.38956
G1 X166.575 Y190.564 E10.42314
G1 X166.088 Y190.575 E10.4434
G1 X69.162 Y190.576 E14.47311
G1 X68.529 Y190.567 E14.49943
G1 X68.025 Y190.52 E14.52047
G1 X67.535 Y190.394 E14.54151
G1 X67.007 Y190.157 E14.56557
G1 X66.82 Y190.052 E14.57449
G1 X66.4 Y189.771 E14.5955
G1 X66.03 Y189.426 E14.61653
G1 X65.719 Y189.028 E14.63753
G1 X65.474 Y188.586 E14.65854
G1 X65.302 Y188.111 E14.67954
G1 X65.207 Y187.619 E14.70037
G1 X65.177 Y187.016 E14.72548
G1 X65.174 Y119.902 E17.51575
G1 X65.187 Y118.979 E17.55413
G1 X65.187 Y116.196 E17.66983
G1 X65.175 Y115.365 E17.70439
G1 X65.174 Y48.411 E20.48801
G1 X65.183 Y47.779 E20.51429
G1 X65.23 Y47.276 E20.53529
G1 X65.356 Y46.786 E20.55633
G1 X65.574 Y46.293 E20.57874
G1 X65.676 Y46.106 E20.58759
G1 X65.952 Y45.682 E20.60863
G1 F7200 E17.10863
;MESH:Switch Board Panel 5 Switch.STL(1)
G0 F6000 X67.71 Y48.24
G0 X68.988 Y48.239
G0 X73.295 Y107.47
G0 X73.479 Y108.171
G0 X73.834 Y108.919
G0 X74.252 Y109.508
G0 X74.764 Y110.015
G0 X75.265 Y110.383
G0 X76.591 Y110.978
G0 X76.611 Y110.881
;TYPE:WALL-INNER
G1 F7200 E20.60863
G1 F6000 X77.313 Y110.971 E20.63805
G1 X77.422 Y110.97 E20.64258
G1 X78.036 Y110.942 E20.66814
G1 X78.738 Y110.792 E20.69798
G1 X79.402 Y110.523 E20.72777
G1 X80.012 Y110.148 E20.75754
G1 X80.551 Y109.675 E20.78735
G1 X81.002 Y109.116 E20.81721
G1 X81.345 Y108.5 E20.84652
G1 X81.386 Y108.398 E20.85109
G1 X81.59 Y107.813 E20.87685
G1 X81.71 Y107.112 E20.90642
G1 X81.71 Y106.388 E20.93652
G1 X81.59 Y105.685 E20.96617
G1 X81.354 Y105.017 E20.99563
G1 X81.303 Y104.919 E21.00022
G1 X81.005 Y104.391 E21.02543
G1 X80.939 Y104.303 E21.03
G1 X80.55 Y103.825 E21.05562
G1 X80.012 Y103.352 E21.0854
G1 X79.402 Y102.977 E21.11517
G1 X78.738 Y102.708 E21.14496
G1 X78.043 Y102.559 E21.17451
G1 X77.934 Y102.552 E21.17905
G1 X77.32 Y102.527 E21.2046
G1 X76.61 Y102.619 E21.23436
G1 X75.924 Y102.828 E21.26418
G1 X75.285 Y103.151 E21.29395
G1 X74.707 Y103.578 E21.32382
G1 X74.211 Y104.095 E21.35361
G1 X73.81 Y104.689 E21.38341
G1 X73.516 Y105.342 E21.41318
G1 X73.334 Y106.036 E21.44301
G1 X73.274 Y106.75 E21.4728
G1 X73.334 Y107.464 E21.50259
G1 X73.516 Y108.158 E21.53242
G1 X73.807 Y108.804 E21.56187
G1 X73.867 Y108.897 E21.56647
G1 X74.207 Y109.399 E21.59168
G1 X74.281 Y109.481 E21.59627
G1 X74.703 Y109.917 E21.6215
G1 X74.788 Y109.984 E21.626
G1 X75.285 Y110.349 E21.65164
G1 X75.924 Y110.672 E21.6814
G1 X76.611 Y110.881 E21.71126
G0 X76.695 Y110.489
;TYPE:WALL-OUTER
G1 X77.336 Y110.571 E21.73813
G1 X77.41 Y110.57 E21.7412
G1 X77.985 Y110.544 E21.76513
G1 X78.62 Y110.408 E21.79213
G1 X79.221 Y110.165 E21.81908
G1 X79.774 Y109.825 E21.84607
G1 X80.261 Y109.397 E21.87303
G1 X80.669 Y108.891 E21.90005
G1 X80.983 Y108.328 E21.92685
G1 X81.011 Y108.258 E21.92999
G1 X81.201 Y107.713 E21.95398
G1 X81.31 Y107.078 E21.98077
G1 X81.31 Y106.422 E22.00804
G1 X81.201 Y105.786 E22.03487
G1 X80.986 Y105.177 E22.06172
G1 X80.951 Y105.11 E22.06486
G1 X80.67 Y104.611 E22.08867
G1 X80.624 Y104.55 E22.09185
G1 X80.261 Y104.103 E22.11579
G1 X79.774 Y103.675 E22.14274
G1 X79.221 Y103.335 E22.16973
G1 X78.62 Y103.092 E22.19668
G1 X77.987 Y102.956 E22.2236
G1 X77.913 Y102.951 E22.22669
G1 X77.338 Y102.928 E22.25061
G1 X76.695 Y103.011 E22.27757
G1 X76.074 Y103.201 E22.30457
G1 X75.495 Y103.493 E22.33153
G1 X74.972 Y103.879 E22.35855
G1 X74.524 Y104.347 E22.38548
G1 X74.161 Y104.885 E22.41247
G1 X73.894 Y105.476 E22.43943
G1 X73.73 Y106.104 E22.46641
G1 X73.675 Y106.75 E22.49337
G1 X73.73 Y107.396 E22.52032
G1 X73.894 Y108.024 E22.54731
G1 X74.16 Y108.613 E22.57418
G1 X74.201 Y108.677 E22.57734
G1 X74.522 Y109.151 E22.60114
G1 X74.573 Y109.207 E22.60429
G1 X74.971 Y109.619 E22.6281
G1 X75.03 Y109.665 E22.63121
G1 X75.495 Y110.007 E22.65521
G1 X76.074 Y110.299 E22.68217
G1 X76.695 Y110.489 E22.70917
G0 X76.893 Y110.514
G0 X76.837 Y110.95
G0 X76.83 Y111.009
G0 X75.91 Y110.709
G0 X75.265 Y110.383
G0 X74.677 Y109.946
G0 X74.176 Y109.423
G0 X73.772 Y108.823
G0 X73.479 Y108.171
G0 X73.295 Y107.47
G0 X73.247 Y106.887
G0 X76.591 Y60.978
G0 X76.611 Y60.881
;TYPE:WALL-INNER
G1 X77.313 Y60.971 E22.7386
G1 X77.422 Y60.97 E22.74313
G1 X78.036 Y60.942 E22.76868
G1 X78.738 Y60.792 E22.79853
G1 X79.402 Y60.523 E22.82831
G1 X80.012 Y60.148 E22.85808
G1 X80.551 Y59.675 E22.8879
G1 X81.002 Y59.116 E22.91776
G1 X81.345 Y58.5 E22.94707
G1 X81.386 Y58.398 E22.95164
G1 X81.59 Y57.813 E22.9774
G1 X81.71 Y57.112 E23.00697
G1 X81.71 Y56.388 E23.03707
G1 X81.59 Y55.685 E23.06672
G1 X81.354 Y55.017 E23.09617
G1 X81.303 Y54.919 E23.10076
G1 X81.005 Y54.391 E23.12597
G1 X80.939 Y54.303 E23.13054
G1 X80.55 Y53.825 E23.15617
G1 X80.012 Y53.352 E23.18595
G1 X79.402 Y52.977 E23.21572
G1 X78.738 Y52.708 E23.2455
G1 X78.043 Y52.559 E23.27506
G1 X77.934 Y52.552 E23.2796
G1 X77.32 Y52.527 E23.30514
G1 X76.61 Y52.619 E23.33491
G1 X75.924 Y52.828 E23.36472
G1 X75.285 Y53.151 E23.39449
G1 X74.707 Y53.578 E23.42437
G1 X74.211 Y54.095 E23.45416
G1 X73.81 Y54.689 E23.48395
G1 X73.516 Y55.342 E23.51373
G1 X73.334 Y56.036 E23.54355
G1 X73.274 Y56.75 E23.57334
G1 X73.334 Y57.464 E23.60313
G1 X73.516 Y58.158 E23.63296
G1 X73.807 Y58.804 E23.66242
G1 X73.867 Y58.897 E23.66702
G1 X74.207 Y59.399 E23.69223
G1 X74.281 Y59.481 E23.69682
G1 X74.703 Y59.917 E23.72205
G1 X74.788 Y59.984 E23.72655
G1 X75.285 Y60.349 E23.75218
G1 X75.924 Y60.672 E23.78195
G1 X76.611 Y60.881 E23.8118
G0 X76.695 Y60.489
;TYPE:WALL-OUTER
G1 X77.336 Y60.571 E23.83867
G1 X77.41 Y60.57 E23.84175
G1 X77.985 Y60.544 E23.86568
G1 X78.62 Y60.408 E23.89268
G1 X79.221 Y60.165 E23.91963
G1 X79.774 Y59.825 E23.94662
G1 X80.261 Y59.397 E23.97357
G1 X80.669 Y58.891 E24.0006
G1 X80.983 Y58.328 E24.0274
G1 X81.011 Y58.258 E24.03053
G1 X81.201 Y57.713 E24.05453
G1 X81.31 Y57.078 E24.08131
G1 X81.31 Y56.422 E24.10859
G1 X81.201 Y55.786 E24.13542
G1 X80.986 Y55.177 E24.16227
G1 X80.951 Y55.11 E24.16541
G1 X80.67 Y54.611 E24.18922
G1 X80.624 Y54.55 E24.19239
G1 X80.261 Y54.103 E24.21633
G1 X79.774 Y53.675 E24.24329
G1 X79.221 Y53.335 E24.27028
G1 X78.62 Y53.092 E24.29723
G1 X77.987 Y52.956 E24.32415
G1 X77.913 Y52.951 E24.32723
G1 X77.338 Y52.928 E24.35116
G1 X76.695 Y53.011 E24.37811
G1 X76.074 Y53.201 E24.40511
G1 X75.495 Y53.493 E24.43207
G1 X74.972 Y53.879 E24.4591
G1 X74.524 Y54.347 E24.48603
G1 X74.161 Y54.885 E24.51301
G1 X73.894 Y55.476 E24.53998
G1 X73.73 Y56.104 E24.56696
G1 X73.675 Y56.75 E24.59391
G1 X73.73 Y57.396 E24.62087
G1 X73.894 Y58.024 E24.64785
G1 X74.16 Y58.613 E24.67472
G1 X74.201 Y58.677 E24.67788
G1 X74.522 Y59.151 E24.70168
G1 X74.573 Y59.207 E24.70483
G1 X74.971 Y59.619 E24.72865
G1 X75.03 Y59.665 E24.73176
G1 X75.495 Y60.007 E24.75576
G1 X76.074 Y60.299 E24.78272
G1 X76.695 Y60.489 E24.80972
G0 X76.893 Y60.514
G0 X76.837 Y60.95
G0 X76.83 Y61.009
G0 X117.399 Y62.256
G0 X156.591 Y60.978
G0 X156.611 Y60.881
;TYPE:WALL-INNER
G1 X157.313 Y60.971 E24.83914
G1 X157.422 Y60.97 E24.84367
G1 X158.036 Y60.942 E24.86923
G1 X158.738 Y60.792 E24.89907
G1 X159.402 Y60.523 E24.92886
G1 X160.012 Y60.148 E24.95863
G1 X160.551 Y59.675 E24.98844
G1 X161.002 Y59.116 E25.0183
G1 X161.345 Y58.5 E25.04762
G1 X161.386 Y58.398 E25.05219
G1 X161.59 Y57.813 E25.07794
G1 X161.71 Y57.112 E25.10751
G1 X161.71 Y56.388 E25.13761
G1 X161.59 Y55.685 E25.16726
G1 X161.354 Y55.017 E25.19672
G1 X161.303 Y54.919 E25.20131
G1 X161.005 Y54.391 E25.22652
G1 X160.939 Y54.303 E25.23109
G1 X160.55 Y53.825 E25.25671
G1 X160.012 Y53.352 E25.28649
G1 X159.402 Y52.977 E25.31626
G1 X158.738 Y52.708 E25.34605
G1 X158.043 Y52.559 E25.3756
G1 X157.934 Y52.552 E25.38014
G1 X157.32 Y52.527 E25.40569
G1 X156.61 Y52.619 E25.43546
G1 X155.924 Y52.828 E25.46527
G1 X155.285 Y53.151 E25.49504
G1 X154.707 Y53.578 E25.52491
G1 X154.211 Y54.095 E25.5547
G1 X153.81 Y54.689 E25.5845
G1 X153.516 Y55.342 E25.61427
G1 X153.334 Y56.036 E25.6441
G1 X153.274 Y56.75 E25.67389
G1 X153.334 Y57.464 E25.70368
G1 X153.516 Y58.158 E25.73351
G1 X153.807 Y58.804 E25.76296
G1 X153.867 Y58.897 E25.76757
G1 X154.207 Y59.399 E25.79277
G1 X154.281 Y59.481 E25.79736
G1 X154.703 Y59.917 E25.82259
G1 X154.788 Y59.984 E25.82709
G1 X155.285 Y60.349 E25.85273
G1 X155.924 Y60.672 E25.8825
G1 X156.611 Y60.881 E25.91235
G0 X156.695 Y60.489
;TYPE:WALL-OUTER
G1 X157.336 Y60.571 E25.93922
G1 X157.41 Y60.57 E25.94229
G1 X157.985 Y60.544 E25.96622
G1 X158.62 Y60.408 E25.99322
G1 X159.221 Y60.165 E26.02017
G1 X159.774 Y59.825 E26.04716
G1 X160.261 Y59.397 E26.07412
G1 X160.669 Y58.891 E26.10114
G1 X160.983 Y58.328 E26.12794
G1 X161.011 Y58.258 E26.13108
G1 X161.201 Y57.713 E26.15507
G1 X161.31 Y57.078 E26.18186
G1 X161.31 Y56.422 E26.20913
G1 X161.201 Y55.786 E26.23596
G1 X160.986 Y55.177 E26.26281
G1 X160.951 Y55.11 E26.26595
G1 X160.67 Y54.611 E26.28976
G1 X160.624 Y54.55 E26.29294
G1 X160.261 Y54.103 E26.31688
G1 X159.774 Y53.675 E26.34384
G1 X159.221 Y53.335 E26.37082
G1 X158.62 Y53.092 E26.39778
G1 X157.987 Y52.956 E26.42469
G1 X157.913 Y52.951 E26.42778
G1 X157.338 Y52.928 E26.4517
G1 X156.695 Y53.011 E26.47866
G1 X156.074 Y53.201 E26.50566
G1 X155.495 Y53.493 E26.53262
G1 X154.972 Y53.879 E26.55964
G1 X154.524 Y54.347 E26.58658
G1 X154.161 Y54.885 E26.61356
G1 X153.894 Y55.476 E26.64052
G1 X153.73 Y56.104 E26.66751
G1 X153.675 Y56.75 E26.69446
G1 X153.73 Y57.396 E26.72141
G1 X153.894 Y58.024 E26.7484
G1 X154.16 Y58.613 E26.77527
G1 X154.201 Y58.677 E26.77843
G1 X154.522 Y59.151 E26.80223
G1 X154.573 Y59.207 E26.80538
G1 X154.971 Y59.619 E26.82919
G1 X155.03 Y59.665 E26.8323
G1 X155.495 Y60.007 E26.8563
G1 X156.074 Y60.299 E26.88326
G1 X156.695 Y60.489 E26.91026
G0 X156.893 Y60.514
G0 X156.837 Y60.95
G0 X156.83 Y61.009
G0 X140.832 Y78.444
G0 X140.244 Y78.961
G0 X139.578 Y79.371
G0 X138.852 Y79.664
G0 X138.086 Y79.828
G0 X136.515 Y79.82
G0 X136.536 Y79.723
;TYPE:WALL-INNER
G1 X137.298 Y79.82 E26.9422
G1 X137.414 Y79.819 E26.94702
G1 X138.081 Y79.789 E26.97478
G1 X138.841 Y79.626 E27.0071
G1 X139.56 Y79.336 E27.03933
G1 X140.221 Y78.929 E27.0716
G1 X140.804 Y78.417 E27.10386
G1 X141.287 Y77.818 E27.13585
G1 X141.347 Y77.717 E27.14073
G1 X141.67 Y77.134 E27.16844
G1 X141.928 Y76.403 E27.20067
G1 X142.059 Y75.642 E27.23278
G1 X142.059 Y74.858 E27.26537
G1 X141.928 Y74.097 E27.29748
G1 X141.67 Y73.365 E27.32974
G1 X141.292 Y72.688 E27.36198
G1 X140.804 Y72.083 E27.3943
G1 X140.221 Y71.571 E27.42655
G1 X139.56 Y71.164 E27.45883
G1 X138.841 Y70.874 E27.49106
G1 X138.08 Y70.711 E27.52342
G1 X137.306 Y70.678 E27.55562
G1 X136.536 Y70.777 E27.5879
G1 X135.8 Y71.002 E27.6199
G1 X135.695 Y71.052 E27.62473
G1 X135.1 Y71.353 E27.65246
G1 X134.476 Y71.815 E27.68474
G1 X133.939 Y72.375 E27.71699
G1 X133.506 Y73.018 E27.74922
G1 X133.189 Y73.719 E27.78121
G1 X133.156 Y73.832 E27.7861
G1 X132.992 Y74.471 E27.81353
G1 X132.979 Y74.585 E27.8183
G1 X132.924 Y75.248 E27.84596
G1 X132.989 Y76.023 E27.87829
G1 X133.186 Y76.775 E27.91061
G1 X133.503 Y77.476 E27.9426
G1 X133.566 Y77.574 E27.94744
G1 X133.94 Y78.125 E27.97513
G1 X134.476 Y78.685 E28.00736
G1 X135.101 Y79.147 E28.03967
G1 X135.793 Y79.496 E28.07189
G1 X136.536 Y79.723 E28.10419
G0 X136.621 Y79.331
;TYPE:WALL-OUTER
G1 X137.321 Y79.42 E28.13353
G1 X137.403 Y79.419 E28.13694
G1 X138.03 Y79.391 E28.16303
G1 X138.723 Y79.242 E28.1925
G1 X139.379 Y78.978 E28.2219
G1 X139.982 Y78.606 E28.25136
G1 X140.514 Y78.139 E28.28079
G1 X140.958 Y77.589 E28.31017
G1 X141 Y77.518 E28.3136
G1 X141.304 Y76.969 E28.33969
G1 X141.54 Y76.302 E28.36911
G1 X141.659 Y75.608 E28.39838
G1 X141.659 Y74.892 E28.42815
G1 X141.54 Y74.198 E28.45743
G1 X141.304 Y73.53 E28.48688
G1 X140.959 Y72.913 E28.51627
G1 X140.514 Y72.361 E28.54575
G1 X139.982 Y71.894 E28.57518
G1 X139.379 Y71.522 E28.60464
G1 X138.723 Y71.258 E28.63403
G1 X138.029 Y71.109 E28.66355
G1 X137.323 Y71.079 E28.69292
G1 X136.621 Y71.169 E28.72235
G1 X135.945 Y71.376 E28.75174
G1 X135.871 Y71.411 E28.75514
G1 X135.311 Y71.695 E28.78125
G1 X134.741 Y72.116 E28.81071
G1 X134.252 Y72.627 E28.84012
G1 X133.856 Y73.214 E28.86955
G1 X133.565 Y73.857 E28.8989
G1 X133.542 Y73.937 E28.90236
G1 X133.386 Y74.543 E28.92837
G1 X133.377 Y74.624 E28.93176
G1 X133.325 Y75.248 E28.9578
G1 X133.385 Y75.955 E28.98729
G1 X133.564 Y76.641 E29.01677
G1 X133.855 Y77.284 E29.04611
G1 X133.9 Y77.354 E29.04957
G1 X134.252 Y77.873 E29.07565
G1 X134.741 Y78.384 E29.10505
G1 X135.311 Y78.805 E29.13451
G1 X135.943 Y79.123 E29.16393
G1 X136.621 Y79.331 E29.19341
G0 X136.819 Y79.356
G0 X136.763 Y79.792
G0 X136.756 Y79.851
G0 X135.779 Y79.533
G0 X135.081 Y79.181
G0 X116.324 Y62.2
G0 X116.345 Y62.103
;TYPE:WALL-INNER
G1 X117.263 Y62.219 E29.23188
G1 X117.398 Y62.217 E29.23749
G1 X118.195 Y62.182 E29.27066
G1 X119.104 Y61.987 E29.30931
G1 X119.965 Y61.64 E29.34791
G1 X120.751 Y61.156 E29.38628
G1 X120.856 Y61.068 E29.39198
G1 X121.454 Y60.539 E29.42517
G1 X122.038 Y59.816 E29.46381
G1 X122.487 Y59.012 E29.5021
G1 X122.535 Y58.885 E29.50774
G1 X122.798 Y58.135 E29.54079
G1 X122.824 Y58.002 E29.54642
G1 X122.956 Y57.217 E29.57951
G1 X122.956 Y56.282 E29.61839
G1 X122.799 Y55.37 E29.65686
G1 X122.49 Y54.494 E29.69548
G1 X122.038 Y53.684 E29.73404
G1 X121.454 Y52.96 E29.77272
G1 X120.756 Y52.347 E29.81134
G1 X119.965 Y51.86 E29.84996
G1 X119.104 Y51.513 E29.88855
G1 X118.199 Y51.319 E29.92703
G1 X118.065 Y51.31 E29.93262
G1 X117.275 Y51.28 E29.96548
G1 X117.141 Y51.294 E29.97109
G1 X116.347 Y51.397 E30.00437
G1 X115.459 Y51.669 E30.04298
G1 X114.629 Y52.086 E30.0816
G1 X113.882 Y52.639 E30.12024
G1 X113.239 Y53.31 E30.15888
G1 X112.72 Y54.08 E30.19749
G1 X112.337 Y54.925 E30.23606
G1 X112.102 Y55.825 E30.27473
G1 X112.024 Y56.75 E30.31332
G1 X112.102 Y57.669 E30.35167
G1 X112.134 Y57.802 E30.35736
G1 X112.337 Y58.575 E30.39058
G1 X112.717 Y59.413 E30.42884
G1 X112.79 Y59.528 E30.4345
G1 X113.24 Y60.19 E30.46778
G1 X113.882 Y60.861 E30.50639
G1 X114.629 Y61.414 E30.54503
G1 X115.458 Y61.83 E30.58359
G1 X116.345 Y62.103 E30.62218
G0 X116.43 Y61.711
;TYPE:WALL-OUTER
G1 X117.284 Y61.819 E30.65796
G1 X117.385 Y61.817 E30.66216
G1 X118.144 Y61.784 E30.69375
G1 X118.986 Y61.603 E30.72956
G1 X119.784 Y61.282 E30.76532
G1 X120.516 Y60.831 E30.80106
G1 X120.594 Y60.765 E30.80531
G1 X121.164 Y60.262 E30.83692
G1 X121.705 Y59.591 E30.87275
G1 X122.123 Y58.843 E30.90837
G1 X122.159 Y58.748 E30.9126
G1 X122.411 Y58.03 E30.94423
G1 X122.43 Y57.931 E30.94843
G1 X122.556 Y57.184 E30.97992
