;FLAVOR:Marlin
;TIME:1247
;Filament used: 3.96471m
;Layer height: 0.25
;MINX:65.174
;MINY:80.124
;MINZ:0.25
;MAXX:169.826
;MAXY:154.776
;MAXZ:2
;Generated with Cura_SteamEngine 4.10.0
M82 ;absolute extrusion mode
; Start bed heating
M140 S60.0
M104 S225.0
; Use absolute coordinates
G90
; Set and wait for nozzle to reach temperature
M109 S225.0
; Wait for bed to reach temperature
M190 S60.0
; Home
G28
G1 Z10
; Move the nozzle near the bed
G1 Z10 X75 Y225 F3000
G1 Z0.2
; Set extruder position to 0
G92 E0
G1 E10 F500
G4 P1000
; Wipe a little without extruding
G1 X85 F1600
; Set extruder position to 0
G92 E0
; Move the nozzle up to clear
G1 Z5 F3000
G92 E0
G92 E0
G1 F7200 E-3.5
;LAYER_COUNT:8
;LAYER:0
M107
G0 F6000 X66.292 Y81.008 Z0.25
;TYPE:SKIRT
G1 F7200 E0
G1 F6000 X66.686 Y80.691 E0.02102
G1 X67.125 Y80.441 E0.04203
G1 X67.599 Y80.263 E0.06308
G1 X67.946 Y80.184 E0.07787
G1 X68.834 Y80.126 E0.11487
G1 X165.838 Y80.124 E4.14783
G1 X166.472 Y80.133 E4.17419
G1 X166.976 Y80.18 E4.19524
G1 X167.465 Y80.306 E4.21623
G1 X168 Y80.546 E4.24061
G1 X168.186 Y80.651 E4.24949
G1 X168.605 Y80.934 E4.27051
G1 X168.975 Y81.279 E4.29154
G1 X169.285 Y81.678 E4.31255
G1 X169.529 Y82.121 E4.33357
G1 X169.7 Y82.596 E4.35456
G1 X169.814 Y83.361 E4.38672
G1 X169.825 Y83.812 E4.40548
G1 X169.826 Y150.766 E7.1891
G1 X169.817 Y151.42 E7.21629
G1 X169.77 Y151.923 E7.2373
G1 X169.644 Y152.413 E7.25833
G1 X169.414 Y152.931 E7.28189
G1 X169.31 Y153.118 E7.29079
G1 X169.03 Y153.539 E7.31181
G1 X168.687 Y153.911 E7.33285
G1 X168.29 Y154.224 E7.35387
G1 X167.849 Y154.471 E7.37488
G1 X167.374 Y154.645 E7.39591
G1 X166.575 Y154.764 E7.4295
G1 X166.088 Y154.775 E7.44975
G1 X69.162 Y154.776 E11.47946
G1 X68.529 Y154.767 E11.50578
G1 X68.025 Y154.72 E11.52683
G1 X67.535 Y154.594 E11.54786
G1 X67.007 Y154.357 E11.57192
G1 X66.82 Y154.252 E11.58084
G1 X66.4 Y153.971 E11.60185
G1 X66.03 Y153.626 E11.62288
G1 X65.719 Y153.228 E11.64388
G1 X65.474 Y152.786 E11.66489
G1 X65.302 Y152.311 E11.6859
G1 X65.207 Y151.819 E11.70673
G1 X65.177 Y151.216 E11.73183
G1 X65.174 Y84.111 E14.52173
G1 X65.183 Y83.479 E14.54801
G1 X65.23 Y82.976 E14.56901
G1 X65.356 Y82.486 E14.59005
G1 X65.574 Y81.993 E14.61246
G1 X65.676 Y81.806 E14.62131
G1 X65.952 Y81.382 E14.64235
G1 X66.292 Y81.008 E14.66336
G1 F7200 E11.16336
;MESH:Switch Board Panel 5 Switch.STL
G0 F6000 X68.987 Y82.66
G0 X68.988 Y83.939
G0 X73.295 Y143.17
G0 X73.479 Y143.871
G0 X73.834 Y144.619
G0 X74.252 Y145.208
G0 X74.764 Y145.715
G0 X75.265 Y146.083
G0 X76.591 Y146.678
G0 X76.611 Y146.581
;TYPE:WALL-INNER
G1 F7200 E14.66336
G1 F6000 X77.313 Y146.671 E14.69279
G1 X77.422 Y146.67 E14.69732
G1 X78.036 Y146.642 E14.72287
G1 X78.738 Y146.492 E14.75272
G1 X79.402 Y146.223 E14.7825
G1 X80.012 Y145.848 E14.81227
G1 X80.551 Y145.375 E14.84209
G1 X81.002 Y144.816 E14.87195
G1 X81.345 Y144.2 E14.90126
G1 X81.386 Y144.098 E14.90583
G1 X81.59 Y143.513 E14.93159
G1 X81.71 Y142.812 E14.96116
G1 X81.71 Y142.088 E14.99126
G1 X81.59 Y141.385 E15.02091
G1 X81.354 Y140.717 E15.05036
G1 X81.303 Y140.619 E15.05495
G1 X81.005 Y140.091 E15.08016
G1 X80.939 Y140.003 E15.08473
G1 X80.55 Y139.525 E15.11036
G1 X80.012 Y139.052 E15.14014
G1 X79.402 Y138.677 E15.16991
G1 X78.738 Y138.408 E15.19969
G1 X78.043 Y138.259 E15.22925
G1 X77.934 Y138.252 E15.23379
G1 X77.32 Y138.227 E15.25934
G1 X76.61 Y138.319 E15.2891
G1 X75.924 Y138.528 E15.31892
G1 X75.285 Y138.851 E15.34868
G1 X74.707 Y139.278 E15.37856
G1 X74.211 Y139.795 E15.40835
G1 X73.81 Y140.389 E15.43814
G1 X73.516 Y141.042 E15.46792
G1 X73.334 Y141.736 E15.49774
G1 X73.274 Y142.45 E15.52753
G1 X73.334 Y143.164 E15.55732
G1 X73.516 Y143.858 E15.58715
G1 X73.807 Y144.504 E15.61661
G1 X73.867 Y144.597 E15.62121
G1 X74.207 Y145.099 E15.64642
G1 X74.281 Y145.181 E15.65101
G1 X74.703 Y145.617 E15.67624
G1 X74.788 Y145.684 E15.68074
G1 X75.285 Y146.049 E15.70637
G1 X75.924 Y146.372 E15.73614
G1 X76.611 Y146.581 E15.76599
G0 X76.695 Y146.189
;TYPE:WALL-OUTER
G1 X77.336 Y146.271 E15.79286
G1 X77.41 Y146.27 E15.79594
G1 X77.985 Y146.244 E15.81987
G1 X78.62 Y146.108 E15.84687
G1 X79.221 Y145.865 E15.87382
G1 X79.774 Y145.525 E15.90081
G1 X80.261 Y145.097 E15.92776
G1 X80.669 Y144.591 E15.95479
G1 X80.983 Y144.028 E15.98159
G1 X81.011 Y143.958 E15.98472
G1 X81.201 Y143.413 E16.00872
G1 X81.31 Y142.778 E16.03551
G1 X81.31 Y142.122 E16.06278
G1 X81.201 Y141.486 E16.08961
G1 X80.986 Y140.877 E16.11646
G1 X80.951 Y140.81 E16.1196
G1 X80.67 Y140.311 E16.14341
G1 X80.624 Y140.25 E16.14658
G1 X80.261 Y139.803 E16.17053
G1 X79.774 Y139.375 E16.19748
G1 X79.221 Y139.035 E16.22447
G1 X78.62 Y138.792 E16.25142
G1 X77.987 Y138.656 E16.27834
G1 X77.913 Y138.651 E16.28142
G1 X77.338 Y138.628 E16.30535
G1 X76.695 Y138.711 E16.3323
G1 X76.074 Y138.901 E16.3593
G1 X75.495 Y139.193 E16.38626
G1 X74.972 Y139.579 E16.41329
G1 X74.524 Y140.047 E16.44022
G1 X74.161 Y140.585 E16.4672
G1 X73.894 Y141.176 E16.49417
G1 X73.73 Y141.804 E16.52115
G1 X73.675 Y142.45 E16.54811
G1 X73.73 Y143.096 E16.57506
G1 X73.894 Y143.724 E16.60204
G1 X74.16 Y144.313 E16.62891
G1 X74.201 Y144.377 E16.63207
G1 X74.522 Y144.851 E16.65587
G1 X74.573 Y144.907 E16.65902
G1 X74.971 Y145.319 E16.68284
G1 X75.03 Y145.365 E16.68595
G1 X75.495 Y145.707 E16.70995
G1 X76.074 Y145.999 E16.73691
G1 X76.695 Y146.189 E16.76391
G0 X76.893 Y146.214
G0 X76.837 Y146.65
G0 X76.83 Y146.709
G0 X75.91 Y146.409
G0 X75.265 Y146.083
G0 X74.677 Y145.646
G0 X74.176 Y145.123
G0 X73.772 Y144.523
G0 X73.479 Y143.871
G0 X73.295 Y143.17
G0 X73.247 Y142.587
G0 X76.591 Y96.678
G0 X76.611 Y96.581
;TYPE:WALL-INNER
G1 X77.313 Y96.671 E16.79333
G1 X77.422 Y96.67 E16.79786
G1 X78.036 Y96.642 E16.82342
G1 X78.738 Y96.492 E16.85326
G1 X79.402 Y96.223 E16.88305
G1 X80.012 Y95.848 E16.91282
G1 X80.551 Y95.375 E16.94263
G1 X81.002 Y94.816 E16.97249
G1 X81.345 Y94.2 E17.00181
G1 X81.386 Y94.098 E17.00638
G1 X81.59 Y93.513 E17.03213
G1 X81.71 Y92.812 E17.0617
G1 X81.71 Y92.088 E17.0918
G1 X81.59 Y91.385 E17.12145
G1 X81.354 Y90.717 E17.15091
G1 X81.303 Y90.619 E17.1555
G1 X81.005 Y90.091 E17.18071
G1 X80.939 Y90.003 E17.18528
G1 X80.55 Y89.525 E17.2109
G1 X80.012 Y89.052 E17.24068
G1 X79.402 Y88.677 E17.27045
G1 X78.738 Y88.408 E17.30024
G1 X78.043 Y88.259 E17.32979
G1 X77.934 Y88.252 E17.33433
G1 X77.32 Y88.227 E17.35988
G1 X76.61 Y88.319 E17.38965
G1 X75.924 Y88.528 E17.41946
G1 X75.285 Y88.851 E17.44923
G1 X74.707 Y89.278 E17.4791
G1 X74.211 Y89.795 E17.50889
G1 X73.81 Y90.389 E17.53869
G1 X73.516 Y91.042 E17.56846
G1 X73.334 Y91.736 E17.59829
G1 X73.274 Y92.45 E17.62808
G1 X73.334 Y93.164 E17.65787
G1 X73.516 Y93.858 E17.6877
G1 X73.807 Y94.504 E17.71715
G1 X73.867 Y94.597 E17.72176
G1 X74.207 Y95.099 E17.74696
G1 X74.281 Y95.181 E17.75155
G1 X74.703 Y95.617 E17.77678
G1 X74.788 Y95.684 E17.78128
G1 X75.285 Y96.049 E17.80692
G1 X75.924 Y96.372 E17.83669
G1 X76.611 Y96.581 E17.86654
G0 X76.695 Y96.189
;TYPE:WALL-OUTER
G1 X77.336 Y96.271 E17.89341
G1 X77.41 Y96.27 E17.89648
G1 X77.985 Y96.244 E17.92041
G1 X78.62 Y96.108 E17.94741
G1 X79.221 Y95.865 E17.97436
G1 X79.774 Y95.525 E18.00135
G1 X80.261 Y95.097 E18.02831
G1 X80.669 Y94.591 E18.05533
G1 X80.983 Y94.028 E18.08213
G1 X81.011 Y93.958 E18.08527
G1 X81.201 Y93.413 E18.10926
G1 X81.31 Y92.778 E18.13605
G1 X81.31 Y92.122 E18.16332
G1 X81.201 Y91.486 E18.19015
G1 X80.986 Y90.877 E18.217
G1 X80.951 Y90.81 E18.22014
G1 X80.67 Y90.311 E18.24395
G1 X80.624 Y90.25 E18.24713
G1 X80.261 Y89.803 E18.27107
G1 X79.774 Y89.375 E18.29803
G1 X79.221 Y89.035 E18.32501
G1 X78.62 Y88.792 E18.35197
G1 X77.987 Y88.656 E18.37888
G1 X77.913 Y88.651 E18.38197
G1 X77.338 Y88.628 E18.40589
G1 X76.695 Y88.711 E18.43285
G1 X76.074 Y88.901 E18.45985
G1 X75.495 Y89.193 E18.48681
G1 X74.972 Y89.579 E18.51383
G1 X74.524 Y90.047 E18.54077
G1 X74.161 Y90.585 E18.56775
G1 X73.894 Y91.176 E18.59471
G1 X73.73 Y91.804 E18.6217
G1 X73.675 Y92.45 E18.64865
G1 X73.73 Y93.096 E18.67561
G1 X73.894 Y93.724 E18.70259
G1 X74.16 Y94.313 E18.72946
G1 X74.201 Y94.377 E18.73262
G1 X74.522 Y94.851 E18.75642
G1 X74.573 Y94.907 E18.75957
G1 X74.971 Y95.319 E18.78338
G1 X75.03 Y95.365 E18.7865
G1 X75.495 Y95.707 E18.81049
G1 X76.074 Y95.999 E18.83745
G1 X76.695 Y96.189 E18.86445
G0 X76.893 Y96.214
G0 X76.837 Y96.65
G0 X76.83 Y96.709
G0 X117.399 Y97.956
G0 X156.591 Y96.678
G0 X156.611 Y96.581
;TYPE:WALL-INNER
G1 X157.313 Y96.671 E18.89388
G1 X157.422 Y96.67 E18.89841
G1 X158.036 Y96.642 E18.92396
G1 X158.738 Y96.492 E18.95381
G1 X159.402 Y96.223 E18.98359
G1 X160.012 Y95.848 E19.01336
G1 X160.551 Y95.375 E19.04318
G1 X161.002 Y94.816 E19.07304
G1 X161.345 Y94.2 E19.10235
G1 X161.386 Y94.098 E19.10692
G1 X161.59 Y93.513 E19.13268
G1 X161.71 Y92.812 E19.16225
G1 X161.71 Y92.088 E19.19235
G1 X161.59 Y91.385 E19.222
G1 X161.354 Y90.717 E19.25145
G1 X161.303 Y90.619 E19.25605
G1 X161.005 Y90.091 E19.28125
G1 X160.939 Y90.003 E19.28583
G1 X160.55 Y89.525 E19.31145
G1 X160.012 Y89.052 E19.34123
G1 X159.402 Y88.677 E19.371
G1 X158.738 Y88.408 E19.40079
G1 X158.043 Y88.259 E19.43034
G1 X157.934 Y88.252 E19.43488
G1 X157.32 Y88.227 E19.46043
G1 X156.61 Y88.319 E19.49019
G1 X155.924 Y88.528 E19.52001
G1 X155.285 Y88.851 E19.54977
G1 X154.707 Y89.278 E19.57965
G1 X154.211 Y89.795 E19.60944
G1 X153.81 Y90.389 E19.63923
G1 X153.516 Y91.042 E19.66901
G1 X153.334 Y91.736 E19.69884
G1 X153.274 Y92.45 E19.72862
G1 X153.334 Y93.164 E19.75841
G1 X153.516 Y93.858 E19.78824
G1 X153.807 Y94.504 E19.8177
G1 X153.867 Y94.597 E19.8223
G1 X154.207 Y95.099 E19.84751
G1 X154.281 Y95.181 E19.8521
G1 X154.703 Y95.617 E19.87733
G1 X154.788 Y95.684 E19.88183
G1 X155.285 Y96.049 E19.90746
G1 X155.924 Y96.372 E19.93723
G1 X156.611 Y96.581 E19.96709
G0 X156.695 Y96.189
;TYPE:WALL-OUTER
G1 X157.336 Y96.271 E19.99395
G1 X157.41 Y96.27 E19.99703
G1 X157.985 Y96.244 E20.02096
G1 X158.62 Y96.108 E20.04796
G1 X159.221 Y95.865 E20.07491
G1 X159.774 Y95.525 E20.1019
G1 X160.261 Y95.097 E20.12885
G1 X160.669 Y94.591 E20.15588
G1 X160.983 Y94.028 E20.18268
G1 X161.011 Y93.958 E20.18581
G1 X161.201 Y93.413 E20.20981
G1 X161.31 Y92.778 E20.2366
G1 X161.31 Y92.122 E20.26387
G1 X161.201 Y91.486 E20.2907
G1 X160.986 Y90.877 E20.31755
G1 X160.951 Y90.81 E20.32069
G1 X160.67 Y90.311 E20.3445
G1 X160.624 Y90.25 E20.34768
G1 X160.261 Y89.803 E20.37162
G1 X159.774 Y89.375 E20.39857
G1 X159.221 Y89.035 E20.42556
G1 X158.62 Y88.792 E20.45251
G1 X157.987 Y88.656 E20.47943
G1 X157.913 Y88.651 E20.48251
G1 X157.338 Y88.628 E20.50644
G1 X156.695 Y88.711 E20.53339
G1 X156.074 Y88.901 E20.56039
G1 X155.495 Y89.193 E20.58735
G1 X154.972 Y89.579 E20.61438
G1 X154.524 Y90.047 E20.64131
G1 X154.161 Y90.585 E20.66829
G1 X153.894 Y91.176 E20.69526
G1 X153.73 Y91.804 E20.72224
G1 X153.675 Y92.45 E20.7492
G1 X153.73 Y93.096 E20.77615
G1 X153.894 Y93.724 E20.80314
G1 X154.16 Y94.313 E20.83
G1 X154.201 Y94.377 E20.83316
G1 X154.522 Y94.851 E20.85697
G1 X154.573 Y94.907 E20.86011
G1 X154.971 Y95.319 E20.88393
G1 X155.03 Y95.365 E20.88704
G1 X155.495 Y95.707 E20.91104
G1 X156.074 Y95.999 E20.938
G1 X156.695 Y96.189 E20.965
G0 X156.893 Y96.214
G0 X156.837 Y96.65
G0 X156.83 Y96.709
G0 X140.832 Y114.144
G0 X140.244 Y114.661
G0 X139.578 Y115.071
G0 X138.852 Y115.364
G0 X138.086 Y115.528
G0 X136.515 Y115.52
G0 X136.536 Y115.423
;TYPE:WALL-INNER
G1 X137.298 Y115.52 E20.99693
G1 X137.414 Y115.519 E21.00176
G1 X138.081 Y115.489 E21.02952
G1 X138.841 Y115.326 E21.06183
G1 X139.56 Y115.036 E21.09406
G1 X140.221 Y114.629 E21.12634
G1 X140.804 Y114.117 E21.1586
G1 X141.287 Y113.518 E21.19059
G1 X141.347 Y113.417 E21.19547
G1 X141.67 Y112.834 E21.22318
G1 X141.928 Y112.103 E21.25541
G1 X142.059 Y111.342 E21.28751
G1 X142.059 Y110.558 E21.32011
G1 X141.928 Y109.797 E21.35221
G1 X141.67 Y109.065 E21.38448
G1 X141.292 Y108.388 E21.41672
G1 X140.804 Y107.783 E21.44903
G1 X140.221 Y107.271 E21.48129
G1 X139.56 Y106.864 E21.51356
G1 X138.841 Y106.574 E21.5458
G1 X138.08 Y106.411 E21.57815
G1 X137.306 Y106.378 E21.61036
G1 X136.536 Y106.477 E21.64264
G1 X135.8 Y106.702 E21.67463
G1 X135.695 Y106.752 E21.67947
G1 X135.1 Y107.053 E21.70719
G1 X134.476 Y107.515 E21.73947
G1 X133.939 Y108.075 E21.77173
G1 X133.506 Y108.718 E21.80396
G1 X133.189 Y109.419 E21.83594
G1 X133.156 Y109.532 E21.84084
G1 X132.992 Y110.171 E21.86827
G1 X132.979 Y110.285 E21.87304
G1 X132.924 Y110.948 E21.90069
G1 X132.989 Y111.723 E21.93303
G1 X133.186 Y112.475 E21.96535
G1 X133.503 Y113.176 E21.99733
G1 X133.566 Y113.274 E22.00218
G1 X133.94 Y113.825 E22.02986
G1 X134.476 Y114.385 E22.06209
G1 X135.101 Y114.847 E22.0944
G1 X135.793 Y115.196 E22.12663
G1 X136.536 Y115.423 E22.15893
G0 X136.621 Y115.031
;TYPE:WALL-OUTER
G1 X137.321 Y115.12 E22.18826
G1 X137.403 Y115.119 E22.19167
G1 X138.03 Y115.091 E22.21777
G1 X138.723 Y114.942 E22.24724
G1 X139.379 Y114.678 E22.27664
G1 X139.982 Y114.306 E22.30609
G1 X140.514 Y113.839 E22.33552
G1 X140.958 Y113.289 E22.36491
G1 X141 Y113.218 E22.36834
G1 X141.304 Y112.669 E22.39443
G1 X141.54 Y112.002 E22.42385
G1 X141.659 Y111.308 E22.45312
G1 X141.659 Y110.592 E22.48289
G1 X141.54 Y109.898 E22.51216
G1 X141.304 Y109.23 E22.54162
G1 X140.959 Y108.613 E22.57101
G1 X140.514 Y108.061 E22.60048
G1 X139.982 Y107.594 E22.62991
G1 X139.379 Y107.222 E22.65937
G1 X138.723 Y106.958 E22.68877
G1 X138.029 Y106.809 E22.71828
G1 X137.323 Y106.779 E22.74766
G1 X136.621 Y106.869 E22.77708
G1 X135.945 Y107.076 E22.80648
G1 X135.871 Y107.111 E22.80988
G1 X135.311 Y107.395 E22.83599
G1 X134.741 Y107.816 E22.86545
G1 X134.252 Y108.327 E22.89485
G1 X133.856 Y108.914 E22.92429
G1 X133.565 Y109.557 E22.95363
G1 X133.542 Y109.637 E22.95709
G1 X133.386 Y110.243 E22.98311
G1 X133.377 Y110.324 E22.9865
G1 X133.325 Y110.948 E23.01253
G1 X133.385 Y111.655 E23.04203
G1 X133.564 Y112.341 E23.07151
G1 X133.855 Y112.984 E23.10085
G1 X133.9 Y113.054 E23.10431
G1 X134.252 Y113.573 E23.13038
G1 X134.741 Y114.084 E23.15979
G1 X135.311 Y114.505 E23.18925
G1 X135.943 Y114.823 E23.21866
G1 X136.621 Y115.031 E23.24815
G0 X136.819 Y115.056
G0 X136.763 Y115.492
G0 X136.756 Y115.551
G0 X135.779 Y115.233
G0 X135.081 Y114.881
G0 X116.324 Y97.9
G0 X116.345 Y97.803
;TYPE:WALL-INNER
G1 X117.263 Y97.919 E23.28662
G1 X117.398 Y97.917 E23.29223
G1 X118.195 Y97.882 E23.3254
G1 X119.104 Y97.687 E23.36405
G1 X119.965 Y97.34 E23.40264
G1 X120.751 Y96.856 E23.44102
G1 X120.856 Y96.768 E23.44671
G1 X121.454 Y96.239 E23.47991
G1 X122.038 Y95.516 E23.51855
G1 X122.487 Y94.712 E23.55683
G1 X122.535 Y94.585 E23.56248
G1 X122.798 Y93.835 E23.59552
G1 X122.824 Y93.702 E23.60116
G1 X122.956 Y92.917 E23.63425
G1 X122.956 Y91.982 E23.67312
G1 X122.799 Y91.07 E23.7116
G1 X122.49 Y90.194 E23.75022
G1 X122.038 Y89.384 E23.78878
G1 X121.454 Y88.66 E23.82745
G1 X120.756 Y88.047 E23.86607
G1 X119.965 Y87.56 E23.90469
G1 X119.104 Y87.213 E23.94329
G1 X118.199 Y87.019 E23.98177
G1 X118.065 Y87.01 E23.98735
G1 X117.275 Y86.98 E24.02022
G1 X117.141 Y86.994 E24.02582
G1 X116.347 Y87.097 E24.05911
G1 X115.459 Y87.369 E24.09772
G1 X114.629 Y87.786 E24.13634
G1 X113.882 Y88.339 E24.17498
G1 X113.239 Y89.01 E24.21362
G1 X112.72 Y89.78 E24.25222
G1 X112.337 Y90.625 E24.29079
G1 X112.102 Y91.525 E24.32947
G1 X112.024 Y92.45 E24.36806
G1 X112.102 Y93.369 E24.4064
G1 X112.134 Y93.502 E24.41209
G1 X112.337 Y94.275 E24.44532
G1 X112.717 Y95.113 E24.48357
G1 X112.79 Y95.228 E24.48924
G1 X113.24 Y95.89 E24.52252
G1 X113.882 Y96.561 E24.56113
G1 X114.629 Y97.114 E24.59977
G1 X115.458 Y97.53 E24.63833
G1 X116.345 Y97.803 E24.67691
G0 X116.43 Y97.411
;TYPE:WALL-OUTER
G1 X117.284 Y97.519 E24.7127
G1 X117.385 Y97.517 E24.7169
G1 X118.144 Y97.484 E24.74849
G1 X118.986 Y97.303 E24.78429
G1 X119.784 Y96.982 E24.82005
G1 X120.516 Y96.531 E24.8558
G1 X120.594 Y96.465 E24.86005
G1 X121.164 Y95.962 E24.89165
G1 X121.705 Y95.291 E24.92749
G1 X122.123 Y94.543 E24.96311
G1 X122.159 Y94.448 E24.96733
G1 X122.411 Y93.73 E24.99897
G1 X122.43 Y93.631 E25.00316
G1 X122.556 Y92.884 E25.03466
G1 X122.556 Y92.016 E25.07074
G1 X122.411 Y91.171 E25.10639
G1 X122.124 Y90.359 E25.14219
G1 X121.705 Y89.609 E25.17791
G1 X121.164 Y88.938 E25.21375
