;FLAVOR:Marlin
;TIME:4984
;Filament used: 15.8286m
;Layer height: 0.25
;MINX:14.674
;MINY:44.415
;MINZ:0.25
;MAXX:220.326
;MAXY:190.585
;MAXZ:2
;Generated with Cura_SteamEngine 4.10.0
M82 ;absolute extrusion mode
; Start bed heating
M140 S60.0
M104 S225.0
; Use absolute coordinates
G90
; Set and wait for nozzle to reach temperature
M109 S225.0
; Wait for bed to reach temperature
M190 S60.0
; Home
G28
G1 Z10
; Move the nozzle near the bed
G1 Z10 X75 Y225 F3000
G1 Z0.2
; Set extruder position to 0
G92 E0
G1 E10 F500
G4 P1000
; Wipe a little without extruding
G1 X85 F1600
; Set extruder position to 0
G92 E0
; Move the nozzle up to clear
G1 Z5 F3000
G92 E0
G92 E0
G1 F7200 E-3.5
;LAYER_COUNT:8
;LAYER:0
M107
G0 F6000 X16.625 Y44.741 Z0.25
;TYPE:SKIRT
G1 F7200 E0
G1 F6000 X17.099 Y44.563 E0.02105
G1 X17.446 Y44.484 E0.03585
G1 X18.334 Y44.426 E0.07284
G1 X115.377 Y44.424 E4.10742
G1 X115.93 Y44.432 E4.13042
G1 X118.251 Y44.415 E4.22691
G1 X118.49 Y44.432 E4.23688
G1 X119.412 Y44.425 E4.27521
G1 X216.338 Y44.424 E8.30492
G1 X216.972 Y44.433 E8.33129
G1 X217.476 Y44.48 E8.35233
G1 X217.965 Y44.606 E8.37332
G1 X218.5 Y44.846 E8.3977
G1 X218.686 Y44.951 E8.40658
G1 X219.105 Y45.234 E8.4276
G1 X219.475 Y45.579 E8.44864
G1 X219.785 Y45.978 E8.46964
G1 X220.029 Y46.421 E8.49067
G1 X220.2 Y46.896 E8.51166
G1 X220.314 Y47.661 E8.54382
G1 X220.325 Y48.112 E8.56257
G1 X220.326 Y115.098 E11.34753
G1 X220.313 Y116.022 E11.38594
G1 X220.313 Y118.805 E11.50165
G1 X220.325 Y119.635 E11.53616
G1 X220.326 Y186.566 E14.31883
G1 X220.317 Y187.22 E14.34602
G1 X220.27 Y187.723 E14.36702
G1 X220.144 Y188.213 E14.38806
G1 X219.914 Y188.731 E14.41162
G1 X219.81 Y188.918 E14.42052
G1 X219.53 Y189.339 E14.44154
G1 X219.187 Y189.711 E14.46258
G1 X218.79 Y190.024 E14.48359
G1 X218.349 Y190.271 E14.50461
G1 X217.874 Y190.445 E14.52564
G1 X217.075 Y190.564 E14.55922
G1 X216.588 Y190.575 E14.57948
G1 X119.623 Y190.576 E18.61081
G1 X119.07 Y190.568 E18.63381
G1 X116.749 Y190.585 E18.7303
G1 X116.51 Y190.568 E18.74027
G1 X115.588 Y190.575 E18.7786
G1 X18.662 Y190.576 E22.80831
G1 X18.028 Y190.567 E22.83468
G1 X17.524 Y190.52 E22.85572
G1 X17.035 Y190.394 E22.87672
G1 X16.5 Y190.154 E22.90109
G1 X16.314 Y190.049 E22.90997
G1 X15.895 Y189.766 E22.93099
G1 X15.525 Y189.421 E22.95203
G1 X15.215 Y189.022 E22.97303
G1 X14.971 Y188.579 E22.99406
G1 X14.8 Y188.104 E23.01505
G1 X14.686 Y187.335 E23.04737
G1 X14.676 Y186.926 E23.06438
G1 X14.674 Y119.902 E25.85091
G1 X14.687 Y118.979 E25.88929
G1 X14.687 Y116.196 E26.005
G1 X14.675 Y115.365 E26.03955
G1 X14.674 Y48.411 E28.82317
G1 X14.683 Y47.779 E28.84945
G1 X14.73 Y47.276 E28.87045
G1 X14.856 Y46.786 E28.89149
G1 X15.074 Y46.293 E28.9139
G1 X15.176 Y46.106 E28.92275
G1 X15.452 Y45.682 E28.94379
G1 X15.792 Y45.308 E28.9648
G1 X16.186 Y44.991 E28.98583
G1 X16.625 Y44.741 E29.00683
G1 F7200 E25.50683
;MESH:Switch Board Panel 5 Switch.STL(1)
G0 F6000 X18.487 Y46.96
G0 X18.488 Y48.239
G0 X22.795 Y107.47
G0 X22.979 Y108.171
G0 X23.334 Y108.919
G0 X23.752 Y109.508
G0 X24.264 Y110.015
G0 X24.765 Y110.383
G0 X26.091 Y110.978
G0 X26.111 Y110.881
;TYPE:WALL-INNER
G1 F7200 E29.00683
G1 F6000 X26.813 Y110.971 E29.03625
G1 X26.922 Y110.97 E29.04079
G1 X27.536 Y110.942 E29.06634
G1 X28.238 Y110.792 E29.09618
G1 X28.902 Y110.523 E29.12597
G1 X29.512 Y110.148 E29.15574
G1 X30.051 Y109.675 E29.18555
G1 X30.502 Y109.116 E29.21542
G1 X30.845 Y108.5 E29.24473
G1 X30.886 Y108.398 E29.2493
G1 X31.09 Y107.813 E29.27506
G1 X31.21 Y107.112 E29.30462
G1 X31.21 Y106.388 E29.33472
G1 X31.09 Y105.685 E29.36438
G1 X30.854 Y105.017 E29.39383
G1 X30.803 Y104.919 E29.39842
G1 X30.505 Y104.391 E29.42363
G1 X30.439 Y104.303 E29.4282
G1 X30.05 Y103.825 E29.45382
G1 X29.512 Y103.352 E29.48361
G1 X28.902 Y102.977 E29.51338
G1 X28.238 Y102.708 E29.54316
G1 X27.543 Y102.559 E29.57271
G1 X27.434 Y102.552 E29.57725
G1 X26.82 Y102.527 E29.6028
G1 X26.11 Y102.619 E29.63257
G1 X25.424 Y102.828 E29.66238
G1 X24.785 Y103.151 E29.69215
G1 X24.207 Y103.578 E29.72203
G1 X23.711 Y104.095 E29.75181
G1 X23.31 Y104.689 E29.78161
G1 X23.016 Y105.342 E29.81138
G1 X22.834 Y106.036 E29.84121
G1 X22.774 Y106.75 E29.871
G1 X22.834 Y107.464 E29.90079
G1 X23.016 Y108.158 E29.93062
G1 X23.307 Y108.804 E29.96008
G1 X23.367 Y108.897 E29.96468
G1 X23.707 Y109.399 E29.98989
G1 X23.781 Y109.481 E29.99448
G1 X24.203 Y109.917 E30.0197
G1 X24.288 Y109.984 E30.0242
G1 X24.785 Y110.349 E30.04984
G1 X25.424 Y110.672 E30.07961
G1 X26.111 Y110.881 E30.10946
G0 X26.195 Y110.489
;TYPE:WALL-OUTER
G1 X26.836 Y110.571 E30.13633
G1 X26.91 Y110.57 E30.13941
G1 X27.485 Y110.544 E30.16334
G1 X28.12 Y110.408 E30.19034
G1 X28.721 Y110.165 E30.21729
G1 X29.274 Y109.825 E30.24428
G1 X29.761 Y109.397 E30.27123
G1 X30.169 Y108.891 E30.29826
G1 X30.483 Y108.328 E30.32506
G1 X30.511 Y108.258 E30.32819
G1 X30.701 Y107.713 E30.35219
G1 X30.81 Y107.078 E30.37897
G1 X30.81 Y106.422 E30.40625
G1 X30.701 Y105.786 E30.43307
G1 X30.486 Y105.177 E30.45992
G1 X30.451 Y105.11 E30.46307
G1 X30.17 Y104.611 E30.48688
G1 X30.124 Y104.55 E30.49005
G1 X29.761 Y104.103 E30.51399
G1 X29.274 Y103.675 E30.54095
G1 X28.721 Y103.335 E30.56794
G1 X28.12 Y103.092 E30.59489
G1 X27.487 Y102.956 E30.62181
G1 X27.413 Y102.951 E30.62489
G1 X26.838 Y102.928 E30.64882
G1 X26.195 Y103.011 E30.67577
G1 X25.574 Y103.201 E30.70277
G1 X24.995 Y103.493 E30.72973
G1 X24.472 Y103.879 E30.75675
G1 X24.024 Y104.347 E30.78369
G1 X23.661 Y104.885 E30.81067
G1 X23.394 Y105.476 E30.83763
G1 X23.23 Y106.104 E30.86462
G1 X23.175 Y106.75 E30.89157
G1 X23.23 Y107.396 E30.91853
G1 X23.394 Y108.024 E30.94551
G1 X23.66 Y108.613 E30.97238
G1 X23.701 Y108.677 E30.97554
G1 X24.022 Y109.151 E30.99934
G1 X24.073 Y109.207 E31.00249
G1 X24.471 Y109.619 E31.02631
G1 X24.53 Y109.665 E31.02942
G1 X24.995 Y110.007 E31.05342
G1 X25.574 Y110.299 E31.08038
G1 X26.195 Y110.489 E31.10738
G0 X26.393 Y110.514
G0 X26.337 Y110.95
G0 X26.33 Y111.009
G0 X25.41 Y110.709
G0 X24.765 Y110.383
G0 X24.177 Y109.946
G0 X23.676 Y109.423
G0 X23.272 Y108.823
G0 X22.979 Y108.171
G0 X22.795 Y107.47
G0 X22.747 Y106.887
G0 X26.091 Y60.978
G0 X26.111 Y60.881
;TYPE:WALL-INNER
G1 X26.813 Y60.971 E31.1368
G1 X26.922 Y60.97 E31.14133
G1 X27.536 Y60.942 E31.16689
G1 X28.238 Y60.792 E31.19673
G1 X28.902 Y60.523 E31.22652
G1 X29.512 Y60.148 E31.25629
G1 X30.051 Y59.675 E31.2861
G1 X30.502 Y59.116 E31.31596
G1 X30.845 Y58.5 E31.34527
G1 X30.886 Y58.398 E31.34984
G1 X31.09 Y57.813 E31.3756
G1 X31.21 Y57.112 E31.40517
G1 X31.21 Y56.388 E31.43527
G1 X31.09 Y55.685 E31.46492
G1 X30.854 Y55.017 E31.49438
G1 X30.803 Y54.919 E31.49897
G1 X30.505 Y54.391 E31.52417
G1 X30.439 Y54.303 E31.52875
G1 X30.05 Y53.825 E31.55437
G1 X29.512 Y53.352 E31.58415
G1 X28.902 Y52.977 E31.61392
G1 X28.238 Y52.708 E31.64371
G1 X27.543 Y52.559 E31.67326
G1 X27.434 Y52.552 E31.6778
G1 X26.82 Y52.527 E31.70335
G1 X26.11 Y52.619 E31.73311
G1 X25.424 Y52.828 E31.76293
G1 X24.785 Y53.151 E31.7927
G1 X24.207 Y53.578 E31.82257
G1 X23.711 Y54.095 E31.85236
G1 X23.31 Y54.689 E31.88216
G1 X23.016 Y55.342 E31.91193
G1 X22.834 Y56.036 E31.94176
G1 X22.774 Y56.75 E31.97155
G1 X22.834 Y57.464 E32.00134
G1 X23.016 Y58.158 E32.03117
G1 X23.307 Y58.804 E32.06062
G1 X23.367 Y58.897 E32.06522
G1 X23.707 Y59.399 E32.09043
G1 X23.781 Y59.481 E32.09502
G1 X24.203 Y59.917 E32.12025
G1 X24.288 Y59.984 E32.12475
G1 X24.785 Y60.349 E32.15039
G1 X25.424 Y60.672 E32.18015
G1 X26.111 Y60.881 E32.21001
G0 X26.195 Y60.489
;TYPE:WALL-OUTER
G1 X26.836 Y60.571 E32.23688
G1 X26.91 Y60.57 E32.23995
G1 X27.485 Y60.544 E32.26388
G1 X28.12 Y60.408 E32.29088
G1 X28.721 Y60.165 E32.31783
G1 X29.274 Y59.825 E32.34482
G1 X29.761 Y59.397 E32.37178
G1 X30.169 Y58.891 E32.3988
G1 X30.483 Y58.328 E32.4256
G1 X30.511 Y58.258 E32.42874
G1 X30.701 Y57.713 E32.45273
G1 X30.81 Y57.078 E32.47952
G1 X30.81 Y56.422 E32.50679
G1 X30.701 Y55.786 E32.53362
G1 X30.486 Y55.177 E32.56047
G1 X30.451 Y55.11 E32.56361
G1 X30.17 Y54.611 E32.58742
G1 X30.124 Y54.55 E32.5906
G1 X29.761 Y54.103 E32.61454
G1 X29.274 Y53.675 E32.64149
G1 X28.721 Y53.335 E32.66848
G1 X28.12 Y53.092 E32.69543
G1 X27.487 Y52.956 E32.72235
G1 X27.413 Y52.951 E32.72544
G1 X26.838 Y52.928 E32.74936
G1 X26.195 Y53.011 E32.77632
G1 X25.574 Y53.201 E32.80331
G1 X24.995 Y53.493 E32.83027
G1 X24.472 Y53.879 E32.8573
G1 X24.024 Y54.347 E32.88423
G1 X23.661 Y54.885 E32.91122
G1 X23.394 Y55.476 E32.93818
G1 X23.23 Y56.104 E32.96516
G1 X23.175 Y56.75 E32.99212
G1 X23.23 Y57.396 E33.01907
G1 X23.394 Y58.024 E33.04606
G1 X23.66 Y58.613 E33.07293
G1 X23.701 Y58.677 E33.07609
G1 X24.022 Y59.151 E33.09989
G1 X24.073 Y59.207 E33.10304
G1 X24.471 Y59.619 E33.12685
G1 X24.53 Y59.665 E33.12996
G1 X24.995 Y60.007 E33.15396
G1 X25.574 Y60.299 E33.18092
G1 X26.195 Y60.489 E33.20792
G0 X26.393 Y60.514
G0 X26.337 Y60.95
G0 X26.33 Y61.009
G0 X66.899 Y62.256
G0 X106.091 Y60.978
G0 X106.111 Y60.881
;TYPE:WALL-INNER
G1 X106.813 Y60.971 E33.23735
G1 X106.922 Y60.97 E33.24188
G1 X107.536 Y60.942 E33.26743
G1 X108.238 Y60.792 E33.29728
G1 X108.902 Y60.523 E33.32706
G1 X109.512 Y60.148 E33.35683
G1 X110.051 Y59.675 E33.38664
G1 X110.502 Y59.116 E33.41651
G1 X110.845 Y58.5 E33.44582
G1 X110.886 Y58.398 E33.45039
G1 X111.09 Y57.813 E33.47615
G1 X111.21 Y57.112 E33.50572
G1 X111.21 Y56.388 E33.53582
G1 X111.09 Y55.685 E33.56547
G1 X110.854 Y55.017 E33.59492
G1 X110.803 Y54.919 E33.59951
G1 X110.505 Y54.391 E33.62472
G1 X110.439 Y54.303 E33.62929
G1 X110.05 Y53.825 E33.65492
G1 X109.512 Y53.352 E33.6847
G1 X108.902 Y52.977 E33.71447
G1 X108.238 Y52.708 E33.74425
G1 X107.543 Y52.559 E33.7738
G1 X107.434 Y52.552 E33.77835
G1 X106.82 Y52.527 E33.80389
G1 X106.11 Y52.619 E33.83366
G1 X105.424 Y52.828 E33.86347
G1 X104.785 Y53.151 E33.89324
G1 X104.207 Y53.578 E33.92312
G1 X103.711 Y54.095 E33.95291
G1 X103.31 Y54.689 E33.9827
G1 X103.016 Y55.342 E34.01247
G1 X102.834 Y56.036 E34.0423
G1 X102.774 Y56.75 E34.07209
G1 X102.834 Y57.464 E34.10188
G1 X103.016 Y58.158 E34.13171
G1 X103.307 Y58.804 E34.16117
G1 X103.367 Y58.897 E34.16577
G1 X103.707 Y59.399 E34.19098
G1 X103.781 Y59.481 E34.19557
G1 X104.203 Y59.917 E34.2208
G1 X104.288 Y59.984 E34.2253
G1 X104.785 Y60.349 E34.25093
G1 X105.424 Y60.672 E34.2807
G1 X106.111 Y60.881 E34.31055
G0 X106.195 Y60.489
;TYPE:WALL-OUTER
G1 X106.836 Y60.571 E34.33742
G1 X106.91 Y60.57 E34.3405
G1 X107.485 Y60.544 E34.36443
G1 X108.12 Y60.408 E34.39143
G1 X108.721 Y60.165 E34.41838
G1 X109.274 Y59.825 E34.44537
G1 X109.761 Y59.397 E34.47232
G1 X110.169 Y58.891 E34.49935
G1 X110.483 Y58.328 E34.52615
G1 X110.511 Y58.258 E34.52928
G1 X110.701 Y57.713 E34.55328
G1 X110.81 Y57.078 E34.58006
G1 X110.81 Y56.422 E34.60734
G1 X110.701 Y55.786 E34.63416
G1 X110.486 Y55.177 E34.66102
G1 X110.451 Y55.11 E34.66416
G1 X110.17 Y54.611 E34.68797
G1 X110.124 Y54.55 E34.69114
G1 X109.761 Y54.103 E34.71508
G1 X109.274 Y53.675 E34.74204
G1 X108.721 Y53.335 E34.76903
G1 X108.12 Y53.092 E34.79598
G1 X107.487 Y52.956 E34.8229
G1 X107.413 Y52.951 E34.82598
G1 X106.838 Y52.928 E34.84991
G1 X106.195 Y53.011 E34.87686
G1 X105.574 Y53.201 E34.90386
G1 X104.995 Y53.493 E34.93082
G1 X104.472 Y53.879 E34.95784
G1 X104.024 Y54.347 E34.98478
G1 X103.661 Y54.885 E35.01176
G1 X103.394 Y55.476 E35.03872
G1 X103.23 Y56.104 E35.06571
G1 X103.175 Y56.75 E35.09266
G1 X103.23 Y57.396 E35.11962
G1 X103.394 Y58.024 E35.1466
G1 X103.66 Y58.613 E35.17347
G1 X103.701 Y58.677 E35.17663
G1 X104.022 Y59.151 E35.20043
G1 X104.073 Y59.207 E35.20358
G1 X104.471 Y59.619 E35.2274
G1 X104.53 Y59.665 E35.23051
G1 X104.995 Y60.007 E35.25451
G1 X105.574 Y60.299 E35.28147
G1 X106.195 Y60.489 E35.30847
G0 X106.393 Y60.514
G0 X106.337 Y60.95
G0 X106.33 Y61.009
G0 X90.332 Y78.444
G0 X89.744 Y78.961
G0 X89.078 Y79.371
G0 X88.352 Y79.664
G0 X87.586 Y79.828
G0 X86.015 Y79.82
G0 X86.036 Y79.723
;TYPE:WALL-INNER
G1 X86.798 Y79.82 E35.3404
G1 X86.914 Y79.819 E35.34523
G1 X87.581 Y79.789 E35.37298
G1 X88.341 Y79.626 E35.4053
G1 X89.06 Y79.336 E35.43753
G1 X89.721 Y78.929 E35.46981
G1 X90.304 Y78.417 E35.50206
G1 X90.787 Y77.818 E35.53405
G1 X90.847 Y77.717 E35.53894
G1 X91.17 Y77.134 E35.56665
G1 X91.428 Y76.403 E35.59888
G1 X91.559 Y75.642 E35.63098
G1 X91.559 Y74.858 E35.66358
G1 X91.428 Y74.097 E35.69568
G1 X91.17 Y73.365 E35.72795
G1 X90.792 Y72.688 E35.76018
G1 X90.304 Y72.083 E35.7925
G1 X89.721 Y71.571 E35.82476
G1 X89.06 Y71.164 E35.85703
G1 X88.341 Y70.874 E35.88926
G1 X87.58 Y70.711 E35.92162
G1 X86.806 Y70.678 E35.95383
G1 X86.036 Y70.777 E35.98611
G1 X85.3 Y71.002 E36.0181
G1 X85.195 Y71.052 E36.02294
G1 X84.6 Y71.353 E36.05066
G1 X83.976 Y71.815 E36.08294
G1 X83.439 Y72.375 E36.1152
G1 X83.006 Y73.018 E36.14743
G1 X82.689 Y73.719 E36.17941
G1 X82.656 Y73.832 E36.18431
G1 X82.492 Y74.471 E36.21173
G1 X82.479 Y74.585 E36.2165
G1 X82.424 Y75.248 E36.24416
G1 X82.489 Y76.023 E36.2765
G1 X82.686 Y76.775 E36.30882
G1 X83.003 Y77.476 E36.3408
G1 X83.066 Y77.574 E36.34565
G1 X83.44 Y78.125 E36.37333
G1 X83.976 Y78.685 E36.40556
G1 X84.601 Y79.147 E36.43787
G1 X85.293 Y79.496 E36.47009
G1 X86.036 Y79.723 E36.50239
G0 X86.121 Y79.331
;TYPE:WALL-OUTER
G1 X86.821 Y79.42 E36.53173
G1 X86.903 Y79.419 E36.53514
G1 X87.53 Y79.391 E36.56123
G1 X88.223 Y79.242 E36.5907
G1 X88.879 Y78.978 E36.6201
G1 X89.482 Y78.606 E36.64956
G1 X90.014 Y78.139 E36.67899
G1 X90.458 Y77.589 E36.70838
G1 X90.5 Y77.518 E36.71181
G1 X90.804 Y76.969 E36.7379
G1 X91.04 Y76.302 E36.76731
G1 X91.159 Y75.608 E36.79659
G1 X91.159 Y74.892 E36.82636
G1 X91.04 Y74.198 E36.85563
G1 X90.804 Y73.53 E36.88508
G1 X90.459 Y72.913 E36.91447
G1 X90.014 Y72.361 E36.94395
G1 X89.482 Y71.894 E36.97338
G1 X88.879 Y71.522 E37.00284
G1 X88.223 Y71.258 E37.03224
G1 X87.529 Y71.109 E37.06175
G1 X86.823 Y71.079 E37.09113
G1 X86.121 Y71.169 E37.12055
G1 X85.445 Y71.376 E37.14995
G1 X85.371 Y71.411 E37.15335
G1 X84.811 Y71.695 E37.17945
G1 X84.241 Y72.116 E37.20891
G1 X83.752 Y72.627 E37.23832
G1 X83.356 Y73.214 E37.26776
G1 X83.065 Y73.857 E37.2971
G1 X83.042 Y73.937 E37.30056
G1 X82.886 Y74.543 E37.32658
G1 X82.877 Y74.624 E37.32997
G1 X82.825 Y75.248 E37.356
G1 X82.885 Y75.955 E37.3855
G1 X83.064 Y76.641 E37.41497
G1 X83.355 Y77.284 E37.44432
G1 X83.4 Y77.354 E37.44778
G1 X83.752 Y77.873 E37.47385
G1 X84.241 Y78.384 E37.50325
G1 X84.811 Y78.805 E37.53272
G1 X85.443 Y79.123 E37.56213
G1 X86.121 Y79.331 E37.59161
G0 X86.319 Y79.356
G0 X86.263 Y79.792
G0 X86.256 Y79.851
G0 X85.279 Y79.533
G0 X84.581 Y79.181
G0 X65.824 Y62.2
G0 X65.845 Y62.103
;TYPE:WALL-INNER
G1 X66.763 Y62.219 E37.63008
G1 X66.898 Y62.217 E37.6357
G1 X67.695 Y62.182 E37.66886
G1 X68.604 Y61.987 E37.70752
G1 X69.465 Y61.64 E37.74611
G1 X70.251 Y61.156 E37.78449
G1 X70.356 Y61.068 E37.79018
G1 X70.954 Y60.539 E37.82338
G1 X71.538 Y59.816 E37.86202
G1 X71.987 Y59.012 E37.9003
G1 X72.035 Y58.885 E37.90595
G1 X72.298 Y58.135 E37.93899
G1 X72.324 Y58.002 E37.94462
G1 X72.456 Y57.217 E37.97772
G1 X72.456 Y56.282 E38.01659
G1 X72.299 Y55.37 E38.05507
G1 X71.99 Y54.494 E38.09368
G1 X71.538 Y53.684 E38.13225
G1 X70.954 Y52.96 E38.17092
G1 X70.256 Y52.347 E38.20954
G1 X69.465 Y51.86 E38.24816
G1 X68.604 Y51.513 E38.28676
G1 X67.699 Y51.319 E38.32524
G1 X67.565 Y51.31 E38.33082
G1 X66.775 Y51.28 E38.36369
G1 X66.641 Y51.294 E38.36929
G1 X65.847 Y51.397 E38.40258
G1 X64.959 Y51.669 E38.44119
G1 X64.129 Y52.086 E38.47981
G1 X63.382 Y52.639 E38.51845
G1 X62.739 Y53.31 E38.55708
G1 X62.22 Y54.08 E38.59569
G1 X61.837 Y54.925 E38.63426
G1 X61.602 Y55.825 E38.67293
G1 X61.524 Y56.75 E38.71153
G1 X61.602 Y57.669 E38.74987
G1 X61.634 Y57.802 E38.75556
G1 X61.837 Y58.575 E38.78879
G1 X62.217 Y59.413 E38.82704
G1 X62.29 Y59.528 E38.8327
G1 X62.74 Y60.19 E38.86598
G1 X63.382 Y60.861 E38.90459
G1 X64.129 Y61.414 E38.94323
G1 X64.958 Y61.83 E38.9818
G1 X65.845 Y62.103 E39.02038
G0 X65.93 Y61.711
;TYPE:WALL-OUTER
G1 X66.784 Y61.819 E39.05617
G1 X66.885 Y61.817 E39.06037
G1 X67.644 Y61.784 E39.09195
G1 X68.486 Y61.603 E39.12776
G1 X69.284 Y61.282 E39.16352
G1 X70.016 Y60.831 E39.19927
G1 X70.094 Y60.765 E39.20351
G1 X70.664 Y60.262 E39.23512
G1 X71.205 Y59.591 E39.27095
